ncols 273
nrows 206
xllcorner 470935.387061
yllcorner 3439260.20568
cellsize 10.0
NODATA_value 9999.0
9999 9999 9999 9999 9999 9999 9999 9999 9999 9999 9999 9999 9999 9999 9999 9999 9999 9999 9999 9999 9999 9999 9999 9999 9999 9999 0.036292 0.026528 0.026528 0.026528 0.022613 0.032489 0.036292 0.040732 0.031096 0.026528 0.026528 0.031096 0.031096 0.031096 0.031096 0.031096 0.036292 0.036292 0.036292 0.029346 0.029346 0.029346 0.035259 0.041749 0.041749 0.037664 0.048784 0.052414 0.043437 0.052414 0.052414 0.048784 0.044781 0.031096 0.029346 0.024042 0.010951 0.007593 0.003440 0.003059 0.000384 0.001916 0.004956 0.007593 0.007593 0.010951 0.018289 0.037664 0.036292 0.062773 0.091057 0.076867 0.051099 0.044781 0.070668 0.096066 0.115231 0.079319 0.098111 0.096066 0.082666 0.071604 0.062773 0.098111 0.087482 0.062773 0.041749 0.029346 0.029346 0.029346 0.036292 0.036292 0.041749 0.064365 0.087482 0.107330 0.110734 0.100725 0.100725 0.096066 0.076867 0.059245 0.059245 0.087482 0.087482 0.060532 0.091057 0.096066 0.076867 0.087482 0.076867 0.076867 0.076867 0.069102 0.081756 0.087482 0.087482 0.076867 0.060532 0.052414 0.056333 0.060532 0.076867 0.116627 0.139420 0.128444 0.117740 0.087482 0.078095 0.078095 0.081756 0.091057 0.100725 0.147804 0.150650 0.121062 0.087482 0.086284 0.097236 0.087482 0.100725 0.110734 0.106474 0.091057 0.081756 0.078095 0.110734 0.081756 0.025110 0.010951 0.006089 0.006089 0.003440 0.000000 0.001916 0.001916 0.003059 0.003059 0.001534 0.013538 0.055358 0.029346 0.007593 0.003440 0.001534 0.001916 0.024042 0.000384 0.013538 0.064365 0.000384 0.087482 0.115231 0.091057 0.097236 0.100725 0.106474 0.207026 0.241043 0.174778 0.124085 0.097236 0.107330 0.107330 0.107330 0.106188 0.106188 0.078095 0.086284 0.162114 0.150650 0.096066 0.107330 0.107330 0.076867 0.087482 0.078095 0.076867 0.100725 0.100725 0.105044 0.087781 0.106474 0.124085 0.133832 0.114392 0.096066 0.223528 0.339131 0.286552 0.234977 0.114392 0.110734 0.151938 0.105044 0.052414 0.131685 0.139420 0.097236 0.124085 0.150650 0.137034 0.121062 0.097236 0.087781 0.133832 0.142582 0.142582 0.117740 0.078095 0.096066 0.143631 0.153735 0.149617 0.153735 0.138361 0.133832 0.121062 0.096066 0.121062 0.117740 0.036292 0.025110 0.096944 0.100725 0.067845 0.070668 0.056333 0.087482 0.110734 9999 9999 9999 9999 9999 9999 9999 9999 9999 9999 9999 9999 9999 9999 9999 9999 9999
9999 9999 9999 9999 9999 9999 9999 9999 9999 9999 9999 9999 9999 9999 9999 9999 9999 9999 9999 9999 9999 9999 9999 9999 9999 0.036292 0.027235 0.027235 0.031096 0.031096 0.031096 0.036292 0.031096 0.031096 0.026528 0.026528 0.026528 0.031096 0.027235 0.031096 0.027235 0.031096 0.036292 0.036292 0.027235 0.027235 0.032489 0.029346 0.035259 0.041749 0.035259 0.041749 0.048784 0.039372 0.044781 0.062134 0.060532 0.044781 0.037664 0.037664 0.032837 0.016834 0.009463 0.004956 0.003820 0.001916 0.000768 0.000384 0.003820 0.006466 0.007593 0.013906 0.030047 0.039372 0.052414 0.072849 0.060532 0.059245 0.059245 0.068160 0.091057 0.106474 0.100725 0.070668 0.092536 0.096066 0.076867 0.063092 0.079319 0.101014 0.062773 0.044781 0.035259 0.029346 0.029346 0.035259 0.038348 0.027235 0.038348 0.054052 0.078095 0.117740 0.119127 0.098693 0.078095 0.077175 0.077175 0.059245 0.068160 0.098693 0.087482 0.070668 0.079625 0.077175 0.086584 0.086584 0.067845 0.077175 0.086584 0.087482 0.079625 0.079625 0.079625 0.060532 0.068160 0.079625 0.056333 0.048784 0.069102 0.106474 0.127630 0.128444 0.119127 0.108752 0.096066 0.086584 0.088976 0.088976 0.110734 0.129797 0.138626 0.116627 0.068160 0.068160 0.087482 0.078095 0.088976 0.103322 0.106474 0.098693 0.088976 0.079625 0.098693 0.091057 0.031096 0.015007 0.009835 0.006089 0.003820 0.000768 0.003440 0.001916 0.003059 0.003820 0.003820 0.003820 0.030047 0.051099 0.013906 0.000384 0.000768 0.012062 0.106188 0.016834 0.001534 0.048784 0.027235 0.042087 0.128715 0.140477 0.098693 0.084479 0.070668 0.155014 0.252767 0.188310 0.153735 0.128444 0.106474 0.106474 0.116905 0.116905 0.096359 0.079625 0.106474 0.149617 0.138626 0.116627 0.096359 0.100725 0.098693 0.078095 0.072849 0.070668 0.084479 0.087781 0.091649 0.096944 0.096944 0.105044 0.124085 0.124085 0.087781 0.196349 0.400546 0.353411 0.188310 0.095773 0.084479 0.088976 0.100725 0.162114 0.165874 0.137034 0.134100 0.124085 0.140741 0.142582 0.096066 0.119957 0.147804 0.100725 0.108752 0.128444 0.106188 0.106474 0.123537 0.110169 0.100725 0.151938 0.150650 0.173059 0.127630 0.068160 0.096066 0.128444 0.096066 0.039372 0.048784 0.060532 0.070668 0.059567 0.048784 0.070668 0.091057 0.091649 0.084479 9999 9999 9999 9999 9999 9999 9999 9999 9999 9999 9999 9999 9999 9999 9999 9999
9999 9999 9999 9999 9999 9999 9999 9999 9999 9999 9999 9999 9999 9999 9999 9999 9999 9999 9999 9999 9999 9999 9999 9999 0.036292 0.027235 0.027235 0.036292 0.036292 0.036292 0.036292 0.027235 0.027235 0.031096 0.026528 0.026528 0.026528 0.026528 0.027235 0.031096 0.027235 0.036292 0.036292 0.027235 0.027235 0.036292 0.027235 0.024042 0.035259 0.041749 0.039372 0.048452 0.044781 0.041749 0.046455 0.054052 0.043773 0.043773 0.043773 0.037664 0.031096 0.019736 0.009463 0.003059 0.003059 0.001916 0.000768 0.000384 0.003820 0.003820 0.006466 0.024042 0.046455 0.048784 0.051757 0.056333 0.054052 0.060532 0.059567 0.078095 0.106474 0.107330 0.086584 0.079625 0.096944 0.091649 0.074709 0.064365 0.071604 0.062773 0.048452 0.048452 0.042087 0.032489 0.032489 0.038348 0.038348 0.032489 0.032489 0.039372 0.079625 0.119127 0.116905 0.086584 0.077175 0.086584 0.068160 0.060532 0.091057 0.100725 0.091057 0.072849 0.075636 0.081756 0.084479 0.079625 0.077175 0.087482 0.087482 0.087482 0.087482 0.091057 0.081756 0.067215 0.079014 0.084479 0.067215 0.055358 0.056333 0.087482 0.106474 0.108752 0.110734 0.121062 0.119127 0.106474 0.096066 0.096359 0.097236 0.106474 0.117740 0.100725 0.081756 0.078095 0.087482 0.077175 0.069102 0.081756 0.121062 0.119127 0.078095 0.081756 0.100725 0.093716 0.044781 0.019375 0.015007 0.013538 0.006466 0.003059 0.003440 0.003059 0.004956 0.003820 0.006466 0.013538 0.039372 0.039372 0.006089 0.000384 0.006466 0.158831 0.070668 0.157308 0.006466 0.013906 0.051428 0.000384 0.087781 0.170099 0.130067 0.082968 0.075636 0.110734 0.231480 0.250230 0.173059 0.127630 0.116905 0.106474 0.106474 0.106474 0.088976 0.081756 0.121062 0.163371 0.150650 0.098693 0.075636 0.096944 0.114392 0.096066 0.087482 0.082968 0.079014 0.087781 0.093716 0.093716 0.087781 0.096944 0.113270 0.134100 0.096944 0.156035 0.400546 0.330298 0.161359 0.095773 0.087482 0.117740 0.236065 0.264664 0.149100 0.124085 0.134100 0.096944 0.116348 0.184962 0.156035 0.101014 0.059245 0.079625 0.119127 0.106188 0.106474 0.127630 0.139420 0.107330 0.052414 0.127358 0.173797 0.127630 0.134100 0.107330 0.106188 0.116905 0.129797 0.067845 0.021537 0.030047 0.067845 0.062134 0.046455 0.059245 0.082666 0.092536 0.119957 0.114392 0.079319 9999 9999 9999 9999 9999 9999 9999 9999 9999 9999 9999 9999 9999 9999
9999 9999 9999 9999 9999 9999 9999 9999 9999 9999 9999 9999 9999 9999 9999 9999 9999 9999 9999 9999 9999 9999 9999 0.036292 0.027235 0.027235 0.036292 0.036292 0.036292 0.036292 0.027235 0.027235 0.036292 0.027235 0.022613 0.026528 0.026528 0.026528 0.031096 0.027235 0.031096 0.036292 0.027235 0.027235 0.036292 0.031096 0.022613 0.031096 0.046455 0.042087 0.051757 0.062773 0.042087 0.026882 0.037664 0.044781 0.044781 0.044781 0.043773 0.043773 0.030047 0.019736 0.007593 0.004956 0.003059 0.001916 0.000384 0.000384 0.001916 0.006466 0.013906 0.037664 0.052414 0.052414 0.056333 0.062773 0.059567 0.059567 0.070668 0.072849 0.087482 0.096359 0.097236 0.106188 0.110734 0.093716 0.070668 0.059567 0.064365 0.070668 0.066899 0.057630 0.045786 0.035604 0.036292 0.042087 0.042087 0.031096 0.027235 0.048452 0.087781 0.100725 0.097236 0.097236 0.081756 0.079625 0.086284 0.088976 0.093716 0.100725 0.088976 0.081756 0.087781 0.087781 0.091649 0.066899 0.070668 0.093716 0.091057 0.091057 0.098693 0.100725 0.091057 0.084479 0.082968 0.079014 0.067215 0.041749 0.041749 0.060532 0.077175 0.098693 0.110734 0.121062 0.129797 0.117740 0.107330 0.106474 0.086584 0.086584 0.108752 0.098693 0.088976 0.087482 0.097236 0.078095 0.060532 0.078095 0.108752 0.123537 0.084479 0.067215 0.105044 0.101014 0.063092 0.035259 0.032837 0.018289 0.009835 0.004956 0.000384 0.003059 0.004956 0.007593 0.006466 0.019736 0.052414 0.030047 0.003820 0.000384 0.078095 0.124358 0.000384 0.115231 0.092536 0.001534 0.035259 0.010951 0.041749 0.130067 0.138626 0.110169 0.093716 0.091057 0.227077 0.312255 0.184962 0.107330 0.110734 0.108752 0.116905 0.096066 0.070668 0.072849 0.126542 0.181591 0.151165 0.109886 0.087482 0.082968 0.101014 0.101014 0.096066 0.096944 0.096944 0.093716 0.096944 0.084479 0.084479 0.100725 0.093716 0.106474 0.119957 0.129797 0.422730 0.383483 0.114392 0.096359 0.119127 0.263837 0.308430 0.153735 0.069102 0.097236 0.107330 0.086284 0.087482 0.127630 0.165124 0.108752 0.077175 0.078095 0.077175 0.106474 0.097236 0.116627 0.149617 0.096359 0.077175 0.108752 0.140741 0.138626 0.116905 0.119127 0.108752 0.100725 0.116348 0.121062 0.082666 0.052743 0.057630 0.082666 0.069729 0.059567 0.082968 0.119957 0.126542 0.153735 0.139420 0.112426 9999 9999 9999 9999 9999 9999 9999 9999 9999 9999 9999 9999 9999
9999 9999 9999 9999 9999 9999 9999 9999 9999 9999 9999 9999 9999 9999 9999 9999 9999 9999 9999 9999 0.032489 0.027235 0.036292 0.027235 0.027235 0.036292 0.036292 0.036292 0.036292 0.027235 0.027235 0.036292 0.027235 0.019375 0.022613 0.026528 0.022613 0.022613 0.022613 0.027235 0.032489 0.027235 0.027235 0.036292 0.036292 0.031096 0.040732 0.051428 0.046455 0.045786 0.057630 0.048784 0.021537 0.015007 0.039372 0.054052 0.046455 0.037664 0.039372 0.037664 0.036635 0.025110 0.012801 0.007593 0.003820 0.001916 0.001534 0.001916 0.003440 0.003820 0.018651 0.043773 0.043773 0.059567 0.077175 0.081756 0.067215 0.076867 0.052743 0.051757 0.091649 0.075636 0.081756 0.139420 0.147804 0.098693 0.081756 0.074709 0.069729 0.064365 0.071604 0.069729 0.040732 0.031096 0.040732 0.051428 0.051428 0.040732 0.040732 0.064365 0.079319 0.087781 0.106474 0.113270 0.093716 0.054052 0.068160 0.108752 0.098693 0.078095 0.086584 0.100725 0.091057 0.096944 0.100725 0.087482 0.084479 0.087482 0.091649 0.087781 0.091057 0.098693 0.091057 0.091057 0.084479 0.067215 0.046455 0.039372 0.041749 0.046455 0.059567 0.077175 0.098693 0.131685 0.140741 0.119127 0.108752 0.108752 0.103322 0.087482 0.098693 0.100725 0.091057 0.091057 0.088976 0.084479 0.072849 0.070668 0.093716 0.110169 0.101014 0.071604 0.084479 0.112426 0.101014 0.054052 0.037664 0.036635 0.013538 0.003059 0.000384 0.001916 0.003820 0.007593 0.007593 0.012801 0.055358 0.064365 0.006466 0.001916 0.060532 0.086584 0.003440 0.024042 0.125179 0.040732 0.018651 0.026882 0.016834 0.106474 0.134100 0.119957 0.106474 0.108752 0.259893 0.327327 0.150650 0.081756 0.113270 0.142582 0.138626 0.086584 0.054052 0.062773 0.106474 0.165874 0.149100 0.121062 0.109886 0.087781 0.084479 0.100725 0.106474 0.093716 0.087781 0.091649 0.105044 0.114392 0.096944 0.096944 0.096944 0.097236 0.117740 0.059245 0.203800 0.551247 0.330298 0.162114 0.176734 0.162114 0.170099 0.211599 0.130067 0.116348 0.110169 0.096944 0.103322 0.121062 0.140477 0.128715 0.106474 0.100725 0.108752 0.116627 0.096066 0.106474 0.131685 0.134100 0.096944 0.096944 0.162114 0.153735 0.087482 0.096944 0.106474 0.105044 0.103034 0.115231 0.149100 0.149100 0.138626 0.164123 0.175023 0.138626 0.113270 0.142582 0.144939 0.159338 0.181107 0.142845 0.190214 9999 9999 9999 9999 9999 9999 9999 9999 9999 9999 9999 9999
9999 9999 9999 9999 9999 9999 9999 9999 9999 9999 9999 9999 9999 9999 9999 9999 9999 9999 9999 0.032489 0.032489 0.032489 0.027235 0.027235 0.036292 0.036292 0.036292 0.036292 0.032489 0.027235 0.036292 0.027235 0.019375 0.019375 0.022613 0.018651 0.015373 0.019375 0.027235 0.027235 0.027235 0.032489 0.036292 0.040732 0.040732 0.051428 0.045786 0.036292 0.042087 0.044781 0.035604 0.027235 0.021537 0.029346 0.048784 0.048784 0.039372 0.046455 0.046455 0.032837 0.031096 0.031096 0.016834 0.004956 0.003440 0.001534 0.001534 0.003059 0.003820 0.003820 0.013906 0.039372 0.051428 0.068160 0.097236 0.086584 0.086284 0.059567 0.031096 0.072849 0.105044 0.087482 0.092536 0.148841 0.123537 0.068160 0.097236 0.088976 0.062773 0.071604 0.084479 0.051428 0.036292 0.051428 0.069729 0.069729 0.069729 0.055358 0.046455 0.059567 0.074709 0.091649 0.100725 0.093716 0.062134 0.044781 0.093716 0.110734 0.079625 0.081756 0.108752 0.108752 0.100725 0.113270 0.106474 0.082968 0.084479 0.092536 0.092536 0.074709 0.079014 0.098693 0.098693 0.091057 0.081756 0.054052 0.046455 0.048784 0.041749 0.041749 0.046455 0.060532 0.076867 0.119127 0.144939 0.123537 0.110734 0.091057 0.103322 0.110734 0.093716 0.100725 0.105044 0.110169 0.100725 0.087482 0.096066 0.082968 0.082968 0.096066 0.092536 0.079319 0.067215 0.087781 0.113270 0.088976 0.043773 0.030047 0.024042 0.006466 0.001534 0.001916 0.003820 0.003820 0.004956 0.004956 0.048784 0.091057 0.013906 0.009463 0.090166 0.081756 0.003820 0.001916 0.035604 0.096359 0.037664 0.018289 0.000384 0.079014 0.124085 0.130067 0.134100 0.161359 0.302065 0.272663 0.110734 0.081756 0.113270 0.158831 0.158831 0.096066 0.051428 0.064365 0.103322 0.126542 0.128715 0.113270 0.121062 0.110734 0.072849 0.075636 0.103322 0.096944 0.075636 0.075636 0.081756 0.110169 0.106474 0.103322 0.131685 0.139420 0.127630 0.059245 0.059245 0.412955 0.566794 0.200554 0.116905 0.103322 0.088976 0.144417 0.181591 0.147804 0.119957 0.119957 0.113270 0.113270 0.119957 0.134100 0.134100 0.110734 0.119127 0.140741 0.106474 0.077175 0.084479 0.148841 0.165124 0.149875 0.196115 0.224417 0.114392 0.087781 0.105044 0.082059 0.115231 0.119127 0.109886 0.153735 0.155014 0.165874 0.212963 0.231480 0.202643 0.188549 0.170099 0.164123 0.175268 0.158831 0.157308 9999 9999 9999 9999 9999 9999 9999 9999 9999 9999 9999 9999
9999 9999 9999 9999 9999 9999 9999 9999 9999 9999 9999 9999 9999 9999 9999 9999 9999 9999 0.029346 0.032489 0.027235 0.029346 0.027235 0.036292 0.031096 0.031096 0.031096 0.031096 0.027235 0.032489 0.032489 0.024042 0.024042 0.019375 0.015373 0.009463 0.015373 0.027235 0.027235 0.027235 0.032489 0.036292 0.046455 0.056982 0.056982 0.051428 0.035604 0.035604 0.031096 0.035259 0.039372 0.024042 0.022613 0.031096 0.044781 0.048784 0.041749 0.041749 0.037664 0.031096 0.031096 0.031096 0.015007 0.003059 0.001534 0.001534 0.003440 0.003059 0.007593 0.003820 0.009835 0.043773 0.059245 0.051428 0.079625 0.100725 0.079625 0.075636 0.060532 0.096066 0.116627 0.081756 0.096944 0.114392 0.060532 0.072849 0.098693 0.096359 0.087482 0.079014 0.066899 0.057630 0.076867 0.092536 0.069729 0.063092 0.063092 0.044781 0.041749 0.051428 0.074709 0.087781 0.091649 0.079014 0.067215 0.082968 0.105044 0.096944 0.103322 0.081756 0.081756 0.108752 0.110734 0.110734 0.110734 0.106474 0.101014 0.092536 0.090166 0.076867 0.082666 0.082968 0.103322 0.100725 0.075636 0.056333 0.062773 0.051757 0.041749 0.044781 0.051757 0.059245 0.054052 0.076867 0.123537 0.140477 0.130067 0.103322 0.097236 0.093716 0.079014 0.082968 0.109886 0.119127 0.101014 0.092536 0.096066 0.091649 0.091649 0.087781 0.084479 0.087482 0.076867 0.078095 0.108752 0.110734 0.051099 0.024042 0.023685 0.009463 0.000384 0.001916 0.003820 0.003820 0.003820 0.003440 0.029697 0.088976 0.015373 0.096359 0.125724 0.012801 0.025110 0.076867 0.000000 0.024042 0.055358 0.015007 0.000000 0.035259 0.119957 0.155014 0.167369 0.210003 0.275913 0.225083 0.116348 0.079014 0.100725 0.144417 0.149100 0.104184 0.071604 0.079625 0.116905 0.106474 0.129797 0.139420 0.098693 0.084479 0.079014 0.084479 0.091057 0.093716 0.087482 0.086584 0.068160 0.078095 0.108752 0.107330 0.117740 0.129797 0.144939 0.130067 0.043773 0.072849 0.561098 0.525115 0.162114 0.140741 0.134100 0.121062 0.117740 0.103322 0.105044 0.124085 0.134100 0.124358 0.124358 0.148841 0.155014 0.134100 0.123537 0.142582 0.119127 0.041749 0.075636 0.145461 0.198923 0.171088 0.199855 0.224417 0.175023 0.109886 0.110734 0.096066 0.091649 0.133832 0.134100 0.147804 0.162114 0.147804 0.173305 0.223528 0.208173 0.196349 0.181107 0.181107 0.182798 0.175268 0.158831 0.279950 9999 9999 9999 9999 9999 9999 9999 9999 9999 9999 9999
9999 9999 9999 9999 9999 9999 9999 9999 9999 9999 9999 9999 9999 9999 9999 9999 0.035259 0.029346 0.029346 0.029346 0.027235 0.027235 0.032489 0.027235 0.027235 0.031096 0.031096 0.031096 0.031096 0.036292 0.032489 0.029346 0.026882 0.019736 0.007593 0.007593 0.021537 0.027235 0.027235 0.027235 0.040732 0.063092 0.082059 0.075636 0.057630 0.040732 0.042087 0.031096 0.026528 0.031096 0.031096 0.035259 0.035259 0.032489 0.038348 0.039372 0.039372 0.032837 0.032837 0.031096 0.031096 0.031096 0.013906 0.003059 0.003440 0.003820 0.003440 0.003820 0.007593 0.007593 0.013538 0.043437 0.051099 0.043773 0.069102 0.088976 0.079625 0.070668 0.069102 0.086584 0.129797 0.128444 0.106474 0.086284 0.076867 0.084479 0.072849 0.084479 0.097236 0.100725 0.084479 0.087482 0.088976 0.082968 0.051757 0.051428 0.056982 0.042087 0.044781 0.051428 0.059567 0.091649 0.096944 0.082968 0.082968 0.092536 0.091649 0.096066 0.070668 0.070668 0.100725 0.108752 0.108752 0.108752 0.121062 0.121062 0.100725 0.091649 0.087482 0.090166 0.095773 0.088976 0.092536 0.096944 0.087781 0.074709 0.071604 0.046455 0.048452 0.055358 0.055358 0.055358 0.044781 0.046455 0.069102 0.106474 0.144417 0.147804 0.100725 0.082968 0.075636 0.067215 0.087482 0.130067 0.115231 0.101014 0.110169 0.084479 0.084479 0.100725 0.108752 0.107330 0.062134 0.056333 0.096944 0.130067 0.075636 0.031096 0.030047 0.010951 0.000768 0.001916 0.003440 0.003440 0.006466 0.006466 0.029346 0.043437 0.024042 0.067215 0.003820 0.057630 0.140741 0.087781 0.078095 0.000384 0.009463 0.015373 0.004956 0.019736 0.079014 0.159338 0.260310 0.272663 0.221745 0.153735 0.096944 0.075636 0.088976 0.108752 0.123537 0.106474 0.097236 0.110734 0.119127 0.096359 0.096359 0.108752 0.093716 0.084479 0.075636 0.093716 0.100725 0.110734 0.110734 0.081756 0.075636 0.078095 0.098693 0.107330 0.117740 0.108752 0.093716 0.119127 0.101014 0.084479 0.298371 0.618647 0.452080 0.223528 0.114392 0.098111 0.194469 0.214776 0.214776 0.236717 0.182798 0.201715 0.207485 0.217260 0.234105 0.234105 0.208173 0.190688 0.124085 0.056333 0.077175 0.098111 0.191399 0.239317 0.193291 0.174778 0.161359 0.125724 0.133832 0.133832 0.110169 0.123537 0.170099 0.151165 0.155014 0.140477 0.134100 0.162114 0.140477 0.119957 0.153735 0.187595 0.209317 0.194469 0.207026 0.267753 9999 9999 9999 9999 9999 9999 9999 9999 9999 9999 9999
9999 9999 9999 9999 9999 9999 9999 9999 9999 9999 9999 9999 9999 9999 0.029346 0.029346 0.029346 0.029346 0.029346 0.029346 0.029346 0.027235 0.027235 0.022613 0.031096 0.031096 0.031096 0.031096 0.036292 0.036292 0.032489 0.035259 0.026882 0.023685 0.013906 0.004956 0.026882 0.035259 0.027235 0.051428 0.082666 0.088976 0.088976 0.057630 0.048452 0.035604 0.036292 0.029346 0.036292 0.063092 0.052743 0.032489 0.031096 0.029346 0.029346 0.035259 0.041749 0.039372 0.032837 0.025110 0.031096 0.024042 0.013538 0.006466 0.003820 0.003440 0.003059 0.003820 0.003820 0.009835 0.018289 0.044781 0.051099 0.036635 0.064365 0.087482 0.078095 0.078095 0.079625 0.088976 0.107330 0.116905 0.106474 0.088976 0.110734 0.106474 0.097236 0.079625 0.081756 0.098693 0.093716 0.109886 0.101014 0.069729 0.048784 0.066899 0.063092 0.055358 0.048784 0.048452 0.059567 0.082968 0.081756 0.084479 0.087781 0.079014 0.096066 0.101014 0.071604 0.079319 0.084479 0.097236 0.107330 0.119127 0.119127 0.129797 0.110734 0.084479 0.096944 0.109886 0.090166 0.088976 0.088976 0.098111 0.096066 0.087482 0.071604 0.051428 0.051428 0.052743 0.059567 0.055358 0.046455 0.032489 0.037664 0.067845 0.117740 0.147804 0.100725 0.091649 0.096944 0.055358 0.048452 0.091649 0.119127 0.119127 0.134100 0.110169 0.091057 0.103322 0.103322 0.105044 0.084479 0.071604 0.096066 0.134100 0.114392 0.052414 0.056333 0.018651 0.000768 0.003440 0.006089 0.006466 0.006466 0.015007 0.029346 0.010951 0.006466 0.016834 0.052414 0.092536 0.046455 0.059245 0.087482 0.001534 0.001916 0.007593 0.003820 0.009835 0.051757 0.123537 0.282560 0.330298 0.225083 0.139420 0.096359 0.097236 0.113270 0.110734 0.142582 0.142582 0.103322 0.088976 0.086284 0.087482 0.086584 0.081756 0.084479 0.084479 0.072849 0.091057 0.103322 0.091057 0.100725 0.091649 0.100725 0.103322 0.113270 0.119127 0.108752 0.103322 0.084479 0.087781 0.096066 0.087781 0.184722 0.365636 0.527241 0.418836 0.269804 0.254452 0.267753 0.304773 0.287347 0.341867 0.312255 0.249806 0.234105 0.198923 0.234977 0.346401 0.320401 0.293671 0.181832 0.151938 0.140741 0.098111 0.165124 0.214776 0.184722 0.143631 0.148841 0.130067 0.138626 0.148841 0.137034 0.121062 0.158831 0.155014 0.134100 0.119957 0.144939 0.134100 0.169356 0.140477 0.126542 0.145461 0.192109 0.185442 0.203800 0.242764 0.473104 9999 9999 9999 9999 9999 9999 9999 9999 9999 9999
9999 9999 9999 9999 9999 9999 9999 9999 9999 9999 9999 9999 0.035259 0.032837 0.032837 0.035259 0.029346 0.029346 0.029346 0.024042 0.024042 0.024042 0.019375 0.027235 0.026528 0.026528 0.026528 0.035604 0.035604 0.036292 0.036292 0.035259 0.037664 0.036292 0.041749 0.024042 0.042087 0.035259 0.059567 0.082666 0.069729 0.076867 0.063092 0.045786 0.038348 0.027235 0.027235 0.036292 0.045786 0.040732 0.022613 0.032489 0.027235 0.019375 0.035259 0.044781 0.038348 0.029346 0.026882 0.025110 0.025110 0.018289 0.013906 0.009835 0.003059 0.001534 0.001916 0.007593 0.006466 0.009835 0.031096 0.046455 0.043773 0.081756 0.091649 0.082968 0.091649 0.101014 0.091649 0.091649 0.093716 0.103322 0.088976 0.059567 0.096359 0.138626 0.106474 0.097236 0.096359 0.107330 0.144939 0.124085 0.092536 0.056982 0.055358 0.082968 0.071604 0.066899 0.064365 0.056333 0.057630 0.062773 0.075636 0.093716 0.091649 0.100725 0.133832 0.106474 0.082666 0.064365 0.059567 0.084479 0.119127 0.119127 0.117740 0.129797 0.108752 0.103322 0.113270 0.103322 0.087781 0.084479 0.082666 0.096359 0.084479 0.079319 0.066899 0.051428 0.056982 0.063092 0.063092 0.064365 0.051428 0.036292 0.046455 0.070668 0.072849 0.087482 0.096944 0.087781 0.096066 0.084479 0.067215 0.072849 0.079014 0.105044 0.134100 0.134100 0.103322 0.096944 0.091649 0.092536 0.090166 0.084479 0.100725 0.126542 0.129797 0.060532 0.056333 0.063092 0.000000 0.003440 0.006089 0.006089 0.009835 0.018651 0.023685 0.003820 0.006089 0.004956 0.009835 0.009463 0.013906 0.103034 0.076867 0.003820 0.000384 0.007593 0.006089 0.003440 0.039372 0.116905 0.246829 0.313969 0.263009 0.184962 0.127358 0.128444 0.108752 0.098693 0.119127 0.116627 0.086584 0.062134 0.075636 0.096944 0.087781 0.082968 0.087781 0.096944 0.084479 0.078095 0.097236 0.086584 0.079625 0.079625 0.088976 0.100725 0.119127 0.134100 0.106474 0.100725 0.091649 0.075636 0.084479 0.091057 0.128444 0.255502 0.318516 0.336017 0.258016 0.203800 0.177709 0.182798 0.192109 0.216358 0.271235 0.252978 0.240827 0.177709 0.169356 0.291307 0.377643 0.337484 0.275913 0.246829 0.130067 0.212736 0.209317 0.184962 0.140477 0.110734 0.127358 0.138626 0.130067 0.159338 0.134100 0.119127 0.153735 0.174778 0.159085 0.113270 0.131685 0.110169 0.158831 0.192346 0.136236 0.125724 0.151938 0.174778 0.170099 0.164123 0.327327 0.646306 9999 9999 9999 9999 9999 9999 9999 9999 9999
9999 9999 9999 9999 9999 9999 9999 9999 9999 0.032837 0.041749 0.039372 0.032837 0.035259 0.035259 0.032837 0.032837 0.029346 0.026882 0.021537 0.024042 0.019375 0.022613 0.022613 0.022613 0.026528 0.031096 0.035604 0.035604 0.040732 0.042087 0.042087 0.048784 0.051099 0.062134 0.059567 0.019375 0.048452 0.084479 0.059567 0.064365 0.071604 0.063092 0.057630 0.038348 0.032837 0.031096 0.035604 0.027235 0.027235 0.032489 0.026528 0.016834 0.027235 0.042087 0.044781 0.035259 0.029346 0.021537 0.019736 0.019736 0.018651 0.019736 0.010951 0.003059 0.001916 0.001916 0.004956 0.013538 0.025110 0.032837 0.039372 0.060532 0.091057 0.088976 0.096944 0.106474 0.091649 0.070668 0.087482 0.100725 0.119127 0.079014 0.082968 0.105044 0.088976 0.086284 0.096359 0.116905 0.138626 0.149875 0.127630 0.088976 0.051757 0.063092 0.071604 0.074709 0.066899 0.064365 0.054052 0.051757 0.051428 0.082968 0.110169 0.110169 0.119127 0.133832 0.101014 0.069102 0.063092 0.076867 0.084479 0.096944 0.108752 0.117740 0.140741 0.131685 0.106474 0.096944 0.100725 0.100725 0.084479 0.082968 0.084479 0.071604 0.066899 0.059245 0.059567 0.063092 0.069102 0.069102 0.069102 0.056982 0.046455 0.051428 0.064365 0.059567 0.051757 0.051099 0.062134 0.070668 0.082968 0.091649 0.079014 0.070668 0.087781 0.130067 0.140477 0.119957 0.091649 0.087482 0.084479 0.084479 0.101014 0.119957 0.162114 0.139420 0.043773 0.015373 0.075636 0.024042 0.003440 0.006089 0.009835 0.009835 0.009463 0.015007 0.013906 0.007593 0.003440 0.007593 0.024042 0.093716 0.100725 0.004956 0.001534 0.000768 0.007593 0.010951 0.001916 0.037664 0.149875 0.252134 0.275913 0.247681 0.184962 0.127630 0.127630 0.117740 0.106188 0.106188 0.097236 0.075636 0.062773 0.070668 0.091649 0.091649 0.084479 0.091057 0.093716 0.110734 0.116627 0.106474 0.076867 0.068160 0.076867 0.076867 0.096359 0.096359 0.093716 0.096944 0.096944 0.103322 0.097236 0.086584 0.106188 0.106474 0.163371 0.219731 0.190688 0.177709 0.158831 0.156799 0.140741 0.140741 0.173797 0.201715 0.246403 0.253610 0.185442 0.173305 0.201715 0.326395 0.288934 0.207026 0.177709 0.234323 0.275913 0.196818 0.126542 0.103034 0.106474 0.109886 0.144417 0.130067 0.159338 0.134100 0.116905 0.129797 0.174778 0.155014 0.140477 0.137034 0.137034 0.121062 0.145461 0.157308 0.112426 0.138626 0.134100 0.133832 0.149100 0.130067 0.413938 0.677634 9999 9999 9999 9999 9999 9999 9999 9999
9999 9999 9999 9999 9999 9999 9999 0.041749 0.039372 0.039372 0.041749 0.039372 0.039372 0.039372 0.032837 0.035259 0.032837 0.026882 0.026882 0.026882 0.021537 0.021537 0.019375 0.018651 0.022613 0.022613 0.027235 0.032489 0.040732 0.045786 0.052743 0.048452 0.038348 0.037664 0.062134 0.079014 0.019736 0.066899 0.066899 0.064365 0.071604 0.084479 0.071604 0.051428 0.035259 0.044781 0.038348 0.035604 0.031096 0.031096 0.026528 0.026528 0.031096 0.042087 0.040732 0.040732 0.032489 0.024042 0.016834 0.021537 0.019736 0.019736 0.019736 0.010951 0.003059 0.001916 0.003059 0.009463 0.025110 0.026882 0.041749 0.041749 0.056333 0.088976 0.096359 0.096066 0.086284 0.078095 0.086584 0.091057 0.103322 0.093716 0.079014 0.096066 0.084479 0.074709 0.075636 0.088976 0.116627 0.127358 0.139420 0.134100 0.110734 0.086584 0.064365 0.052743 0.057630 0.066899 0.064365 0.060532 0.056333 0.071604 0.084479 0.105044 0.110169 0.134100 0.128715 0.091649 0.071604 0.069102 0.075636 0.088976 0.090166 0.091649 0.123537 0.156035 0.147804 0.134100 0.105044 0.096066 0.096944 0.093716 0.096944 0.082968 0.064365 0.052743 0.059245 0.070668 0.071604 0.069729 0.063092 0.063092 0.051428 0.036292 0.051428 0.069729 0.064365 0.051428 0.036292 0.032837 0.043773 0.054052 0.079014 0.091649 0.079014 0.081756 0.116348 0.126542 0.110169 0.091649 0.074709 0.084479 0.084479 0.096066 0.173305 0.225083 0.140741 0.018651 0.009463 0.060532 0.037664 0.001534 0.009835 0.009835 0.006466 0.006089 0.003059 0.009835 0.003820 0.010951 0.013906 0.031096 0.051428 0.003820 0.000384 0.001916 0.000384 0.003440 0.019736 0.003820 0.023685 0.197755 0.313969 0.285556 0.205185 0.151938 0.128444 0.117740 0.116905 0.116905 0.096066 0.069102 0.062773 0.066899 0.067215 0.081756 0.100725 0.097236 0.078095 0.087482 0.129797 0.129797 0.100725 0.096944 0.078095 0.069102 0.078095 0.088976 0.081756 0.081756 0.088976 0.097236 0.117740 0.107330 0.096066 0.108752 0.097236 0.106474 0.134100 0.127358 0.110734 0.134100 0.181832 0.190688 0.157308 0.166124 0.225305 0.190688 0.173305 0.142845 0.124358 0.178926 0.184722 0.192346 0.134100 0.185681 0.312446 0.208173 0.124358 0.117740 0.130067 0.124358 0.110169 0.126542 0.181591 0.170099 0.153735 0.117740 0.096359 0.139420 0.161359 0.142582 0.131685 0.165874 0.124085 0.121062 0.175268 0.159085 0.148841 0.149100 0.109886 0.121062 0.118850 0.148841 0.453479 0.676674 9999 9999 9999 9999 9999 9999 9999
0.041749 0.046455 0.039372 0.046455 0.046455 0.041749 0.046455 0.046455 0.039372 0.046455 0.041749 0.039372 0.039372 0.039372 0.039372 0.032837 0.025110 0.032837 0.026882 0.025110 0.021537 0.021537 0.016834 0.015373 0.015373 0.016834 0.021537 0.035259 0.048452 0.057630 0.045786 0.038348 0.024042 0.024042 0.036635 0.074709 0.062134 0.048452 0.082968 0.076867 0.071604 0.076867 0.048452 0.042087 0.040732 0.039372 0.032837 0.027235 0.022613 0.031096 0.035604 0.035604 0.031096 0.036292 0.046455 0.040732 0.026528 0.019375 0.019375 0.019375 0.016834 0.021537 0.019736 0.010951 0.001916 0.000768 0.006089 0.021537 0.038348 0.048452 0.052743 0.052743 0.066899 0.064365 0.059567 0.079625 0.077175 0.087482 0.116905 0.106474 0.097236 0.106474 0.103322 0.110169 0.106474 0.103034 0.082666 0.071604 0.093716 0.117740 0.096359 0.113270 0.134100 0.121062 0.097236 0.067845 0.062773 0.069102 0.067215 0.069102 0.072849 0.070668 0.075636 0.096066 0.114392 0.134100 0.110169 0.082968 0.074709 0.071604 0.090166 0.096359 0.088976 0.090166 0.119127 0.165874 0.176978 0.138626 0.109886 0.101014 0.092536 0.096066 0.105044 0.091649 0.071604 0.051428 0.059567 0.082968 0.074709 0.059567 0.057630 0.057630 0.040732 0.035604 0.056982 0.063092 0.063092 0.056982 0.046455 0.031096 0.024042 0.030047 0.043773 0.075636 0.096944 0.087781 0.103322 0.123537 0.100725 0.084479 0.059245 0.055358 0.082968 0.106474 0.158831 0.227298 0.201715 0.048452 0.006089 0.097236 0.037664 0.013906 0.010951 0.009835 0.006466 0.001916 0.000768 0.001534 0.009463 0.018289 0.000384 0.044781 0.031096 0.044781 0.030047 0.015007 0.018289 0.025110 0.015007 0.006466 0.018651 0.186878 0.386214 0.312446 0.190688 0.144939 0.121062 0.119127 0.107330 0.096066 0.081756 0.059567 0.042087 0.062134 0.086584 0.086584 0.096066 0.096359 0.087482 0.076867 0.097236 0.116348 0.096066 0.119127 0.124085 0.084479 0.070668 0.079625 0.091057 0.098693 0.107330 0.096359 0.097236 0.121062 0.138361 0.131685 0.086584 0.062134 0.084479 0.096359 0.082666 0.082666 0.103034 0.141268 0.168115 0.153735 0.203800 0.196349 0.129797 0.116627 0.121062 0.173797 0.197052 0.163371 0.116905 0.162114 0.201715 0.234105 0.234977 0.136236 0.115231 0.124358 0.140477 0.161359 0.225083 0.181107 0.159085 0.153735 0.131685 0.124085 0.159338 0.158831 0.123537 0.124085 0.124358 0.121062 0.139420 0.174778 0.143631 0.164874 0.134100 0.118850 0.118850 0.104184 0.219058 0.556186 0.739057 9999 9999 9999 9999 9999 9999
0.048784 0.039372 0.046455 0.041749 0.046455 0.046455 0.041749 0.046455 0.039372 0.046455 0.039372 0.039372 0.039372 0.039372 0.037664 0.031096 0.032837 0.032837 0.025110 0.025110 0.019736 0.015007 0.010951 0.009463 0.009463 0.009835 0.025110 0.048784 0.062773 0.052743 0.032489 0.027235 0.026882 0.027235 0.021537 0.032837 0.084479 0.036292 0.084479 0.062773 0.066899 0.055358 0.042087 0.052743 0.036292 0.016834 0.019736 0.012062 0.022613 0.031096 0.026528 0.026528 0.035604 0.045786 0.046455 0.027235 0.019375 0.018651 0.019375 0.016834 0.016834 0.016834 0.015007 0.006466 0.000768 0.001534 0.016834 0.048452 0.064365 0.063092 0.075636 0.075636 0.063092 0.048452 0.039372 0.078095 0.097236 0.081756 0.098693 0.119127 0.121062 0.121062 0.137034 0.144417 0.149100 0.110169 0.076867 0.082059 0.096359 0.087482 0.070668 0.086284 0.121062 0.121062 0.103322 0.108752 0.107330 0.082968 0.057630 0.062134 0.062134 0.051757 0.064365 0.084479 0.114392 0.124085 0.110169 0.096066 0.084479 0.090166 0.098111 0.084479 0.076867 0.090166 0.130067 0.164123 0.170099 0.148841 0.115231 0.101014 0.106474 0.112426 0.101014 0.087482 0.071604 0.051428 0.064365 0.074709 0.062773 0.062773 0.064365 0.051428 0.035604 0.040732 0.052743 0.064365 0.075636 0.063092 0.048452 0.041749 0.032489 0.031096 0.026882 0.036292 0.064365 0.096944 0.123537 0.131685 0.098693 0.070668 0.056333 0.044781 0.062134 0.091057 0.134100 0.181107 0.212736 0.139420 0.043773 0.077175 0.027235 0.015007 0.010951 0.007593 0.006466 0.009463 0.009835 0.003440 0.006842 0.013906 0.003820 0.004956 0.051428 0.070668 0.072849 0.081756 0.077175 0.087482 0.044781 0.003059 0.013538 0.117740 0.377470 0.467025 0.252134 0.138626 0.107330 0.097236 0.096944 0.079319 0.069102 0.076867 0.087482 0.098693 0.098693 0.088976 0.076867 0.077175 0.087482 0.087482 0.070668 0.079014 0.079014 0.096944 0.134100 0.121062 0.097236 0.076867 0.077175 0.097236 0.106474 0.098693 0.088976 0.129797 0.188549 0.123537 0.063092 0.079319 0.104184 0.096359 0.069729 0.079319 0.084479 0.079625 0.126542 0.167369 0.211143 0.239533 0.173797 0.127358 0.117740 0.139420 0.185681 0.149875 0.106474 0.084479 0.161359 0.184722 0.262802 0.225527 0.121062 0.106474 0.161359 0.210003 0.199855 0.181832 0.148841 0.150650 0.156035 0.143631 0.128715 0.116348 0.144417 0.124358 0.115231 0.106474 0.128715 0.153735 0.149100 0.149875 0.141268 0.127358 0.117740 0.109886 0.113270 0.304387 0.687065 0.802194 9999 9999 9999 9999 9999
0.044781 0.046455 0.046455 0.046455 0.048784 0.046455 0.046455 0.039372 0.046455 0.039372 0.046455 0.039372 0.039372 0.039372 0.037664 0.037664 0.037664 0.031096 0.025110 0.024042 0.018651 0.013906 0.006466 0.007593 0.004956 0.010951 0.037664 0.062134 0.067215 0.038348 0.029346 0.032489 0.035259 0.032837 0.021537 0.024042 0.056333 0.059245 0.059245 0.075636 0.059245 0.055358 0.064365 0.042087 0.026528 0.015373 0.013906 0.012801 0.027235 0.027235 0.035604 0.045786 0.051428 0.051428 0.036292 0.024042 0.019375 0.019375 0.012062 0.015373 0.019375 0.016834 0.010951 0.006466 0.000768 0.009835 0.041749 0.071604 0.071604 0.071604 0.082666 0.075636 0.066899 0.048452 0.056982 0.092536 0.103322 0.106474 0.116348 0.134100 0.110734 0.137034 0.155014 0.170099 0.148841 0.090166 0.082666 0.088976 0.110169 0.082059 0.046455 0.051757 0.086584 0.110734 0.110734 0.139420 0.149617 0.108752 0.055358 0.044781 0.052414 0.056333 0.071604 0.088976 0.109886 0.124085 0.110169 0.105044 0.106474 0.096359 0.088976 0.076867 0.084479 0.106474 0.124358 0.148841 0.174778 0.148841 0.105044 0.096066 0.109886 0.092536 0.074709 0.082968 0.066899 0.051428 0.057630 0.059245 0.062773 0.074709 0.071604 0.051428 0.046455 0.046455 0.052743 0.074709 0.071604 0.056982 0.052743 0.048784 0.046455 0.029346 0.018651 0.021537 0.036292 0.070668 0.123537 0.144939 0.110734 0.069102 0.060532 0.051099 0.051099 0.076867 0.098693 0.130067 0.179896 0.191399 0.079014 0.062134 0.038348 0.006842 0.010951 0.009463 0.012801 0.016834 0.013906 0.023685 0.016834 0.012801 0.000768 0.004956 0.015007 0.007593 0.000384 0.006466 0.024042 0.037664 0.071604 0.035604 0.006842 0.096359 0.188549 0.402546 0.489879 0.289529 0.127358 0.112426 0.136236 0.103034 0.079014 0.116905 0.142582 0.110734 0.088976 0.059567 0.060532 0.081756 0.079625 0.079014 0.070668 0.084479 0.079625 0.079625 0.134100 0.140741 0.107330 0.087482 0.069102 0.098693 0.100725 0.087781 0.103322 0.110734 0.149100 0.148841 0.096066 0.096066 0.106474 0.108752 0.059567 0.072849 0.107330 0.078095 0.097236 0.163371 0.190688 0.224417 0.236065 0.208173 0.155014 0.134100 0.176978 0.192346 0.118850 0.144939 0.170099 0.182798 0.181832 0.225083 0.158831 0.108752 0.129797 0.149875 0.161359 0.207943 0.151165 0.128444 0.140477 0.127358 0.133832 0.110734 0.116348 0.127358 0.127358 0.109886 0.116348 0.138626 0.171088 0.166124 0.168115 0.149875 0.136236 0.119957 0.113270 0.134100 0.425477 0.780469 0.846464 9999 9999 9999 9999
0.048784 0.046455 0.046455 0.048784 0.046455 0.046455 0.046455 0.046455 0.046455 0.046455 0.046455 0.037664 0.046455 0.039372 0.037664 0.037664 0.037664 0.030047 0.030047 0.024042 0.023685 0.018651 0.013538 0.010951 0.010951 0.019375 0.035259 0.072849 0.072849 0.038348 0.036292 0.052743 0.052743 0.046455 0.037664 0.037664 0.051099 0.077175 0.052743 0.062773 0.067215 0.075636 0.042087 0.029346 0.031096 0.021537 0.025110 0.032837 0.031096 0.046455 0.056982 0.051428 0.057630 0.046455 0.032489 0.026882 0.021537 0.016834 0.015373 0.022613 0.018651 0.015373 0.009463 0.004956 0.000384 0.019736 0.067215 0.082968 0.059567 0.071604 0.087482 0.076867 0.079319 0.091649 0.101014 0.088976 0.092536 0.096944 0.126542 0.103322 0.100725 0.167369 0.170099 0.155014 0.137034 0.109886 0.082059 0.095773 0.103034 0.057630 0.051428 0.040732 0.044781 0.086584 0.116905 0.150650 0.162114 0.128444 0.077175 0.035259 0.044781 0.067215 0.082968 0.082666 0.104184 0.115231 0.114392 0.128715 0.105044 0.098111 0.082666 0.082059 0.096359 0.087482 0.096944 0.147804 0.158831 0.113270 0.081756 0.093716 0.093716 0.064365 0.067215 0.075636 0.067215 0.052743 0.040732 0.055358 0.082968 0.087482 0.066899 0.063092 0.057630 0.055358 0.051428 0.066899 0.070668 0.059567 0.051428 0.044781 0.044781 0.030047 0.021537 0.022613 0.024042 0.044781 0.097236 0.144939 0.131685 0.088976 0.067845 0.059245 0.059567 0.059567 0.059245 0.079625 0.119957 0.185681 0.147804 0.086584 0.021537 0.006842 0.012801 0.012801 0.009463 0.019736 0.013538 0.001534 0.003440 0.006466 0.012801 0.009463 0.044781 0.091057 0.087482 0.067215 0.052743 0.003059 0.010951 0.019736 0.003059 0.054052 0.167369 0.219731 0.307854 0.358399 0.281156 0.175023 0.182798 0.184722 0.162114 0.162114 0.121062 0.086584 0.052414 0.051757 0.059245 0.082968 0.075636 0.067215 0.084479 0.100725 0.087482 0.068160 0.117740 0.151938 0.113270 0.087781 0.079014 0.087781 0.096066 0.105044 0.128715 0.098111 0.090166 0.106474 0.055358 0.060532 0.161359 0.149875 0.039372 0.051428 0.098693 0.081756 0.106474 0.128444 0.121062 0.134100 0.181107 0.236065 0.239317 0.164123 0.181107 0.198923 0.181591 0.178926 0.148841 0.171088 0.155014 0.173797 0.161359 0.121062 0.108752 0.116905 0.153735 0.225305 0.192346 0.151938 0.138626 0.127358 0.119957 0.147804 0.115231 0.136236 0.115231 0.124085 0.126542 0.124085 0.145461 0.166124 0.175268 0.158831 0.164874 0.124085 0.091057 0.093716 0.133028 0.495786 0.816058 9999 9999 9999 9999
0.044781 0.046455 0.046455 0.046455 0.048784 0.046455 0.046455 0.054052 0.046455 0.046455 0.044781 0.046455 0.046455 0.037664 0.037664 0.037664 0.036635 0.030047 0.036635 0.029697 0.029697 0.030047 0.030047 0.030047 0.046455 0.064365 0.064365 0.074709 0.075636 0.055358 0.069102 0.076867 0.057630 0.046455 0.052414 0.062134 0.059567 0.069102 0.054052 0.042087 0.059567 0.054052 0.037664 0.035259 0.042087 0.036292 0.032837 0.044781 0.044781 0.063092 0.056982 0.056982 0.045786 0.036292 0.038348 0.021537 0.019736 0.015007 0.016834 0.018651 0.022613 0.015373 0.007593 0.001916 0.003440 0.036635 0.081756 0.072849 0.070668 0.074709 0.079319 0.101014 0.110169 0.087482 0.079014 0.079319 0.082059 0.087482 0.106474 0.100725 0.116348 0.156035 0.181591 0.162114 0.155014 0.124085 0.084479 0.084479 0.075636 0.059567 0.042087 0.035604 0.051428 0.062773 0.098693 0.127630 0.150650 0.140741 0.097236 0.068160 0.055358 0.057630 0.066899 0.084479 0.125179 0.125724 0.127358 0.115231 0.105044 0.101014 0.084479 0.103034 0.075636 0.063092 0.091649 0.131685 0.138626 0.106474 0.087482 0.088976 0.078095 0.069102 0.070668 0.070668 0.070668 0.046455 0.042087 0.071604 0.092536 0.090166 0.084479 0.082666 0.063092 0.062773 0.055358 0.057630 0.059245 0.059245 0.048452 0.036292 0.037664 0.029697 0.025110 0.024042 0.031096 0.040732 0.054052 0.116905 0.129797 0.108752 0.086584 0.060532 0.059567 0.068160 0.059567 0.051428 0.079625 0.163371 0.161359 0.086584 0.027235 0.009463 0.015373 0.007593 0.007593 0.004956 0.001916 0.016834 0.015373 0.009463 0.019375 0.013906 0.019736 0.024042 0.032837 0.038348 0.110734 0.098111 0.029346 0.031096 0.004956 0.036292 0.106474 0.176734 0.255502 0.174778 0.168115 0.153735 0.200554 0.260518 0.225083 0.140741 0.077175 0.059245 0.063092 0.052743 0.059567 0.084479 0.103322 0.069102 0.069102 0.108752 0.107330 0.077175 0.106188 0.110734 0.091649 0.096066 0.079014 0.091649 0.091649 0.075636 0.081756 0.103322 0.117740 0.116905 0.086284 0.081756 0.086584 0.087482 0.084479 0.069102 0.081756 0.097236 0.116905 0.128444 0.119127 0.097236 0.153735 0.211143 0.170099 0.134100 0.141268 0.212736 0.208173 0.110169 0.140477 0.144417 0.133028 0.171088 0.190688 0.188549 0.175023 0.140741 0.155014 0.208173 0.192346 0.162114 0.110169 0.117740 0.103322 0.126542 0.115231 0.164874 0.149100 0.137034 0.137034 0.124358 0.125724 0.141268 0.149875 0.151938 0.155014 0.139420 0.074709 0.035259 0.070668 0.151938 0.574331 0.814374 9999 9999 9999
0.048784 0.054052 0.046455 0.056333 0.054052 0.046455 0.056333 0.046455 0.052414 0.046455 0.054052 0.052414 0.044781 0.044781 0.044781 0.037664 0.036635 0.043773 0.036635 0.043437 0.043437 0.043773 0.051099 0.056333 0.070668 0.091057 0.098693 0.064365 0.079319 0.079014 0.064365 0.057630 0.051428 0.044781 0.056333 0.062134 0.051428 0.060532 0.051428 0.031096 0.057630 0.042087 0.044781 0.062773 0.055358 0.036292 0.044781 0.041749 0.075636 0.064365 0.045786 0.040732 0.035604 0.045786 0.035259 0.018651 0.015007 0.015007 0.016834 0.022613 0.022613 0.012801 0.003820 0.001916 0.006089 0.044781 0.087482 0.086584 0.070668 0.072849 0.096944 0.114392 0.079319 0.057630 0.105044 0.114392 0.101014 0.096359 0.096066 0.103322 0.116348 0.170099 0.193291 0.170099 0.159338 0.110169 0.071604 0.079319 0.092536 0.059567 0.048784 0.071604 0.076867 0.075636 0.087482 0.110169 0.119127 0.127630 0.116905 0.096359 0.070668 0.059567 0.063092 0.110734 0.133028 0.125179 0.125179 0.110734 0.118850 0.101014 0.106474 0.090166 0.075636 0.090166 0.082059 0.091649 0.119127 0.117740 0.098693 0.088976 0.079625 0.069102 0.069102 0.069102 0.062134 0.060532 0.067215 0.082968 0.093716 0.087482 0.076867 0.069729 0.069102 0.066899 0.064365 0.048452 0.048452 0.059245 0.051757 0.042087 0.032837 0.036635 0.030047 0.029346 0.052743 0.046455 0.051428 0.081756 0.106188 0.106474 0.077175 0.062134 0.067845 0.059245 0.060532 0.059567 0.086284 0.184722 0.163371 0.051099 0.019375 0.015007 0.006842 0.006842 0.007593 0.004956 0.004956 0.001916 0.010951 0.013906 0.000384 0.007593 0.035604 0.004956 0.000768 0.000384 0.001916 0.057630 0.046455 0.010951 0.006466 0.075636 0.134100 0.119127 0.162114 0.197052 0.139420 0.151938 0.217260 0.275913 0.222414 0.116905 0.044781 0.048452 0.063092 0.070668 0.068160 0.086284 0.096359 0.086284 0.068160 0.096359 0.108752 0.091057 0.087482 0.079625 0.069102 0.086584 0.077175 0.069102 0.096359 0.119127 0.113270 0.131685 0.119127 0.059245 0.070668 0.070668 0.048784 0.059245 0.088976 0.097236 0.096359 0.106188 0.106474 0.107330 0.119127 0.110734 0.131685 0.158831 0.145461 0.125179 0.115231 0.128715 0.173305 0.176978 0.140477 0.096359 0.119957 0.170099 0.211599 0.223528 0.209317 0.139420 0.114392 0.155014 0.143631 0.149875 0.142845 0.096066 0.107330 0.110169 0.148841 0.203800 0.243408 0.196349 0.170099 0.151938 0.142845 0.151938 0.171088 0.175023 0.145461 0.117740 0.139420 0.071604 0.075636 0.100725 0.281156 0.688490 0.857776 9999 9999
0.056333 0.046455 0.054052 0.056333 0.046455 0.054052 0.054052 0.046455 0.054052 0.054052 0.046455 0.052414 0.052414 0.052414 0.051428 0.043773 0.044781 0.043773 0.043773 0.051428 0.051099 0.067845 0.086284 0.069102 0.059567 0.071604 0.070668 0.081756 0.076867 0.069729 0.062773 0.066899 0.052743 0.052743 0.051757 0.054052 0.051428 0.052414 0.048784 0.027235 0.064365 0.051428 0.063092 0.057630 0.055358 0.048452 0.038348 0.042087 0.055358 0.039372 0.036292 0.040732 0.045786 0.040732 0.019375 0.018289 0.018651 0.019736 0.021537 0.027235 0.022613 0.006466 0.001916 0.001916 0.019736 0.056333 0.069102 0.076867 0.086284 0.087482 0.098693 0.097236 0.078095 0.105044 0.110169 0.091649 0.110169 0.100725 0.092536 0.112426 0.138626 0.158831 0.176734 0.188549 0.162114 0.106474 0.087482 0.098111 0.110734 0.076867 0.091649 0.087482 0.074709 0.087482 0.110169 0.112426 0.087482 0.103322 0.119127 0.107330 0.097236 0.072849 0.087482 0.118850 0.117740 0.125179 0.133028 0.125179 0.117740 0.096359 0.098111 0.087482 0.084479 0.075636 0.076867 0.095773 0.109886 0.116348 0.103322 0.093716 0.072849 0.064365 0.072849 0.081756 0.072849 0.067215 0.072849 0.056333 0.077175 0.096066 0.070668 0.064365 0.066899 0.051428 0.056333 0.054052 0.046455 0.059567 0.059567 0.052743 0.036292 0.036292 0.036292 0.044781 0.059567 0.062773 0.066899 0.064365 0.079625 0.097236 0.068160 0.069102 0.087482 0.052414 0.051428 0.068160 0.087482 0.196818 0.165124 0.018651 0.009835 0.006089 0.004956 0.006842 0.004956 0.006466 0.000000 0.010951 0.001534 0.004956 0.007593 0.001534 0.032837 0.018289 0.001916 0.026882 0.059567 0.023685 0.000768 0.003820 0.029346 0.134100 0.185442 0.145461 0.175023 0.162114 0.147804 0.184722 0.217260 0.212736 0.163371 0.103322 0.048452 0.059245 0.079014 0.108752 0.096066 0.077175 0.098693 0.091057 0.070668 0.082968 0.079625 0.087482 0.117740 0.108752 0.100725 0.113270 0.062134 0.062134 0.131685 0.134100 0.087482 0.077175 0.079625 0.060532 0.059567 0.070668 0.068160 0.077175 0.086584 0.086584 0.096066 0.096359 0.097236 0.108752 0.098693 0.096944 0.140477 0.134100 0.104184 0.118850 0.106474 0.095773 0.148841 0.196115 0.149875 0.119127 0.121062 0.093716 0.123537 0.140741 0.142582 0.119957 0.106474 0.118850 0.112426 0.117740 0.157308 0.124085 0.129797 0.165124 0.197755 0.200554 0.224417 0.218160 0.212736 0.225305 0.201947 0.201715 0.212963 0.204493 0.216358 0.181832 0.136236 0.137034 0.121062 0.119957 0.151938 0.495786 0.791385 0.924809 9999
0.044781 0.046455 0.056333 0.054052 0.046455 0.056333 0.054052 0.054052 0.054052 0.052414 0.046455 0.054052 0.052414 0.052414 0.051428 0.059567 0.051428 0.043773 0.052414 0.051428 0.060532 0.079625 0.096066 0.086584 0.056333 0.059567 0.062773 0.106474 0.100725 0.087482 0.069729 0.064365 0.066899 0.056982 0.048452 0.048784 0.043773 0.054052 0.055358 0.056333 0.064365 0.069102 0.063092 0.056982 0.056982 0.051428 0.040732 0.048452 0.036292 0.038348 0.044781 0.040732 0.035604 0.031096 0.019375 0.019736 0.019736 0.019736 0.026882 0.024042 0.010951 0.001916 0.001534 0.012801 0.042087 0.055358 0.056333 0.069102 0.086584 0.096066 0.086284 0.087482 0.117740 0.116905 0.078095 0.071604 0.090166 0.105044 0.143631 0.145461 0.125724 0.133832 0.167369 0.200554 0.165124 0.113270 0.096944 0.124358 0.115231 0.075636 0.070668 0.062773 0.084479 0.090166 0.096359 0.095773 0.096359 0.112426 0.109886 0.105044 0.096944 0.103322 0.124085 0.130067 0.127358 0.141268 0.141268 0.125724 0.110734 0.096359 0.088976 0.076867 0.084479 0.090166 0.095773 0.103034 0.103034 0.101014 0.100725 0.091649 0.079014 0.087482 0.087482 0.082968 0.075636 0.064365 0.054052 0.044781 0.054052 0.087482 0.086584 0.077175 0.068160 0.054052 0.036292 0.039372 0.059245 0.057630 0.059567 0.057630 0.036292 0.030047 0.043773 0.051757 0.069729 0.079319 0.067215 0.055358 0.062773 0.091057 0.078095 0.072849 0.069102 0.051428 0.052414 0.068160 0.077175 0.210003 0.149875 0.004956 0.003820 0.003440 0.004956 0.003059 0.003059 0.000768 0.000384 0.001534 0.001916 0.003820 0.012062 0.006466 0.038348 0.010951 0.030047 0.076867 0.044781 0.048452 0.022613 0.006842 0.074709 0.179896 0.176978 0.110169 0.113270 0.129797 0.140741 0.150650 0.173059 0.165124 0.138626 0.110734 0.121062 0.069102 0.130067 0.126542 0.116348 0.117740 0.128444 0.119127 0.110169 0.104184 0.096359 0.106474 0.114392 0.103322 0.093716 0.079625 0.059245 0.079625 0.119127 0.096359 0.070668 0.078095 0.087482 0.077175 0.059567 0.068160 0.076867 0.067845 0.068160 0.087482 0.098693 0.091057 0.091057 0.100725 0.093716 0.082968 0.124085 0.151938 0.096359 0.106474 0.103034 0.096066 0.114392 0.173797 0.175268 0.155014 0.124085 0.084479 0.070668 0.086584 0.100725 0.096066 0.096359 0.110734 0.112426 0.118850 0.151938 0.156035 0.186878 0.184962 0.181591 0.148841 0.159085 0.170099 0.164123 0.177709 0.161359 0.139420 0.148841 0.133832 0.130067 0.141268 0.133028 0.115231 0.100725 0.084479 0.107330 0.282560 0.707763 0.901575 0.931980
0.048784 0.056333 0.056333 0.054052 0.054052 0.056333 0.054052 0.054052 0.054052 0.052414 0.062134 0.054052 0.052414 0.052414 0.060532 0.068160 0.067845 0.077175 0.069102 0.060532 0.079625 0.072849 0.077175 0.088976 0.060532 0.064365 0.092536 0.105044 0.096944 0.087781 0.079014 0.071604 0.075636 0.057630 0.052743 0.041749 0.037664 0.044781 0.064365 0.078095 0.046455 0.075636 0.056982 0.057630 0.069102 0.057630 0.046455 0.052743 0.044781 0.038348 0.044781 0.038348 0.040732 0.040732 0.024042 0.018651 0.018651 0.026882 0.026882 0.015007 0.001534 0.006466 0.016834 0.040732 0.057630 0.063092 0.057630 0.066899 0.075636 0.077175 0.079625 0.076867 0.106474 0.129797 0.129797 0.106474 0.079625 0.079319 0.096359 0.112426 0.121062 0.110734 0.128715 0.178926 0.161359 0.117740 0.126542 0.128715 0.091649 0.071604 0.051428 0.071604 0.079319 0.071604 0.088976 0.103034 0.096359 0.112426 0.121062 0.112426 0.104184 0.115231 0.140477 0.130067 0.124358 0.151938 0.140741 0.127358 0.104184 0.098111 0.090166 0.088976 0.104184 0.103034 0.095773 0.095773 0.088976 0.090166 0.101014 0.096066 0.096066 0.096066 0.079319 0.066899 0.051757 0.046455 0.054052 0.054052 0.048784 0.062134 0.077175 0.077175 0.086584 0.069102 0.044781 0.038348 0.051757 0.048452 0.059567 0.064365 0.040732 0.039372 0.052414 0.067215 0.076867 0.071604 0.067215 0.064365 0.057630 0.070668 0.070668 0.068160 0.059567 0.051099 0.051428 0.059567 0.096359 0.172813 0.130067 0.010951 0.000384 0.003440 0.001916 0.001916 0.001916 0.001916 0.001916 0.006089 0.010951 0.004956 0.012801 0.001916 0.018651 0.003440 0.060532 0.079625 0.004956 0.016834 0.013906 0.015373 0.100725 0.148841 0.108752 0.076867 0.097236 0.129797 0.129797 0.131685 0.147804 0.149100 0.117740 0.119957 0.098111 0.103322 0.113270 0.126542 0.144939 0.163371 0.149617 0.138361 0.139420 0.110734 0.075636 0.070668 0.079014 0.081756 0.078095 0.059567 0.059245 0.086284 0.087482 0.075636 0.084479 0.091057 0.091057 0.072849 0.067215 0.081756 0.081756 0.072849 0.072849 0.072849 0.081756 0.093716 0.103322 0.103322 0.082968 0.079319 0.098111 0.133028 0.118850 0.103034 0.136236 0.121062 0.103034 0.127358 0.155014 0.143631 0.118850 0.128715 0.107330 0.106188 0.093716 0.104184 0.104184 0.115231 0.133832 0.153735 0.188310 0.221745 0.184722 0.123537 0.119957 0.124085 0.128715 0.088976 0.091649 0.100725 0.084479 0.069102 0.116627 0.127630 0.088976 0.084479 0.048452 0.091057 0.103322 0.103322 0.096066 0.113270 0.403876 0.896089 0.936549
0.056333 0.056333 0.056333 0.054052 0.054052 0.056333 0.054052 0.054052 0.054052 0.054052 0.062134 0.052414 0.060532 0.062134 0.062134 0.069102 0.078095 0.086584 0.086284 0.078095 0.079625 0.079625 0.060532 0.079625 0.068160 0.064365 0.096359 0.087482 0.079014 0.087781 0.087781 0.091649 0.079319 0.063092 0.057630 0.041749 0.044781 0.043437 0.060532 0.069102 0.059567 0.071604 0.052743 0.063092 0.069729 0.045786 0.051428 0.046455 0.038348 0.044781 0.044781 0.051757 0.042087 0.032489 0.021537 0.025110 0.026882 0.026882 0.013906 0.004956 0.010951 0.019375 0.040732 0.063092 0.069729 0.075636 0.075636 0.088976 0.069102 0.051428 0.084479 0.110734 0.091057 0.097236 0.116905 0.108752 0.100725 0.107330 0.098693 0.091649 0.082666 0.088976 0.110734 0.133832 0.134100 0.163371 0.170099 0.113270 0.091649 0.066899 0.057630 0.082666 0.076867 0.079319 0.096359 0.095773 0.095773 0.118850 0.127358 0.121062 0.112426 0.096359 0.096066 0.131685 0.158831 0.159338 0.124358 0.110734 0.098111 0.106474 0.092536 0.090166 0.104184 0.098111 0.095773 0.088976 0.075636 0.084479 0.092536 0.087482 0.087482 0.087482 0.079319 0.059567 0.044781 0.051757 0.059245 0.059245 0.056333 0.067215 0.070668 0.079625 0.077175 0.059245 0.043437 0.052414 0.044781 0.048452 0.051428 0.059567 0.040732 0.038348 0.056333 0.067215 0.071604 0.076867 0.070668 0.070668 0.067215 0.056982 0.044781 0.052414 0.059245 0.051099 0.059567 0.069102 0.069102 0.116905 0.134100 0.032837 0.000384 0.000768 0.000384 0.000768 0.001534 0.001916 0.003059 0.015007 0.010951 0.003059 0.012801 0.004956 0.021537 0.016834 0.051099 0.103322 0.001916 0.036635 0.010951 0.044781 0.110734 0.107330 0.068160 0.054052 0.081756 0.130067 0.144417 0.134100 0.124358 0.112426 0.088976 0.076867 0.098693 0.116627 0.106474 0.116905 0.138361 0.172813 0.161359 0.138361 0.138361 0.096359 0.078095 0.086584 0.077175 0.060532 0.062134 0.062134 0.056333 0.067215 0.082968 0.087482 0.091649 0.100725 0.096944 0.082968 0.074709 0.087781 0.091649 0.079014 0.075636 0.091057 0.088976 0.081756 0.093716 0.096066 0.079319 0.082059 0.096359 0.103034 0.104184 0.090166 0.125179 0.149875 0.127358 0.103034 0.103034 0.103034 0.109886 0.147804 0.129797 0.119127 0.096066 0.098111 0.109886 0.134100 0.162114 0.181591 0.190688 0.188549 0.137034 0.114392 0.091649 0.069729 0.103322 0.127630 0.113270 0.088976 0.077175 0.088976 0.091057 0.077175 0.062134 0.067215 0.056333 0.106474 0.096944 0.144939 0.086584 0.067215 0.112426 0.565577 1.000000
0.056333 0.056333 0.056333 0.054052 0.054052 0.056333 0.054052 0.054052 0.054052 0.054052 0.054052 0.062134 0.062134 0.069102 0.070668 0.070668 0.078095 0.087482 0.086584 0.086584 0.070668 0.078095 0.068160 0.069102 0.069102 0.066899 0.095773 0.084479 0.074709 0.082968 0.096944 0.096944 0.079014 0.066899 0.052743 0.044781 0.054052 0.051099 0.059567 0.067845 0.079625 0.046455 0.075636 0.076867 0.051428 0.045786 0.045786 0.040732 0.042087 0.055358 0.055358 0.035259 0.029346 0.038348 0.029346 0.025110 0.024042 0.013906 0.004956 0.016834 0.031096 0.056982 0.088976 0.082666 0.082059 0.088976 0.095773 0.096359 0.090166 0.098111 0.096359 0.082968 0.096944 0.087781 0.084479 0.078095 0.086284 0.127630 0.127630 0.107330 0.086584 0.075636 0.105044 0.136236 0.115231 0.144417 0.147804 0.123537 0.106474 0.074709 0.084479 0.088976 0.076867 0.092536 0.112426 0.110734 0.125724 0.140741 0.133028 0.110734 0.104184 0.090166 0.090166 0.110169 0.156035 0.156035 0.137034 0.109886 0.088976 0.098111 0.087482 0.101014 0.104184 0.098111 0.104184 0.090166 0.084479 0.088976 0.092536 0.087482 0.101014 0.101014 0.082666 0.056982 0.051428 0.059567 0.062773 0.051757 0.048784 0.054052 0.060532 0.059567 0.059567 0.059567 0.059567 0.067845 0.059245 0.031096 0.029346 0.039372 0.032837 0.036292 0.042087 0.051757 0.064365 0.076867 0.074709 0.072849 0.079625 0.059245 0.046455 0.042087 0.044781 0.059567 0.067845 0.067845 0.067845 0.096359 0.096066 0.031096 0.001916 0.000384 0.000768 0.000768 0.000000 0.001534 0.007593 0.007593 0.009835 0.004956 0.031096 0.015373 0.013906 0.022613 0.012801 0.092536 0.026528 0.019736 0.006842 0.043773 0.086584 0.081756 0.064365 0.056333 0.064365 0.096944 0.134100 0.119957 0.119957 0.113270 0.079625 0.076867 0.119127 0.140741 0.119127 0.110734 0.128444 0.149617 0.151938 0.151938 0.131685 0.096944 0.075636 0.079014 0.090166 0.096359 0.092536 0.071604 0.069729 0.090166 0.090166 0.098111 0.109886 0.114392 0.105044 0.079319 0.082968 0.091649 0.091649 0.096944 0.088976 0.091057 0.084479 0.075636 0.074709 0.098111 0.088976 0.105044 0.117740 0.121062 0.110734 0.098111 0.106474 0.149875 0.127358 0.106474 0.082666 0.074709 0.110734 0.123537 0.131685 0.093716 0.106474 0.115231 0.137034 0.165124 0.167369 0.151165 0.140477 0.116348 0.105044 0.082666 0.074709 0.106474 0.139420 0.138626 0.096359 0.060532 0.077175 0.096066 0.097236 0.062134 0.036635 0.022613 0.070668 0.051099 0.078095 0.084479 0.079319 0.062773 0.071604 0.229063 0.637719
0.056333 0.056333 0.056333 0.054052 0.054052 0.056333 0.054052 0.054052 0.054052 0.054052 0.056333 0.062134 0.062134 0.072849 0.079625 0.070668 0.091057 0.097236 0.086284 0.086284 0.069102 0.070668 0.077175 0.079625 0.079625 0.070668 0.103034 0.076867 0.074709 0.076867 0.079319 0.084479 0.081756 0.075636 0.062773 0.062773 0.056333 0.059567 0.067845 0.067845 0.076867 0.064365 0.082666 0.059567 0.059567 0.051428 0.045786 0.051428 0.064365 0.059567 0.039372 0.025110 0.042087 0.032489 0.025110 0.019736 0.024042 0.010951 0.024042 0.051757 0.055358 0.088976 0.096359 0.084479 0.098111 0.103034 0.103034 0.103034 0.104184 0.092536 0.079319 0.075636 0.096066 0.100725 0.096066 0.079319 0.109886 0.130067 0.113270 0.079625 0.078095 0.108752 0.142582 0.131685 0.096944 0.138626 0.144417 0.128715 0.110169 0.101014 0.104184 0.090166 0.095773 0.104184 0.112426 0.118850 0.134100 0.141268 0.117740 0.117740 0.103034 0.082666 0.076867 0.101014 0.137034 0.151938 0.142582 0.100725 0.091649 0.084479 0.082666 0.106474 0.101014 0.088976 0.101014 0.096359 0.101014 0.101014 0.088976 0.098111 0.101014 0.091649 0.074709 0.046455 0.045786 0.046455 0.044781 0.039372 0.039372 0.046455 0.054052 0.051428 0.060532 0.062134 0.054052 0.059567 0.051428 0.039372 0.037664 0.039372 0.044781 0.043437 0.030047 0.031096 0.069729 0.088976 0.087482 0.075636 0.079625 0.079625 0.064365 0.044781 0.040732 0.039372 0.051099 0.068160 0.077175 0.116905 0.096359 0.024042 0.000768 0.001916 0.001534 0.000384 0.000384 0.001534 0.001916 0.003820 0.009835 0.018289 0.004956 0.036292 0.003059 0.003059 0.001916 0.036292 0.056982 0.030047 0.009463 0.024042 0.081756 0.078095 0.068160 0.051428 0.060532 0.079625 0.121062 0.134100 0.117740 0.117740 0.097236 0.107330 0.127358 0.116905 0.116905 0.106474 0.097236 0.123537 0.140477 0.144417 0.133832 0.121062 0.101014 0.075636 0.106474 0.117740 0.121062 0.103034 0.090166 0.103034 0.125179 0.118850 0.142845 0.124358 0.121062 0.112426 0.087482 0.106474 0.115231 0.139420 0.115231 0.079014 0.096066 0.096359 0.082059 0.075636 0.140477 0.109886 0.134100 0.133028 0.139420 0.143631 0.121062 0.165124 0.155014 0.104184 0.092536 0.100725 0.098693 0.100725 0.106474 0.096066 0.114392 0.144939 0.162114 0.144939 0.128715 0.109886 0.096066 0.064365 0.059245 0.097236 0.107330 0.108752 0.116627 0.117740 0.084479 0.075636 0.097236 0.117740 0.116905 0.068160 0.015373 0.044781 0.062134 0.060532 0.079625 0.059567 0.064365 0.070668 0.079014 0.087482 0.229723
0.056333 0.056333 0.056333 0.054052 0.062134 0.056333 0.054052 0.062134 0.054052 0.054052 0.056333 0.064365 0.072849 0.072849 0.070668 0.072849 0.084479 0.078095 0.086284 0.086584 0.086584 0.079625 0.078095 0.078095 0.110734 0.093716 0.104184 0.084479 0.082968 0.066899 0.063092 0.079319 0.093716 0.081756 0.084479 0.075636 0.056333 0.060532 0.067845 0.077175 0.076867 0.081756 0.057630 0.075636 0.066899 0.051757 0.057630 0.069102 0.057630 0.044781 0.032837 0.039372 0.029346 0.019375 0.026882 0.025110 0.013906 0.019375 0.051428 0.062134 0.062134 0.093716 0.079319 0.082059 0.104184 0.096359 0.103034 0.103034 0.104184 0.092536 0.091649 0.101014 0.096359 0.096066 0.096944 0.105044 0.106474 0.100725 0.100725 0.084479 0.100725 0.096944 0.103322 0.116905 0.140741 0.158831 0.151165 0.124085 0.114392 0.119127 0.104184 0.090166 0.096359 0.088976 0.103034 0.110169 0.133028 0.125724 0.125724 0.118850 0.090166 0.082666 0.088976 0.104184 0.105044 0.131685 0.140741 0.117740 0.100725 0.084479 0.082968 0.076867 0.064365 0.064365 0.090166 0.105044 0.090166 0.076867 0.092536 0.096359 0.076867 0.079319 0.062773 0.044781 0.038348 0.032489 0.029346 0.032837 0.044781 0.056333 0.048784 0.056333 0.084479 0.075636 0.055358 0.041749 0.030047 0.023685 0.023685 0.036292 0.051099 0.043773 0.051428 0.077175 0.092536 0.088976 0.084479 0.075636 0.081756 0.088976 0.078095 0.070668 0.056333 0.031096 0.039372 0.060532 0.087482 0.117740 0.096066 0.019736 0.001916 0.003820 0.003440 0.000768 0.000768 0.000768 0.003820 0.006466 0.006466 0.007593 0.013906 0.009835 0.001534 0.003820 0.003440 0.012062 0.032837 0.036635 0.015007 0.037664 0.107330 0.107330 0.069102 0.043773 0.043773 0.070668 0.100725 0.134100 0.142582 0.113270 0.091649 0.110169 0.144417 0.144417 0.130067 0.114392 0.105044 0.114392 0.138626 0.143631 0.130067 0.124358 0.112426 0.096066 0.115231 0.149875 0.125724 0.106474 0.115231 0.103034 0.117740 0.140741 0.190214 0.198923 0.133028 0.148841 0.140741 0.125724 0.125179 0.156799 0.201715 0.128715 0.098111 0.149100 0.191399 0.134100 0.158831 0.125724 0.118850 0.121062 0.138626 0.136236 0.125724 0.173797 0.242978 0.151938 0.126542 0.142582 0.131685 0.123537 0.137034 0.144939 0.142582 0.153735 0.137034 0.109886 0.075636 0.069102 0.071604 0.088976 0.097236 0.098693 0.107330 0.086584 0.086584 0.088976 0.070668 0.087482 0.107330 0.108752 0.110734 0.052743 0.067845 0.062134 0.075636 0.069102 0.048784 0.110169 0.079014 0.059245 0.059567 0.062773 0.096944
0.056333 0.056333 0.056333 0.056333 0.062134 0.054052 0.056333 0.062134 0.060532 0.046455 0.059245 0.067215 0.072849 0.081756 0.079625 0.081756 0.067215 0.079625 0.086584 0.086284 0.096359 0.078095 0.077175 0.067845 0.107330 0.107330 0.092536 0.092536 0.079014 0.067215 0.069729 0.088976 0.079014 0.081756 0.084479 0.062134 0.062134 0.062134 0.069102 0.077175 0.076867 0.096359 0.087482 0.088976 0.059567 0.055358 0.066899 0.057630 0.051428 0.042087 0.026882 0.024042 0.025110 0.032489 0.024042 0.009463 0.003820 0.029697 0.078095 0.060532 0.060532 0.097236 0.098693 0.091649 0.071604 0.082059 0.095773 0.103034 0.088976 0.075636 0.092536 0.100725 0.079319 0.082059 0.091649 0.103322 0.081756 0.093716 0.093716 0.087781 0.100725 0.093716 0.093716 0.113270 0.142582 0.165124 0.156035 0.126542 0.124085 0.119957 0.096066 0.090166 0.084479 0.096359 0.103034 0.117740 0.125724 0.117740 0.117740 0.088976 0.090166 0.090166 0.096359 0.088976 0.090166 0.114392 0.130067 0.113270 0.113270 0.093716 0.079014 0.072849 0.059567 0.069102 0.076867 0.079319 0.070668 0.074709 0.076867 0.056982 0.057630 0.076867 0.063092 0.045786 0.036292 0.036292 0.036292 0.032489 0.048784 0.067215 0.059245 0.074709 0.079014 0.072849 0.051757 0.029346 0.029346 0.032837 0.041749 0.048452 0.044781 0.041749 0.048784 0.098693 0.119127 0.084479 0.064365 0.066899 0.084479 0.088976 0.087482 0.087482 0.077175 0.051428 0.035604 0.067215 0.079625 0.096359 0.096066 0.013538 0.006089 0.004956 0.003059 0.001916 0.000768 0.001534 0.001534 0.004956 0.009463 0.007593 0.009463 0.004956 0.001534 0.001916 0.012801 0.000768 0.009463 0.003059 0.006466 0.043773 0.117740 0.116627 0.059567 0.029697 0.031096 0.056333 0.103322 0.134100 0.130067 0.109886 0.101014 0.110169 0.130067 0.140477 0.126542 0.106474 0.103322 0.113270 0.113270 0.124085 0.139420 0.121062 0.106474 0.116348 0.121062 0.165124 0.157308 0.124358 0.110734 0.106474 0.082666 0.106474 0.158831 0.252134 0.198923 0.141268 0.168115 0.192109 0.166124 0.173797 0.214776 0.211599 0.214776 0.190688 0.243408 0.243408 0.158831 0.168115 0.134100 0.124085 0.133832 0.149875 0.127358 0.121062 0.229063 0.232137 0.158831 0.151938 0.167369 0.176734 0.176734 0.173305 0.140477 0.106474 0.071604 0.092536 0.091649 0.059245 0.078095 0.106188 0.106474 0.096066 0.086584 0.077175 0.076867 0.096066 0.088976 0.078095 0.086284 0.097236 0.081756 0.035259 0.077175 0.097236 0.072849 0.051428 0.059245 0.064365 0.084479 0.063092 0.066899 0.070668 0.082968
0.064365 0.064365 0.064365 0.056333 0.054052 0.062134 0.056333 0.064365 0.068160 0.060532 0.070668 0.079014 0.087781 0.084479 0.088976 0.087482 0.075636 0.084479 0.096359 0.096066 0.096066 0.077175 0.077175 0.077175 0.067845 0.059567 0.082968 0.101014 0.079014 0.081756 0.087482 0.075636 0.064365 0.084479 0.070668 0.070668 0.072849 0.070668 0.078095 0.069102 0.087482 0.098693 0.113270 0.074709 0.055358 0.070668 0.066899 0.059567 0.046455 0.024042 0.015007 0.032837 0.041749 0.026882 0.009463 0.006089 0.022613 0.051428 0.075636 0.060532 0.062134 0.098693 0.107330 0.086284 0.077175 0.084479 0.074709 0.069729 0.075636 0.103034 0.103034 0.087482 0.105044 0.109886 0.098111 0.090166 0.096066 0.114392 0.106474 0.119127 0.106474 0.082968 0.100725 0.116348 0.137034 0.170099 0.170099 0.147804 0.119957 0.103322 0.103322 0.087482 0.092536 0.118850 0.110734 0.110734 0.104184 0.104184 0.082666 0.082059 0.088976 0.090166 0.082666 0.075636 0.090166 0.124358 0.133832 0.119127 0.119127 0.100725 0.079319 0.079319 0.082968 0.052743 0.055358 0.070668 0.056333 0.052414 0.043773 0.037664 0.056333 0.072849 0.055358 0.052743 0.066899 0.071604 0.052743 0.046455 0.064365 0.070668 0.070668 0.074709 0.062773 0.067215 0.048784 0.042087 0.036292 0.040732 0.051757 0.055358 0.052743 0.052743 0.059567 0.079014 0.086584 0.096066 0.086584 0.062773 0.079319 0.081756 0.087482 0.097236 0.086284 0.069102 0.054052 0.051428 0.062773 0.087482 0.086284 0.018651 0.009463 0.006842 0.004956 0.001534 0.001916 0.001534 0.000768 0.000768 0.004956 0.010951 0.006089 0.006089 0.000384 0.001534 0.006842 0.026882 0.023685 0.003059 0.003820 0.030047 0.119127 0.140741 0.069102 0.024042 0.018651 0.044781 0.091057 0.116348 0.114392 0.105044 0.106474 0.119127 0.127630 0.138626 0.127630 0.106188 0.096066 0.097236 0.091057 0.079319 0.117740 0.151938 0.144417 0.119957 0.127358 0.165124 0.168115 0.151938 0.136236 0.127358 0.076867 0.074709 0.088976 0.168115 0.225527 0.157308 0.130067 0.168115 0.211599 0.216358 0.209317 0.229503 0.184722 0.143631 0.106474 0.157308 0.164874 0.165124 0.130067 0.084479 0.075636 0.110734 0.125179 0.096359 0.103034 0.149875 0.124085 0.108752 0.139420 0.142582 0.119957 0.138626 0.115231 0.088976 0.079014 0.072849 0.075636 0.079625 0.097236 0.096359 0.096359 0.096359 0.096359 0.097236 0.103322 0.126542 0.086584 0.060532 0.072849 0.075636 0.064365 0.030047 0.064365 0.107330 0.076867 0.059567 0.088976 0.040732 0.069729 0.059567 0.069729 0.071604 0.104184
0.064365 0.064365 0.062134 0.062134 0.064365 0.070668 0.064365 0.075636 0.078095 0.107330 0.096944 0.100725 0.093716 0.093716 0.091057 0.097236 0.110734 0.096944 0.098693 0.106188 0.106474 0.086284 0.077175 0.077175 0.064365 0.052414 0.112426 0.119127 0.096944 0.093716 0.081756 0.064365 0.075636 0.074709 0.081756 0.088976 0.079625 0.081756 0.078095 0.078095 0.079625 0.079625 0.072849 0.064365 0.066899 0.082968 0.059245 0.051757 0.029346 0.026882 0.044781 0.044781 0.024042 0.009463 0.006466 0.041749 0.064365 0.076867 0.063092 0.051757 0.079014 0.093716 0.070668 0.067845 0.096359 0.096359 0.088976 0.106474 0.121062 0.110734 0.098111 0.106474 0.133832 0.138626 0.138626 0.139420 0.142845 0.141268 0.157308 0.182798 0.133028 0.075636 0.091649 0.140477 0.169356 0.185681 0.165874 0.144417 0.103322 0.096944 0.110734 0.106474 0.119127 0.115231 0.103034 0.096359 0.098111 0.079319 0.079319 0.090166 0.088976 0.082666 0.079319 0.090166 0.096359 0.124358 0.124085 0.124358 0.109886 0.101014 0.101014 0.096359 0.063092 0.046455 0.064365 0.055358 0.038348 0.041749 0.054052 0.054052 0.059245 0.075636 0.093716 0.092536 0.090166 0.070668 0.051757 0.048452 0.045786 0.055358 0.070668 0.067215 0.059245 0.056333 0.054052 0.044781 0.038348 0.040732 0.051428 0.076867 0.075636 0.063092 0.063092 0.059567 0.062134 0.077175 0.097236 0.116627 0.075636 0.055358 0.081756 0.097236 0.087482 0.079625 0.068160 0.066899 0.069729 0.064365 0.069102 0.030047 0.003440 0.025110 0.009835 0.004956 0.000768 0.006466 0.000768 0.000384 0.000384 0.001916 0.001916 0.000768 0.003440 0.000384 0.000384 0.012062 0.021537 0.018651 0.001916 0.029697 0.098693 0.131685 0.081756 0.037664 0.023685 0.029697 0.062134 0.093716 0.106474 0.113270 0.131685 0.150650 0.138361 0.127630 0.127630 0.107330 0.079625 0.079014 0.088976 0.109886 0.124085 0.170099 0.164123 0.133832 0.118850 0.125179 0.149875 0.173305 0.166124 0.157308 0.130067 0.098111 0.090166 0.082968 0.121062 0.134100 0.088976 0.069729 0.110734 0.142845 0.157308 0.117740 0.087482 0.079014 0.054052 0.060532 0.084479 0.104184 0.109886 0.079014 0.046455 0.048784 0.059567 0.074709 0.070668 0.069102 0.093716 0.106188 0.117740 0.119957 0.106474 0.101014 0.112426 0.100725 0.087781 0.087781 0.093716 0.084479 0.097236 0.138626 0.131685 0.100725 0.103322 0.126542 0.126542 0.060532 0.032489 0.057630 0.103034 0.103034 0.104184 0.068160 0.075636 0.048452 0.051428 0.067845 0.059245 0.056982 0.057630 0.059567 0.069729 0.064365 0.045786
0.056333 0.064365 0.064365 0.072849 0.072849 0.070668 0.081756 0.087781 0.103322 0.119127 0.110734 0.087781 0.087781 0.113270 0.110734 0.121062 0.131685 0.131685 0.119127 0.127630 0.117740 0.107330 0.086284 0.077175 0.088976 0.098693 0.118850 0.115231 0.113270 0.088976 0.088976 0.079014 0.063092 0.075636 0.096944 0.079625 0.079625 0.070668 0.069102 0.078095 0.069102 0.069102 0.062134 0.059245 0.066899 0.048452 0.048784 0.039372 0.048784 0.062773 0.056333 0.024042 0.013906 0.012062 0.031096 0.070668 0.087482 0.075636 0.052743 0.069729 0.090166 0.087482 0.067215 0.075636 0.096944 0.106474 0.119957 0.130067 0.119957 0.096066 0.110169 0.127358 0.145461 0.143631 0.138626 0.159085 0.171088 0.194469 0.219058 0.199855 0.133832 0.087781 0.110169 0.179896 0.221745 0.159085 0.151165 0.128715 0.100725 0.109886 0.110169 0.130067 0.116348 0.119957 0.101014 0.082666 0.069729 0.071604 0.087482 0.087482 0.084479 0.076867 0.088976 0.101014 0.098111 0.104184 0.124085 0.139420 0.115231 0.121062 0.112426 0.090166 0.069102 0.084479 0.082666 0.075636 0.075636 0.082666 0.075636 0.076867 0.098111 0.098111 0.096066 0.091649 0.064365 0.036292 0.041749 0.029346 0.035604 0.055358 0.062773 0.056333 0.048784 0.044781 0.051428 0.043437 0.037664 0.048784 0.084479 0.096359 0.075636 0.063092 0.056982 0.045786 0.032489 0.051428 0.097236 0.119127 0.123537 0.068160 0.064365 0.070668 0.078095 0.081756 0.076867 0.087781 0.087482 0.082968 0.035604 0.024042 0.009835 0.006466 0.006842 0.004956 0.006089 0.003059 0.000000 0.000768 0.000384 0.000768 0.000384 0.000384 0.000384 0.004956 0.000000 0.007593 0.004956 0.027235 0.003059 0.024042 0.084479 0.134100 0.091057 0.054052 0.031096 0.023685 0.043773 0.084479 0.103322 0.113270 0.134100 0.167369 0.165124 0.134100 0.110169 0.115231 0.103034 0.101014 0.126542 0.147804 0.144417 0.124358 0.118850 0.117740 0.115231 0.082968 0.069729 0.096066 0.130067 0.117740 0.095773 0.092536 0.116348 0.113270 0.079625 0.081756 0.081756 0.060532 0.051099 0.069102 0.091057 0.078095 0.081756 0.077175 0.068160 0.062134 0.044781 0.060532 0.087482 0.081756 0.054052 0.041749 0.048784 0.059245 0.057630 0.064365 0.096066 0.106188 0.097236 0.106474 0.106474 0.096066 0.116348 0.106474 0.087781 0.081756 0.081756 0.108752 0.161359 0.161106 0.127630 0.106474 0.116905 0.106474 0.060532 0.040732 0.048452 0.079014 0.115231 0.127358 0.109886 0.097236 0.081756 0.026882 0.064365 0.096359 0.057630 0.075636 0.064365 0.057630 0.069102 0.079319 0.092536
0.062773 0.067215 0.081756 0.091057 0.091057 0.091057 0.093716 0.100725 0.106474 0.098693 0.097236 0.064365 0.079319 0.114392 0.123537 0.121062 0.123537 0.123537 0.119127 0.116627 0.108752 0.129797 0.107330 0.068160 0.087482 0.106474 0.090166 0.118850 0.096944 0.088976 0.097236 0.086584 0.057630 0.098111 0.064365 0.052414 0.078095 0.079625 0.079625 0.069102 0.078095 0.069102 0.069102 0.054052 0.044781 0.042087 0.051757 0.075636 0.079014 0.056333 0.030047 0.018651 0.012801 0.024042 0.069102 0.091057 0.084479 0.055358 0.052743 0.088976 0.088976 0.075636 0.069729 0.101014 0.116348 0.128715 0.114392 0.124358 0.110169 0.119957 0.124085 0.106474 0.096359 0.090166 0.115231 0.155014 0.177709 0.201715 0.201715 0.175268 0.101014 0.103322 0.130067 0.214776 0.225527 0.125179 0.153735 0.144417 0.124358 0.115231 0.115231 0.109886 0.106474 0.126542 0.096944 0.079319 0.076867 0.082666 0.084479 0.087482 0.074709 0.079319 0.092536 0.082666 0.084479 0.096359 0.145461 0.149100 0.127358 0.127358 0.104184 0.082666 0.090166 0.088976 0.092536 0.098111 0.098111 0.098111 0.076867 0.088976 0.090166 0.071604 0.074709 0.079014 0.048784 0.032489 0.032489 0.032837 0.042087 0.057630 0.059567 0.055358 0.044781 0.035259 0.039372 0.044781 0.060532 0.081756 0.093716 0.082968 0.063092 0.057630 0.057630 0.059567 0.048452 0.040732 0.059567 0.091057 0.116348 0.153735 0.098693 0.042087 0.059567 0.079625 0.077175 0.087781 0.079319 0.035259 0.018651 0.006842 0.003820 0.001534 0.001916 0.000768 0.001534 0.001534 0.000384 0.001534 0.000384 0.000000 0.000000 0.001534 0.004956 0.003820 0.009835 0.007593 0.036635 0.018651 0.012801 0.013538 0.064365 0.159338 0.106474 0.056333 0.048784 0.037664 0.023685 0.056333 0.103322 0.113270 0.134100 0.170099 0.155014 0.130067 0.133028 0.151938 0.153735 0.151165 0.137034 0.096066 0.095773 0.087482 0.067215 0.091649 0.126542 0.087781 0.059567 0.076867 0.062134 0.075636 0.078095 0.086584 0.096066 0.098693 0.096359 0.076867 0.068160 0.077175 0.070668 0.067215 0.081756 0.059567 0.076867 0.119127 0.096944 0.082968 0.048452 0.041749 0.068160 0.060532 0.048784 0.041749 0.041749 0.056982 0.075636 0.106474 0.106188 0.096066 0.070668 0.056982 0.084479 0.107330 0.097236 0.088976 0.098693 0.096359 0.096066 0.106474 0.128444 0.144939 0.138626 0.138626 0.130067 0.100725 0.069729 0.059245 0.086584 0.110734 0.159085 0.201947 0.143631 0.107330 0.059567 0.041749 0.105044 0.070668 0.076867 0.082059 0.071604 0.063092 0.069729 0.071604 0.042087
0.062773 0.074709 0.091649 0.093716 0.110734 0.108752 0.110734 0.110169 0.087781 0.088976 0.086284 0.044781 0.069102 0.104184 0.106474 0.100725 0.100725 0.081756 0.079625 0.086284 0.096359 0.097236 0.096944 0.079625 0.068160 0.096066 0.109886 0.117740 0.079014 0.081756 0.079625 0.077175 0.064365 0.064365 0.045786 0.066899 0.087781 0.079625 0.068160 0.069102 0.078095 0.077175 0.059567 0.043773 0.041749 0.066899 0.092536 0.079014 0.060532 0.036635 0.024042 0.012801 0.019736 0.044781 0.069102 0.086584 0.088976 0.062134 0.064365 0.087482 0.088976 0.096359 0.103034 0.088976 0.109886 0.130067 0.130067 0.128715 0.101014 0.109886 0.096944 0.081756 0.079625 0.079625 0.096066 0.118850 0.148841 0.173797 0.148841 0.112426 0.087482 0.105044 0.130067 0.254662 0.226856 0.130067 0.140741 0.133832 0.128715 0.105044 0.115231 0.101014 0.101014 0.116348 0.106474 0.091649 0.090166 0.088976 0.082666 0.076867 0.074709 0.087482 0.074709 0.074709 0.079319 0.096359 0.134100 0.139420 0.119127 0.106474 0.090166 0.082666 0.082666 0.079319 0.082666 0.075636 0.075636 0.064365 0.057630 0.075636 0.063092 0.064365 0.074709 0.059245 0.039372 0.044781 0.036292 0.038348 0.048452 0.056982 0.057630 0.057630 0.046455 0.046455 0.052743 0.048452 0.059245 0.072849 0.087482 0.096359 0.062134 0.057630 0.082666 0.096066 0.072849 0.043773 0.026528 0.069102 0.117740 0.162114 0.139420 0.062134 0.029346 0.052414 0.059245 0.041749 0.019736 0.003820 0.003820 0.000000 0.001534 0.001916 0.003059 0.000384 0.004956 0.001916 0.001534 0.001916 0.001916 0.000384 0.003820 0.001916 0.001916 0.000768 0.018651 0.007593 0.019375 0.067215 0.059567 0.006466 0.013906 0.128715 0.159338 0.079014 0.051757 0.056333 0.029697 0.036292 0.087482 0.110734 0.123537 0.140477 0.145461 0.125179 0.115231 0.115231 0.124358 0.101014 0.088976 0.072849 0.077175 0.096359 0.059245 0.051099 0.096066 0.116627 0.103322 0.062134 0.052414 0.078095 0.107330 0.087482 0.067845 0.096359 0.106474 0.078095 0.068160 0.098693 0.110734 0.091649 0.066899 0.046455 0.106474 0.147804 0.119957 0.070668 0.025110 0.024042 0.037664 0.044781 0.048452 0.057630 0.048452 0.069102 0.106474 0.116627 0.127630 0.091057 0.063092 0.084479 0.096359 0.106188 0.096359 0.086584 0.096359 0.106474 0.096066 0.091057 0.103322 0.105044 0.109886 0.148841 0.151165 0.105044 0.064365 0.077175 0.076867 0.069102 0.123537 0.201947 0.275305 0.223528 0.110734 0.079014 0.087482 0.048452 0.069729 0.082666 0.071604 0.063092 0.059245 0.084479 0.071604
0.087482 0.087482 0.074709 0.091649 0.096944 0.110734 0.110734 0.100725 0.093716 0.091057 0.079625 0.069102 0.069729 0.112426 0.087482 0.091057 0.088976 0.088976 0.091057 0.087482 0.107330 0.091057 0.072849 0.088976 0.086284 0.088976 0.100725 0.075636 0.074709 0.072849 0.078095 0.068160 0.077175 0.051428 0.076867 0.084479 0.075636 0.052414 0.052414 0.062134 0.054052 0.067845 0.078095 0.067845 0.079014 0.106474 0.074709 0.041749 0.037664 0.030047 0.019375 0.021537 0.036635 0.052414 0.062134 0.097236 0.097236 0.052414 0.079625 0.121062 0.105044 0.088976 0.090166 0.096359 0.110169 0.100725 0.130067 0.126542 0.110169 0.096066 0.079319 0.066899 0.062773 0.079625 0.119127 0.129797 0.137034 0.105044 0.084479 0.090166 0.106474 0.105044 0.149875 0.254662 0.155014 0.104184 0.134100 0.117740 0.112426 0.119127 0.114392 0.096066 0.098111 0.105044 0.106474 0.110169 0.115231 0.082666 0.075636 0.075636 0.076867 0.079319 0.074709 0.074709 0.070668 0.100725 0.124085 0.091649 0.084479 0.106474 0.079014 0.062773 0.059567 0.064365 0.066899 0.055358 0.052743 0.051428 0.063092 0.069102 0.063092 0.069102 0.057630 0.044781 0.051757 0.055358 0.042087 0.031096 0.042087 0.045786 0.052743 0.052743 0.046455 0.051428 0.051428 0.046455 0.055358 0.056333 0.062134 0.077175 0.097236 0.103322 0.106474 0.092536 0.078095 0.076867 0.072849 0.071604 0.082968 0.149875 0.151938 0.086584 0.025110 0.010951 0.043773 0.029697 0.013906 0.006089 0.003059 0.003059 0.003820 0.000000 0.000384 0.012801 0.010951 0.003440 0.001534 0.001916 0.004956 0.001916 0.001916 0.006842 0.003440 0.007593 0.019375 0.010951 0.001916 0.037664 0.056333 0.032489 0.001534 0.062134 0.144417 0.100725 0.067215 0.081756 0.054052 0.037664 0.059245 0.081756 0.100725 0.096944 0.092536 0.096359 0.090166 0.066899 0.051757 0.060532 0.097236 0.110734 0.087781 0.081756 0.068160 0.087781 0.130067 0.144417 0.100725 0.071604 0.076867 0.092536 0.084479 0.068160 0.067845 0.107330 0.127630 0.077175 0.078095 0.108752 0.107330 0.086584 0.043773 0.051428 0.106474 0.128444 0.096944 0.051428 0.051757 0.055358 0.064365 0.069729 0.064365 0.070668 0.091057 0.096359 0.106188 0.116905 0.098693 0.082059 0.082968 0.103322 0.131685 0.129797 0.108752 0.086584 0.097236 0.087482 0.066899 0.096359 0.109886 0.119127 0.119957 0.151165 0.140477 0.076867 0.072849 0.096359 0.078095 0.086284 0.069102 0.088976 0.229503 0.293868 0.264664 0.138361 0.072849 0.045786 0.076867 0.066899 0.082666 0.071604 0.071604 0.051428 0.064365
0.096944 0.087781 0.079319 0.087482 0.082968 0.093716 0.088976 0.103322 0.103322 0.078095 0.078095 0.110734 0.082968 0.105044 0.075636 0.087781 0.100725 0.100725 0.088976 0.087482 0.086584 0.087781 0.079014 0.059567 0.096359 0.086284 0.056333 0.069102 0.076867 0.087781 0.088976 0.096359 0.087482 0.067215 0.096359 0.095773 0.059245 0.051428 0.060532 0.060532 0.054052 0.072849 0.096359 0.106188 0.103322 0.070668 0.056333 0.046455 0.024042 0.016834 0.024042 0.036292 0.052414 0.062134 0.072849 0.079625 0.086284 0.067845 0.076867 0.116627 0.106474 0.088976 0.082968 0.075636 0.082666 0.096359 0.133832 0.128715 0.106474 0.103322 0.091649 0.079319 0.075636 0.095773 0.096066 0.113270 0.128444 0.116905 0.100725 0.106474 0.092536 0.082666 0.133028 0.161359 0.114392 0.112426 0.125179 0.117740 0.125179 0.110169 0.106474 0.124358 0.112426 0.098111 0.105044 0.134100 0.100725 0.066899 0.071604 0.064365 0.075636 0.076867 0.071604 0.062773 0.070668 0.084479 0.091057 0.078095 0.088976 0.087482 0.060532 0.060532 0.069102 0.070668 0.048452 0.041749 0.056333 0.055358 0.063092 0.056982 0.063092 0.063092 0.040732 0.046455 0.059567 0.051757 0.029346 0.029346 0.040732 0.040732 0.042087 0.048452 0.048452 0.052743 0.051428 0.045786 0.046455 0.051757 0.046455 0.051099 0.117740 0.153735 0.130067 0.090166 0.084479 0.096066 0.108752 0.110169 0.114392 0.084479 0.117740 0.107330 0.036635 0.019736 0.029346 0.043773 0.012801 0.004956 0.009835 0.010951 0.004956 0.003820 0.006842 0.027235 0.006466 0.004956 0.001916 0.001916 0.004956 0.009463 0.001916 0.001534 0.009463 0.007593 0.015373 0.001916 0.003059 0.009835 0.007593 0.031096 0.010951 0.040732 0.096359 0.103322 0.070668 0.069102 0.084479 0.059245 0.036292 0.069102 0.096359 0.078095 0.060532 0.062134 0.068160 0.077175 0.081756 0.105044 0.145461 0.133832 0.101014 0.071604 0.091649 0.124085 0.130067 0.126542 0.103322 0.091649 0.074709 0.059567 0.039372 0.043437 0.078095 0.107330 0.110169 0.100725 0.096944 0.114392 0.115231 0.095773 0.098111 0.110169 0.156799 0.168115 0.207026 0.188310 0.167369 0.134100 0.115231 0.106474 0.096066 0.075636 0.097236 0.106188 0.106474 0.106474 0.069729 0.082968 0.100725 0.113270 0.123537 0.130067 0.134100 0.140741 0.086584 0.056982 0.079319 0.117740 0.149100 0.124085 0.116348 0.134100 0.143631 0.084479 0.076867 0.059245 0.086584 0.098693 0.067215 0.086584 0.106474 0.119957 0.177709 0.227298 0.067215 0.051757 0.062773 0.064365 0.075636 0.075636 0.082666 0.063092 0.042087
0.096944 0.093716 0.096944 0.087482 0.087482 0.079014 0.093716 0.093716 0.079625 0.069102 0.076867 0.098693 0.106474 0.064365 0.087781 0.075636 0.067215 0.069102 0.062134 0.078095 0.070668 0.055358 0.070668 0.067845 0.070668 0.078095 0.059567 0.075636 0.082666 0.079319 0.072849 0.086584 0.079625 0.081756 0.096359 0.069102 0.038348 0.079625 0.088976 0.087482 0.081756 0.084479 0.069102 0.086284 0.077175 0.067215 0.059245 0.036292 0.021537 0.012801 0.037664 0.060532 0.064365 0.075636 0.067215 0.064365 0.069102 0.051099 0.077175 0.127630 0.119127 0.107330 0.097236 0.086584 0.079014 0.098111 0.119127 0.096066 0.074709 0.100725 0.100725 0.091649 0.109886 0.103034 0.103034 0.110734 0.105044 0.110734 0.107330 0.107330 0.086584 0.075636 0.101014 0.114392 0.106474 0.110169 0.109886 0.110734 0.110734 0.110169 0.125179 0.134100 0.110734 0.096359 0.112426 0.109886 0.087781 0.074709 0.066899 0.070668 0.074709 0.055358 0.044781 0.051757 0.056333 0.072849 0.081756 0.072849 0.084479 0.086584 0.068160 0.052414 0.077175 0.078095 0.039372 0.042087 0.059245 0.075636 0.056333 0.057630 0.063092 0.040732 0.040732 0.057630 0.046455 0.032489 0.029346 0.044781 0.039372 0.027235 0.036292 0.052743 0.052743 0.059567 0.063092 0.057630 0.051428 0.040732 0.029346 0.069102 0.142582 0.151938 0.147804 0.110169 0.069729 0.079625 0.110734 0.110169 0.126542 0.110169 0.088976 0.067215 0.052414 0.051757 0.025110 0.004956 0.023685 0.015007 0.019375 0.009463 0.007593 0.013906 0.040732 0.012062 0.001916 0.003059 0.001916 0.001916 0.003820 0.019736 0.009463 0.006466 0.004956 0.001916 0.003440 0.004956 0.000768 0.010951 0.012801 0.009835 0.009835 0.056982 0.045786 0.051428 0.087482 0.060532 0.069102 0.078095 0.046455 0.069102 0.096066 0.077175 0.059567 0.070668 0.106474 0.114392 0.133832 0.181107 0.175268 0.125724 0.090166 0.096359 0.110734 0.101014 0.106474 0.108752 0.097236 0.067845 0.054052 0.048452 0.040732 0.051428 0.076867 0.103034 0.133028 0.141268 0.125179 0.133028 0.168115 0.164874 0.143631 0.143631 0.185442 0.218160 0.247894 0.267753 0.208173 0.161359 0.136236 0.115231 0.101014 0.081756 0.096066 0.096066 0.096066 0.062773 0.079014 0.084479 0.096944 0.126542 0.116348 0.114392 0.170099 0.176978 0.069729 0.064365 0.087482 0.112426 0.181107 0.174778 0.142582 0.096359 0.056333 0.066899 0.110734 0.076867 0.060532 0.062134 0.070668 0.107330 0.064365 0.088976 0.070668 0.066899 0.124085 0.101014 0.042087 0.057630 0.063092 0.071604 0.084479 0.075636 0.040732
0.106474 0.096944 0.106474 0.106474 0.100725 0.091649 0.084479 0.072849 0.062134 0.069102 0.068160 0.086584 0.097236 0.056333 0.079319 0.074709 0.040732 0.048784 0.064365 0.070668 0.075636 0.082968 0.079625 0.096066 0.078095 0.096359 0.076867 0.082968 0.069729 0.069102 0.062773 0.067845 0.079625 0.079625 0.064365 0.051428 0.082666 0.114392 0.098693 0.086584 0.078095 0.062134 0.060532 0.059567 0.060532 0.062134 0.030047 0.019736 0.026528 0.026882 0.051428 0.087482 0.084479 0.079014 0.074709 0.066899 0.066899 0.048784 0.072849 0.096359 0.097236 0.103322 0.110169 0.123537 0.121062 0.086584 0.086584 0.086284 0.087482 0.100725 0.081756 0.084479 0.100725 0.105044 0.112426 0.096359 0.095773 0.090166 0.091649 0.093716 0.100725 0.110734 0.098693 0.091057 0.091057 0.108752 0.121062 0.100725 0.101014 0.112426 0.125724 0.118850 0.090166 0.096359 0.098111 0.092536 0.082968 0.074709 0.059567 0.055358 0.051757 0.041749 0.048784 0.048784 0.054052 0.084479 0.093716 0.105044 0.070668 0.056333 0.068160 0.059245 0.068160 0.078095 0.067845 0.056333 0.048784 0.039372 0.062134 0.079014 0.046455 0.032489 0.046455 0.042087 0.040732 0.040732 0.036292 0.031096 0.029346 0.041749 0.051757 0.051757 0.048452 0.071604 0.082666 0.079319 0.070668 0.055358 0.036292 0.066899 0.128444 0.173059 0.162114 0.116348 0.079319 0.074709 0.093716 0.096066 0.096066 0.116348 0.091649 0.057630 0.052743 0.024042 0.001916 0.012801 0.019736 0.021537 0.019375 0.022613 0.024042 0.069102 0.029346 0.000384 0.000768 0.000768 0.001916 0.001534 0.003059 0.004956 0.030047 0.013538 0.000384 0.000768 0.001916 0.009463 0.003820 0.006466 0.013538 0.003820 0.029346 0.079625 0.031096 0.055358 0.087781 0.039372 0.043773 0.106474 0.070668 0.046455 0.086284 0.086284 0.078095 0.116348 0.134100 0.134100 0.148841 0.155014 0.116348 0.070668 0.070668 0.082968 0.074709 0.059245 0.059567 0.079625 0.079014 0.057630 0.059567 0.091649 0.096066 0.092536 0.104184 0.134100 0.140741 0.148841 0.125724 0.103034 0.112426 0.136236 0.139420 0.133832 0.115231 0.144417 0.162114 0.190688 0.201715 0.173797 0.142845 0.110734 0.076867 0.079625 0.096066 0.086284 0.056333 0.062773 0.096944 0.082968 0.084479 0.113270 0.110169 0.100725 0.138626 0.209317 0.159085 0.072849 0.075636 0.101014 0.153735 0.227298 0.212736 0.127358 0.024042 0.022613 0.108752 0.123537 0.079625 0.087482 0.096066 0.086284 0.067215 0.079014 0.125179 0.078095 0.036292 0.090166 0.088976 0.045786 0.079319 0.055358 0.063092 0.071604 0.092536
0.110734 0.103322 0.119957 0.110169 0.106474 0.084479 0.081756 0.070668 0.062134 0.070668 0.069102 0.076867 0.079625 0.078095 0.082666 0.057630 0.046455 0.057630 0.070668 0.062134 0.079625 0.123537 0.129797 0.116627 0.119127 0.107330 0.097236 0.091057 0.079319 0.075636 0.064365 0.052414 0.078095 0.076867 0.051757 0.096359 0.117740 0.087482 0.069102 0.076867 0.077175 0.079625 0.087482 0.076867 0.059567 0.030047 0.018651 0.021537 0.027235 0.054052 0.077175 0.096359 0.097236 0.096944 0.087482 0.090166 0.069729 0.046455 0.071604 0.079014 0.062134 0.059567 0.098693 0.121062 0.116348 0.134100 0.116348 0.093716 0.103322 0.113270 0.098693 0.106188 0.116905 0.097236 0.078095 0.081756 0.087781 0.084479 0.090166 0.106474 0.112426 0.074709 0.079625 0.108752 0.091057 0.100725 0.128444 0.116905 0.108752 0.106474 0.096066 0.079319 0.079319 0.079319 0.074709 0.074709 0.070668 0.067215 0.055358 0.059567 0.055358 0.048452 0.048452 0.044781 0.070668 0.100725 0.116348 0.096066 0.055358 0.059567 0.041749 0.052414 0.059245 0.069102 0.087482 0.062134 0.044781 0.059567 0.084479 0.068160 0.029697 0.024042 0.032837 0.041749 0.052743 0.031096 0.031096 0.040732 0.045786 0.036292 0.046455 0.055358 0.074709 0.101014 0.106474 0.096359 0.096944 0.079625 0.064365 0.064365 0.087781 0.150650 0.197052 0.163371 0.096944 0.069729 0.079014 0.070668 0.069729 0.059567 0.026882 0.022613 0.026528 0.001534 0.001916 0.006842 0.015007 0.024042 0.032837 0.024042 0.039372 0.110169 0.013906 0.000384 0.000768 0.000768 0.001534 0.000768 0.000384 0.006842 0.013538 0.010951 0.003820 0.000768 0.000384 0.004956 0.018651 0.001916 0.001534 0.003440 0.003820 0.106474 0.103322 0.086584 0.060532 0.025110 0.037664 0.096359 0.079625 0.043773 0.067845 0.096359 0.116905 0.129797 0.116905 0.107330 0.106188 0.107330 0.100725 0.079625 0.069102 0.070668 0.056333 0.042087 0.051428 0.082059 0.118850 0.109886 0.075636 0.087781 0.101014 0.090166 0.082666 0.095773 0.127358 0.145461 0.127358 0.103034 0.082666 0.101014 0.128715 0.145461 0.124358 0.106474 0.105044 0.112426 0.140741 0.157308 0.141268 0.125724 0.087482 0.096359 0.106474 0.103322 0.069102 0.066899 0.084479 0.115231 0.113270 0.097236 0.096944 0.096066 0.076867 0.110734 0.158831 0.096359 0.084479 0.096944 0.140741 0.225083 0.252134 0.151938 0.016834 0.054052 0.051428 0.088976 0.106474 0.086584 0.098693 0.069102 0.087781 0.090166 0.101014 0.106474 0.057630 0.051428 0.069729 0.066899 0.076867 0.082666 0.069729 0.059567 0.048452
0.110734 0.126542 0.137034 0.113270 0.103322 0.093716 0.081756 0.069102 0.070668 0.062134 0.069102 0.059245 0.069102 0.077175 0.070668 0.051428 0.063092 0.063092 0.059567 0.067215 0.077175 0.097236 0.119127 0.106474 0.106474 0.079625 0.097236 0.088976 0.093716 0.064365 0.057630 0.048784 0.076867 0.077175 0.070668 0.104184 0.096359 0.071604 0.064365 0.078095 0.087482 0.091057 0.069102 0.069102 0.056333 0.026882 0.018651 0.019375 0.044781 0.069102 0.086584 0.096066 0.127630 0.134100 0.114392 0.090166 0.046455 0.069102 0.103034 0.088976 0.063092 0.064365 0.079014 0.088976 0.079625 0.086584 0.117740 0.098693 0.096944 0.130067 0.140477 0.121062 0.113270 0.103322 0.098693 0.097236 0.097236 0.096066 0.088976 0.100725 0.079014 0.057630 0.084479 0.106474 0.110169 0.109886 0.096944 0.097236 0.127630 0.128444 0.096359 0.079625 0.062134 0.052414 0.062134 0.062134 0.056333 0.062134 0.062134 0.048784 0.044781 0.044781 0.044781 0.051757 0.082968 0.091649 0.110169 0.096944 0.071604 0.057630 0.046455 0.046455 0.041749 0.062134 0.059245 0.052414 0.076867 0.097236 0.043437 0.035259 0.051757 0.046455 0.052414 0.059567 0.036635 0.019736 0.035259 0.042087 0.040732 0.051428 0.082059 0.096359 0.103034 0.118850 0.121062 0.104184 0.071604 0.079625 0.087482 0.075636 0.096359 0.124358 0.181591 0.184962 0.119127 0.084479 0.056982 0.051757 0.042087 0.012801 0.010951 0.022613 0.007593 0.000384 0.001916 0.003820 0.009835 0.024042 0.030047 0.003820 0.125724 0.044781 0.000384 0.000384 0.000000 0.000384 0.000768 0.001534 0.001534 0.003820 0.006089 0.003820 0.003059 0.000384 0.000384 0.003820 0.009463 0.012062 0.003059 0.003059 0.003059 0.055358 0.137034 0.108752 0.087482 0.036635 0.024042 0.060532 0.091057 0.069102 0.067845 0.096359 0.117740 0.107330 0.108752 0.113270 0.093716 0.106474 0.110169 0.096066 0.079319 0.076867 0.075636 0.079319 0.087482 0.105044 0.119127 0.149100 0.114392 0.079014 0.090166 0.088976 0.071604 0.074709 0.096066 0.115231 0.110734 0.103034 0.092536 0.087781 0.105044 0.112426 0.130067 0.101014 0.084479 0.110734 0.141268 0.157308 0.133028 0.118850 0.123537 0.127630 0.096066 0.087482 0.110734 0.096359 0.090166 0.128715 0.173305 0.110169 0.064365 0.084479 0.084479 0.071604 0.092536 0.084479 0.091649 0.140741 0.149875 0.186878 0.247894 0.174778 0.057630 0.039372 0.086584 0.067215 0.098693 0.070668 0.060532 0.078095 0.070668 0.095773 0.119127 0.105044 0.063092 0.071604 0.066899 0.040732 0.051428 0.082059 0.087482 0.075636 0.045786
0.096944 0.140477 0.126542 0.121062 0.110734 0.098693 0.087482 0.087482 0.078095 0.098693 0.117740 0.116627 0.116905 0.096359 0.072849 0.070668 0.076867 0.069102 0.075636 0.074709 0.059567 0.077175 0.087482 0.086584 0.076867 0.070668 0.077175 0.070668 0.070668 0.067215 0.071604 0.082968 0.087482 0.097236 0.091057 0.082059 0.096359 0.071604 0.067215 0.062134 0.069102 0.059567 0.036292 0.031096 0.032489 0.029346 0.021537 0.012801 0.044781 0.086584 0.097236 0.117740 0.149617 0.161106 0.119127 0.066899 0.064365 0.110734 0.103034 0.096359 0.090166 0.090166 0.095773 0.121062 0.127358 0.110734 0.092536 0.056333 0.059567 0.097236 0.134100 0.137034 0.113270 0.126542 0.110734 0.091057 0.098693 0.108752 0.097236 0.107330 0.117740 0.093716 0.084479 0.105044 0.143631 0.127358 0.096359 0.082666 0.082968 0.121062 0.128444 0.077175 0.052414 0.060532 0.068160 0.069102 0.060532 0.051428 0.054052 0.062134 0.051428 0.036292 0.036292 0.052414 0.081756 0.091057 0.106474 0.096944 0.074709 0.052743 0.051428 0.051428 0.056982 0.057630 0.051757 0.064365 0.081756 0.060532 0.031096 0.031096 0.039372 0.046455 0.062134 0.064365 0.055358 0.039372 0.043773 0.052414 0.041749 0.059567 0.087482 0.095773 0.110734 0.133028 0.117740 0.088976 0.069102 0.066899 0.088976 0.113270 0.139420 0.166124 0.157308 0.134100 0.128444 0.098693 0.071604 0.036292 0.026882 0.016834 0.021537 0.010951 0.000768 0.000384 0.001534 0.003440 0.013538 0.023685 0.012801 0.059567 0.082666 0.006089 0.000768 0.000384 0.000000 0.000000 0.000384 0.001534 0.001534 0.003820 0.006089 0.003440 0.001916 0.000768 0.001916 0.004956 0.004956 0.001916 0.016834 0.000768 0.009835 0.018289 0.128444 0.127630 0.096359 0.043773 0.018289 0.051099 0.078095 0.078095 0.077175 0.077175 0.108752 0.123537 0.093716 0.105044 0.110169 0.096944 0.096066 0.098111 0.090166 0.075636 0.071604 0.079014 0.087781 0.105044 0.084479 0.092536 0.106474 0.075636 0.076867 0.106474 0.082968 0.071604 0.079319 0.092536 0.096359 0.082666 0.096066 0.082968 0.084479 0.096359 0.098111 0.106474 0.092536 0.115231 0.158831 0.199855 0.192109 0.153735 0.129797 0.106474 0.084479 0.075636 0.103034 0.104184 0.101014 0.134100 0.153735 0.134100 0.098111 0.087482 0.084479 0.071604 0.084479 0.106474 0.138626 0.212736 0.159338 0.121062 0.236717 0.270418 0.134100 0.043773 0.117740 0.091649 0.067845 0.075636 0.069102 0.069102 0.063092 0.082968 0.123537 0.101014 0.048452 0.059567 0.082666 0.069102 0.045786 0.051757 0.071604 0.069729 0.057630
0.082666 0.092536 0.093716 0.121062 0.129797 0.129797 0.119127 0.116905 0.110734 0.140477 0.131685 0.138361 0.142582 0.110734 0.078095 0.087781 0.091649 0.084479 0.075636 0.052743 0.046455 0.051428 0.052414 0.069102 0.059567 0.054052 0.087482 0.097236 0.110734 0.096944 0.109886 0.105044 0.079625 0.096359 0.096066 0.071604 0.095773 0.064365 0.044781 0.046455 0.037664 0.029697 0.031096 0.029346 0.027235 0.024042 0.016834 0.029697 0.056333 0.069102 0.077175 0.117740 0.150650 0.167369 0.176734 0.107330 0.075636 0.092536 0.098111 0.103034 0.098111 0.106474 0.118850 0.141268 0.141268 0.117740 0.082059 0.063092 0.069102 0.074709 0.087482 0.117740 0.107330 0.107330 0.117740 0.107330 0.106474 0.106474 0.096359 0.096066 0.138626 0.138361 0.088976 0.113270 0.147804 0.119127 0.104184 0.103034 0.117740 0.118850 0.082968 0.046455 0.039372 0.060532 0.059245 0.054052 0.067215 0.062773 0.059567 0.074709 0.079319 0.059567 0.056333 0.077175 0.086584 0.096066 0.116627 0.097236 0.059567 0.044781 0.039372 0.041749 0.052743 0.056982 0.042087 0.051757 0.062134 0.043773 0.018651 0.023685 0.036292 0.043437 0.043437 0.039372 0.048784 0.070668 0.068160 0.052414 0.054052 0.064365 0.091057 0.097236 0.096944 0.082968 0.071604 0.075636 0.076867 0.076867 0.087482 0.130067 0.169356 0.177709 0.130067 0.095773 0.106474 0.142582 0.075636 0.022613 0.024042 0.019736 0.009835 0.003440 0.000768 0.001534 0.001534 0.003440 0.009835 0.012801 0.010951 0.057630 0.009463 0.000384 0.000768 0.000000 0.000000 0.000000 0.000768 0.001534 0.003440 0.003820 0.003440 0.006089 0.003820 0.004956 0.009463 0.015007 0.012801 0.004956 0.006089 0.015007 0.006842 0.024042 0.117740 0.116627 0.086584 0.044781 0.031096 0.046455 0.068160 0.077175 0.077175 0.077175 0.076867 0.088976 0.084479 0.096944 0.124085 0.105044 0.084479 0.090166 0.090166 0.075636 0.079014 0.075636 0.062773 0.075636 0.082059 0.063092 0.059567 0.062773 0.055358 0.082968 0.087482 0.066899 0.079014 0.074709 0.075636 0.071604 0.074709 0.079319 0.076867 0.090166 0.092536 0.109886 0.124085 0.124085 0.155014 0.204493 0.236065 0.229503 0.173305 0.110734 0.082968 0.075636 0.104184 0.115231 0.105044 0.110169 0.133832 0.124358 0.115231 0.098111 0.079319 0.071604 0.076867 0.096359 0.118850 0.242978 0.307662 0.182798 0.199855 0.358399 0.330484 0.176734 0.136236 0.124358 0.064365 0.070668 0.087482 0.048452 0.070668 0.098693 0.081756 0.106474 0.076867 0.051428 0.056982 0.082666 0.070668 0.069729 0.048452 0.069729 0.090166
0.082968 0.074709 0.088976 0.105044 0.134100 0.150650 0.149875 0.149875 0.163371 0.134100 0.108752 0.086584 0.091057 0.093716 0.086584 0.079014 0.074709 0.062773 0.059567 0.040732 0.032837 0.043437 0.059245 0.086284 0.087482 0.076867 0.121062 0.156035 0.139420 0.108752 0.096066 0.087781 0.062134 0.076867 0.096359 0.106474 0.098111 0.055358 0.038348 0.032837 0.029697 0.023685 0.030047 0.035259 0.036292 0.032489 0.036635 0.054052 0.067215 0.067215 0.067215 0.091057 0.116627 0.139420 0.198923 0.138361 0.106474 0.121062 0.100725 0.096066 0.103034 0.112426 0.112426 0.140741 0.141268 0.104184 0.090166 0.104184 0.106474 0.092536 0.082059 0.100725 0.107330 0.126542 0.119957 0.114392 0.113270 0.108752 0.106474 0.106474 0.116905 0.128444 0.106474 0.116905 0.161106 0.138361 0.088976 0.079014 0.082968 0.074709 0.055358 0.055358 0.069729 0.057630 0.042087 0.035259 0.039372 0.036292 0.043773 0.059245 0.071604 0.082968 0.088976 0.097236 0.086584 0.078095 0.079625 0.103322 0.100725 0.052414 0.043773 0.059567 0.069102 0.035259 0.024042 0.041749 0.031096 0.030047 0.036635 0.039372 0.039372 0.044781 0.037664 0.032837 0.043773 0.060532 0.071604 0.063092 0.057630 0.075636 0.148841 0.156035 0.098693 0.088976 0.096359 0.093716 0.076867 0.069729 0.082666 0.136236 0.155014 0.139420 0.119127 0.109886 0.095773 0.100725 0.069102 0.040732 0.029346 0.024042 0.009835 0.003059 0.001534 0.001916 0.001916 0.001534 0.006842 0.012062 0.001916 0.015373 0.004956 0.001916 0.000768 0.000000 0.000000 0.000384 0.000768 0.000384 0.003440 0.003440 0.003440 0.006089 0.009835 0.015373 0.031096 0.026882 0.018651 0.006842 0.004956 0.001916 0.001916 0.051099 0.116905 0.096066 0.078095 0.068160 0.052414 0.031096 0.059245 0.097236 0.079625 0.069102 0.069102 0.069102 0.060532 0.059567 0.078095 0.087781 0.084479 0.090166 0.103034 0.091649 0.084479 0.071604 0.051428 0.042087 0.063092 0.070668 0.075636 0.055358 0.055358 0.064365 0.079014 0.072849 0.070668 0.057630 0.064365 0.059567 0.052743 0.064365 0.069729 0.084479 0.091649 0.106474 0.119957 0.109886 0.106474 0.112426 0.127358 0.175023 0.179896 0.133832 0.090166 0.084479 0.070668 0.100725 0.113270 0.103322 0.110169 0.105044 0.098111 0.115231 0.096066 0.075636 0.075636 0.092536 0.109886 0.149875 0.328814 0.345134 0.196115 0.252767 0.414430 0.435087 0.384337 0.201715 0.081756 0.078095 0.062773 0.059245 0.088976 0.091057 0.066899 0.057630 0.088976 0.069729 0.056982 0.079319 0.064365 0.069729 0.071604 0.072849 0.078095
0.082666 0.087482 0.092536 0.095773 0.101014 0.103322 0.119127 0.117740 0.150650 0.139420 0.116627 0.087482 0.072849 0.091057 0.086284 0.079625 0.067215 0.066899 0.055358 0.044781 0.055358 0.084479 0.098693 0.106474 0.107330 0.116627 0.113270 0.121062 0.096066 0.096066 0.070668 0.062773 0.062134 0.079625 0.097236 0.113270 0.070668 0.046455 0.039372 0.032837 0.036635 0.036292 0.036635 0.032489 0.046455 0.048784 0.068160 0.077175 0.069102 0.070668 0.072849 0.075636 0.091057 0.129797 0.197755 0.149875 0.108752 0.128444 0.108752 0.110734 0.106474 0.084479 0.082666 0.125724 0.112426 0.088976 0.104184 0.104184 0.115231 0.109886 0.119127 0.098111 0.119127 0.181107 0.164123 0.141268 0.103034 0.098111 0.091649 0.103322 0.108752 0.117740 0.116905 0.117740 0.127630 0.131685 0.131685 0.096066 0.077175 0.072849 0.070668 0.087482 0.071604 0.057630 0.051428 0.063092 0.063092 0.051428 0.042087 0.026528 0.046455 0.086584 0.096359 0.096359 0.088976 0.079625 0.088976 0.087482 0.093716 0.072849 0.060532 0.059567 0.062134 0.044781 0.030047 0.031096 0.025110 0.039372 0.051757 0.039372 0.031096 0.036635 0.054052 0.030047 0.019375 0.032489 0.046455 0.063092 0.057630 0.075636 0.151938 0.170099 0.113270 0.107330 0.127630 0.119127 0.084479 0.066899 0.098111 0.110734 0.110734 0.127358 0.119127 0.110169 0.096066 0.075636 0.082968 0.088976 0.084479 0.043773 0.018651 0.009835 0.007593 0.006842 0.001916 0.000768 0.001916 0.027235 0.015007 0.019375 0.019736 0.003820 0.001916 0.000768 0.000000 0.000384 0.000384 0.000768 0.003820 0.003440 0.003440 0.009463 0.018289 0.036635 0.110734 0.048452 0.029346 0.010951 0.000384 0.001916 0.010951 0.024042 0.116627 0.086584 0.076867 0.077175 0.051428 0.031096 0.067845 0.106474 0.077175 0.067845 0.077175 0.087482 0.070668 0.059245 0.048784 0.029697 0.035259 0.051428 0.071604 0.071604 0.069729 0.082666 0.076867 0.051428 0.055358 0.067215 0.064365 0.064365 0.067215 0.075636 0.079014 0.066899 0.069102 0.071604 0.079319 0.084479 0.059567 0.059567 0.066899 0.079014 0.103322 0.106474 0.076867 0.075636 0.090166 0.087482 0.069729 0.042087 0.052743 0.093716 0.087482 0.081756 0.116627 0.096066 0.079625 0.087781 0.096066 0.104184 0.110734 0.134100 0.125724 0.109886 0.114392 0.114392 0.109886 0.109886 0.153735 0.333994 0.315299 0.215455 0.227077 0.313018 0.292884 0.165874 0.084479 0.062773 0.059245 0.078095 0.072849 0.074709 0.075636 0.063092 0.064365 0.069729 0.063092 0.055358 0.088976 0.059567 0.084479 0.056333 0.051428
0.082666 0.095773 0.112426 0.110734 0.082666 0.070668 0.062134 0.072849 0.093716 0.087482 0.078095 0.081756 0.072849 0.079625 0.086284 0.079625 0.072849 0.056333 0.051757 0.066899 0.079319 0.070668 0.062134 0.068160 0.086584 0.096066 0.091057 0.081756 0.067845 0.077175 0.079625 0.055358 0.070668 0.072849 0.069102 0.060532 0.039372 0.032837 0.032837 0.026882 0.024042 0.023685 0.026882 0.031096 0.041749 0.069102 0.076867 0.077175 0.076867 0.076867 0.078095 0.088976 0.100725 0.123537 0.178926 0.149617 0.121062 0.117740 0.107330 0.106474 0.107330 0.078095 0.087781 0.100725 0.082968 0.082968 0.090166 0.096359 0.095773 0.098111 0.119127 0.105044 0.125724 0.159085 0.185681 0.149100 0.110734 0.110169 0.110169 0.117740 0.121062 0.133832 0.128715 0.110169 0.103322 0.108752 0.127358 0.116627 0.106474 0.107330 0.081756 0.070668 0.055358 0.052743 0.064365 0.069729 0.056982 0.063092 0.064365 0.087781 0.082968 0.063092 0.072849 0.077175 0.070668 0.081756 0.088976 0.079625 0.084479 0.091649 0.079014 0.059245 0.064365 0.064365 0.046455 0.044781 0.036635 0.051099 0.036635 0.018289 0.024042 0.051428 0.041749 0.019736 0.015007 0.032489 0.043437 0.043437 0.051428 0.079625 0.116905 0.129797 0.142582 0.149875 0.149875 0.128444 0.087482 0.072849 0.087781 0.100725 0.109886 0.104184 0.082666 0.074709 0.044781 0.051428 0.105044 0.501941 0.129797 0.038348 0.043437 0.032837 0.026528 0.010951 0.006089 0.004956 0.006842 0.023685 0.030047 0.010951 0.018289 0.003820 0.000768 0.000768 0.000768 0.000768 0.001916 0.001916 0.001916 0.001534 0.003440 0.006466 0.015007 0.167369 0.055358 0.097236 0.059567 0.023685 0.004956 0.009463 0.000768 0.021537 0.096066 0.097236 0.096359 0.060532 0.035259 0.039372 0.087482 0.107330 0.068160 0.068160 0.086584 0.086284 0.087482 0.068160 0.036635 0.018651 0.009835 0.015373 0.029346 0.029346 0.027235 0.057630 0.088976 0.103034 0.096359 0.075636 0.069729 0.082968 0.079014 0.066899 0.076867 0.082666 0.079319 0.082968 0.074709 0.092536 0.084479 0.074709 0.079014 0.081756 0.081756 0.082059 0.072849 0.048784 0.054052 0.037664 0.048784 0.086584 0.079625 0.078095 0.069102 0.076867 0.097236 0.075636 0.066899 0.076867 0.088976 0.110734 0.118850 0.151938 0.155014 0.138626 0.128715 0.124358 0.115231 0.106474 0.076867 0.110734 0.232137 0.181107 0.143631 0.096066 0.064365 0.074709 0.062773 0.062773 0.088976 0.070668 0.064365 0.069102 0.069102 0.076867 0.064365 0.052743 0.071604 0.051757 0.063092 0.066899 0.066899 0.069102 0.057630
0.103034 0.125724 0.125179 0.103034 0.082666 0.062773 0.064365 0.075636 0.072849 0.059567 0.059567 0.062134 0.064365 0.069102 0.059245 0.059567 0.052414 0.048784 0.062773 0.066899 0.059567 0.051757 0.064365 0.072849 0.086584 0.106188 0.108752 0.078095 0.067845 0.068160 0.060532 0.064365 0.070668 0.064365 0.059567 0.051428 0.037664 0.031096 0.031096 0.019736 0.018651 0.009463 0.009463 0.035259 0.060532 0.077175 0.078095 0.077175 0.077175 0.086284 0.097236 0.088976 0.108752 0.144939 0.142582 0.138361 0.128444 0.107330 0.097236 0.106474 0.106474 0.096066 0.098693 0.086584 0.079625 0.081756 0.084479 0.074709 0.074709 0.098111 0.082059 0.087482 0.127358 0.158831 0.181107 0.133832 0.106474 0.112426 0.133028 0.140741 0.125724 0.142845 0.127358 0.112426 0.121062 0.101014 0.114392 0.110734 0.097236 0.097236 0.096359 0.087482 0.062134 0.062773 0.059567 0.052743 0.057630 0.069102 0.075636 0.076867 0.067215 0.070668 0.063092 0.048452 0.046455 0.077175 0.096066 0.068160 0.052414 0.064365 0.081756 0.081756 0.069102 0.059245 0.048784 0.044781 0.037664 0.051428 0.046455 0.025110 0.025110 0.019736 0.036292 0.031096 0.023685 0.048784 0.056333 0.051757 0.067215 0.079014 0.091057 0.107330 0.127630 0.162114 0.161359 0.128444 0.096359 0.087482 0.100725 0.103322 0.096944 0.084479 0.051757 0.012801 0.007593 0.032837 0.535272 0.190688 0.325649 0.155014 0.084479 0.069729 0.042087 0.024042 0.013906 0.007593 0.010951 0.016834 0.009463 0.006842 0.006466 0.003059 0.003059 0.001916 0.003440 0.003820 0.001916 0.000768 0.001916 0.001534 0.001534 0.003820 0.004956 0.026528 0.201715 0.068160 0.044781 0.016834 0.003440 0.006089 0.007593 0.018651 0.069102 0.079625 0.084479 0.066899 0.059567 0.079625 0.121062 0.098693 0.069102 0.070668 0.070668 0.059567 0.067215 0.070668 0.055358 0.035259 0.016834 0.015007 0.026882 0.031096 0.032489 0.051757 0.082968 0.098111 0.125179 0.112426 0.092536 0.092536 0.090166 0.075636 0.069729 0.079319 0.079319 0.079319 0.071604 0.069729 0.071604 0.070668 0.075636 0.075636 0.042087 0.097236 0.086584 0.051099 0.078095 0.060532 0.056333 0.059567 0.044781 0.048784 0.075636 0.087781 0.087482 0.076867 0.075636 0.082059 0.082666 0.082666 0.090166 0.127358 0.127358 0.106474 0.082666 0.082666 0.096359 0.110169 0.075636 0.056982 0.090166 0.117740 0.082059 0.075636 0.057630 0.066899 0.066899 0.079625 0.059245 0.063092 0.063092 0.075636 0.066899 0.066899 0.074709 0.059567 0.062773 0.057630 0.027235 0.124085 0.082968 0.048452 0.057630
0.104184 0.103034 0.095773 0.088976 0.069102 0.059567 0.067215 0.084479 0.081756 0.077175 0.069102 0.064365 0.070668 0.062134 0.030047 0.025110 0.031096 0.056333 0.062773 0.062773 0.059567 0.071604 0.070668 0.072849 0.070668 0.087482 0.106474 0.086284 0.096359 0.087482 0.069102 0.079014 0.087781 0.072849 0.059567 0.059567 0.043437 0.031096 0.030047 0.030047 0.024042 0.021537 0.019375 0.032837 0.062134 0.072849 0.084479 0.088976 0.088976 0.107330 0.106188 0.097236 0.121062 0.131685 0.119127 0.128444 0.138626 0.116905 0.096359 0.096359 0.096066 0.096359 0.086584 0.086584 0.096066 0.086584 0.086584 0.078095 0.081756 0.075636 0.064365 0.079319 0.103034 0.136236 0.149100 0.105044 0.106474 0.124358 0.130067 0.090166 0.092536 0.124358 0.109886 0.115231 0.106474 0.096066 0.091649 0.064365 0.091057 0.098693 0.077175 0.077175 0.077175 0.069102 0.054052 0.056333 0.059245 0.059567 0.063092 0.056982 0.064365 0.066899 0.066899 0.071604 0.069729 0.071604 0.075636 0.062134 0.056333 0.064365 0.070668 0.070668 0.052414 0.043773 0.069102 0.062134 0.046455 0.051757 0.032837 0.029346 0.026882 0.019375 0.019375 0.044781 0.062773 0.062773 0.056333 0.059245 0.070668 0.079014 0.084479 0.079625 0.096359 0.150650 0.151938 0.129797 0.127630 0.116905 0.108752 0.110734 0.093716 0.064365 0.029346 0.007593 0.012801 0.023685 0.188310 0.493133 0.221745 0.190214 0.110734 0.251500 0.022613 0.009835 0.012062 0.009463 0.006466 0.006089 0.000000 0.000768 0.001916 0.003059 0.001916 0.003440 0.003440 0.003440 0.001534 0.001916 0.000768 0.000768 0.001534 0.001534 0.000768 0.000768 0.032837 0.060532 0.015007 0.006842 0.000384 0.001916 0.007593 0.024042 0.067215 0.079014 0.084479 0.075636 0.084479 0.142582 0.149617 0.086584 0.067845 0.078095 0.067845 0.025110 0.035259 0.064365 0.056333 0.041749 0.024042 0.015373 0.024042 0.054052 0.087482 0.110734 0.105044 0.095773 0.127358 0.127358 0.110169 0.110169 0.103034 0.088976 0.069729 0.064365 0.071604 0.079319 0.076867 0.069729 0.066899 0.051757 0.059245 0.066899 0.086584 0.086584 0.088976 0.068160 0.068160 0.054052 0.037664 0.041749 0.044781 0.056333 0.056333 0.071604 0.098111 0.088976 0.069102 0.082666 0.082059 0.082059 0.064365 0.075636 0.103034 0.090166 0.076867 0.056982 0.063092 0.090166 0.096359 0.071604 0.062773 0.071604 0.076867 0.056982 0.059567 0.052743 0.081756 0.079014 0.052743 0.046455 0.052743 0.062773 0.070668 0.059245 0.051757 0.059567 0.055358 0.063092 0.067845 0.116627 0.184722 0.117740 0.064365
0.075636 0.079014 0.074709 0.059567 0.052743 0.051428 0.051428 0.059567 0.056333 0.059245 0.079625 0.088976 0.091057 0.091649 0.084479 0.059567 0.070668 0.074709 0.062773 0.062773 0.066899 0.059567 0.048452 0.051757 0.039372 0.048784 0.054052 0.068160 0.067845 0.078095 0.086284 0.075636 0.070668 0.044781 0.043437 0.036635 0.044781 0.029697 0.031096 0.030047 0.030047 0.037664 0.040732 0.059245 0.056333 0.064365 0.091057 0.100725 0.091057 0.117740 0.138361 0.129797 0.131685 0.131685 0.121062 0.119127 0.116905 0.106188 0.096359 0.096066 0.086584 0.086584 0.097236 0.096066 0.096066 0.086584 0.086584 0.086584 0.086284 0.067845 0.068160 0.086584 0.091057 0.106474 0.100725 0.098693 0.100725 0.091057 0.078095 0.060532 0.079625 0.097236 0.086584 0.087482 0.069102 0.052414 0.059567 0.076867 0.086584 0.069102 0.060532 0.070668 0.087482 0.088976 0.059567 0.051428 0.062134 0.070668 0.067215 0.064365 0.057630 0.059567 0.076867 0.092536 0.082968 0.076867 0.076867 0.079319 0.084479 0.076867 0.087482 0.087482 0.071604 0.076867 0.090166 0.062773 0.062773 0.062773 0.063092 0.057630 0.057630 0.057630 0.059567 0.076867 0.063092 0.046455 0.051757 0.064365 0.075636 0.064365 0.062134 0.068160 0.077175 0.116905 0.153735 0.149875 0.138626 0.128444 0.127630 0.117740 0.088976 0.070668 0.031096 0.007593 0.087482 0.010951 0.027235 0.285556 0.223528 0.127358 0.196818 0.354305 0.107330 0.000768 0.003059 0.004956 0.004956 0.001916 0.001916 0.001916 0.000768 0.001916 0.003820 0.001534 0.001534 0.001534 0.001534 0.001534 0.000768 0.000768 0.000384 0.001534 0.001916 0.001916 0.001916 0.007593 0.006089 0.001916 0.000768 0.003820 0.006466 0.019375 0.071604 0.069729 0.075636 0.088976 0.124358 0.178926 0.158831 0.103322 0.097236 0.067845 0.041749 0.046455 0.048784 0.067215 0.051757 0.051428 0.048452 0.039372 0.013538 0.019736 0.009835 0.015373 0.064365 0.079014 0.098111 0.125179 0.142845 0.148841 0.110734 0.076867 0.063092 0.066899 0.079014 0.096066 0.082666 0.069729 0.064365 0.036292 0.035259 0.086584 0.097236 0.078095 0.072849 0.072849 0.067215 0.062773 0.051757 0.044781 0.048784 0.054052 0.041749 0.035259 0.059567 0.076867 0.063092 0.063092 0.064365 0.069102 0.063092 0.059567 0.084479 0.084479 0.075636 0.063092 0.057630 0.062773 0.079319 0.082968 0.084479 0.069729 0.069102 0.057630 0.052743 0.072849 0.067215 0.071604 0.064365 0.048452 0.051757 0.056333 0.067215 0.070668 0.064365 0.041749 0.057630 0.078095 0.156035 0.044781 0.096359 0.125724 0.095773
0.086584 0.078095 0.060532 0.054052 0.048784 0.038348 0.036292 0.036292 0.036292 0.041749 0.059567 0.079625 0.081756 0.100725 0.140741 0.149617 0.107330 0.079625 0.075636 0.079014 0.055358 0.055358 0.055358 0.035259 0.039372 0.048784 0.035259 0.044781 0.059245 0.067845 0.059567 0.054052 0.039372 0.037664 0.043437 0.036635 0.043773 0.043437 0.036635 0.030047 0.036292 0.041749 0.042087 0.070668 0.075636 0.072849 0.079625 0.091057 0.108752 0.149875 0.161106 0.139420 0.128444 0.128444 0.107330 0.096066 0.106474 0.096359 0.096359 0.096066 0.086584 0.086584 0.096066 0.106474 0.087482 0.079625 0.087482 0.091057 0.088976 0.079625 0.067845 0.086284 0.106188 0.096066 0.086584 0.086584 0.087482 0.079625 0.079625 0.070668 0.069102 0.079625 0.088976 0.098693 0.081756 0.070668 0.059567 0.059567 0.069102 0.070668 0.070668 0.078095 0.078095 0.081756 0.088976 0.086584 0.068160 0.059245 0.077175 0.070668 0.055358 0.056982 0.075636 0.082666 0.074709 0.082968 0.090166 0.110169 0.096359 0.082666 0.090166 0.098111 0.090166 0.090166 0.075636 0.046455 0.059567 0.079014 0.079319 0.051428 0.057630 0.040732 0.057630 0.069729 0.046455 0.046455 0.046455 0.059245 0.062134 0.051428 0.051099 0.059567 0.077175 0.096066 0.158831 0.167369 0.130067 0.144939 0.151938 0.127630 0.096359 0.051428 0.018651 0.107330 0.026882 0.079625 0.059567 0.062773 0.086284 0.018651 0.303808 0.086584 0.274493 0.001916 0.003059 0.003059 0.003059 0.003820 0.001916 0.003059 0.003820 0.001534 0.003820 0.003820 0.001534 0.001534 0.001534 0.003440 0.001534 0.000384 0.000768 0.000384 0.000384 0.001534 0.000384 0.000384 0.000384 0.000384 0.000384 0.000768 0.000384 0.006842 0.025110 0.054052 0.044781 0.064365 0.134100 0.212963 0.165874 0.134100 0.119127 0.064365 0.031096 0.051428 0.069729 0.082666 0.076867 0.075636 0.051757 0.063092 0.024042 0.007593 0.032489 0.067215 0.062773 0.031096 0.026882 0.031096 0.059567 0.145461 0.148841 0.082968 0.062773 0.032837 0.044781 0.075636 0.074709 0.057630 0.052743 0.056333 0.051428 0.069102 0.081756 0.075636 0.075636 0.067215 0.056333 0.056333 0.051757 0.048784 0.059245 0.056333 0.048784 0.032837 0.035259 0.044781 0.048452 0.051757 0.048452 0.048452 0.059567 0.048452 0.059567 0.076867 0.069729 0.064365 0.067215 0.064365 0.059245 0.059567 0.063092 0.075636 0.069729 0.062773 0.062134 0.059245 0.055358 0.059567 0.071604 0.066899 0.062773 0.062773 0.055358 0.063092 0.096359 0.104184 0.076867 0.153735 0.100725 0.069729 0.062134 0.070668 0.041749
0.086284 0.076867 0.067845 0.059567 0.052414 0.048784 0.042087 0.046455 0.045786 0.038348 0.031096 0.043773 0.060532 0.077175 0.106188 0.107330 0.077175 0.088976 0.084479 0.062134 0.048784 0.059567 0.048784 0.041749 0.059245 0.054052 0.054052 0.044781 0.046455 0.060532 0.069102 0.060532 0.056333 0.046455 0.036292 0.043773 0.043773 0.043773 0.036292 0.043773 0.036292 0.036292 0.051757 0.062134 0.070668 0.077175 0.086584 0.096359 0.116905 0.149875 0.172813 0.149875 0.128444 0.127630 0.096359 0.086584 0.106474 0.106474 0.106474 0.097236 0.096359 0.096359 0.076867 0.079625 0.081756 0.088976 0.078095 0.079625 0.098693 0.097236 0.096066 0.086584 0.086284 0.086584 0.086584 0.086584 0.077175 0.079625 0.077175 0.068160 0.076867 0.086584 0.086584 0.077175 0.070668 0.077175 0.077175 0.067845 0.067845 0.059567 0.068160 0.078095 0.067845 0.076867 0.086584 0.086584 0.068160 0.068160 0.086284 0.086284 0.069102 0.056333 0.066899 0.059567 0.069729 0.101014 0.130067 0.104184 0.082666 0.082059 0.104184 0.104184 0.082666 0.071604 0.048452 0.046455 0.059567 0.070668 0.062773 0.048452 0.036292 0.040732 0.069102 0.051428 0.046455 0.046455 0.046455 0.046455 0.039372 0.036635 0.043437 0.059245 0.086284 0.067845 0.097236 0.155014 0.151165 0.188310 0.207026 0.159338 0.105044 0.087482 0.036292 0.025110 0.119957 0.048452 0.044781 0.018651 0.004956 0.006466 0.290715 0.051428 0.277733 0.007593 0.007593 0.007593 0.003820 0.006466 0.003059 0.003820 0.003820 0.003820 0.001534 0.003820 0.001916 0.003440 0.001916 0.001534 0.001916 0.001534 0.000384 0.000000 0.000000 0.000000 0.000000 0.000000 0.000000 0.000000 0.000768 0.003820 0.012801 0.045786 0.079014 0.074709 0.042087 0.022613 0.079014 0.188310 0.275913 0.191399 0.190214 0.121062 0.059245 0.026528 0.057630 0.057630 0.082968 0.090166 0.039372 0.036635 0.051099 0.044781 0.052743 0.069729 0.074709 0.075636 0.093716 0.081756 0.054052 0.059567 0.123537 0.035259 0.032489 0.035259 0.035259 0.069729 0.064365 0.030047 0.051428 0.051428 0.046455 0.067215 0.079014 0.079014 0.079014 0.081756 0.069102 0.043773 0.044781 0.037664 0.046455 0.062134 0.051757 0.038348 0.035259 0.044781 0.041749 0.041749 0.044781 0.035259 0.044781 0.055358 0.048452 0.059567 0.071604 0.070668 0.075636 0.062773 0.052743 0.052743 0.048452 0.048784 0.072849 0.072849 0.051757 0.055358 0.055358 0.048452 0.059567 0.071604 0.076867 0.082666 0.076867 0.096066 0.066899 0.106474 0.150650 0.096066 0.057630 0.088976 0.091057 0.067845 0.087482
0.087482 0.077175 0.068160 0.067845 0.069102 0.062134 0.048784 0.048452 0.040732 0.032489 0.026882 0.036635 0.051099 0.068160 0.076867 0.079625 0.096066 0.070668 0.060532 0.052414 0.064365 0.055358 0.059245 0.075636 0.067215 0.041749 0.037664 0.043773 0.039372 0.046455 0.068160 0.077175 0.051428 0.036292 0.029697 0.036292 0.030047 0.043773 0.043773 0.043773 0.032837 0.035259 0.068160 0.077175 0.088976 0.108752 0.100725 0.088976 0.110734 0.144939 0.167369 0.163371 0.128444 0.116627 0.086584 0.076867 0.108752 0.097236 0.087482 0.103322 0.098693 0.100725 0.078095 0.069102 0.087482 0.096066 0.086584 0.076867 0.096066 0.106188 0.096066 0.086284 0.086584 0.087482 0.086584 0.086284 0.068160 0.076867 0.097236 0.081756 0.082968 0.088976 0.087482 0.059567 0.077175 0.087482 0.068160 0.068160 0.077175 0.078095 0.081756 0.072849 0.062134 0.070668 0.079625 0.088976 0.068160 0.069102 0.088976 0.086584 0.077175 0.068160 0.060532 0.072849 0.091649 0.110169 0.109886 0.064365 0.075636 0.088976 0.096359 0.084479 0.057630 0.042087 0.044781 0.048452 0.044781 0.062134 0.062134 0.038348 0.035259 0.051757 0.052743 0.045786 0.046455 0.046455 0.052743 0.042087 0.035604 0.038348 0.048784 0.062134 0.079625 0.077175 0.069102 0.108752 0.123537 0.121062 0.194469 0.218834 0.151938 0.104184 0.067215 0.013906 0.023685 0.031096 0.015373 0.004956 0.003820 0.009463 0.110734 0.173059 0.093716 0.007593 0.004956 0.006842 0.004956 0.003059 0.003059 0.001916 0.001916 0.001916 0.001916 0.000768 0.001534 0.001534 0.000768 0.000000 0.000384 0.000768 0.000768 0.000000 0.000000 0.000000 0.000000 0.000000 0.000000 0.000384 0.001916 0.004956 0.013538 0.051099 0.074709 0.066899 0.062134 0.124085 0.079014 0.046455 0.100725 0.158831 0.173797 0.155014 0.106474 0.054052 0.032837 0.019375 0.006466 0.087482 0.116905 0.062773 0.051757 0.055358 0.059567 0.069729 0.056982 0.063092 0.084479 0.075636 0.098693 0.086584 0.079625 0.069102 0.087482 0.119127 0.090166 0.084479 0.032837 0.044781 0.063092 0.048452 0.026882 0.043773 0.070668 0.079014 0.093716 0.098693 0.079625 0.052414 0.036635 0.037664 0.044781 0.039372 0.042087 0.048452 0.038348 0.048452 0.055358 0.048452 0.052743 0.052743 0.042087 0.046455 0.048452 0.044781 0.059245 0.079014 0.070668 0.059567 0.055358 0.059245 0.064365 0.062134 0.048784 0.055358 0.059567 0.059567 0.064365 0.057630 0.063092 0.090166 0.098111 0.101014 0.106474 0.128715 0.169356 0.116905 0.116627 0.064365 0.107330 0.190688 0.087482 0.046455 0.079014
0.106474 0.106474 0.077175 0.068160 0.077175 0.059567 0.052414 0.054052 0.041749 0.031096 0.029346 0.032837 0.037664 0.044781 0.051428 0.059245 0.078095 0.059567 0.079625 0.079625 0.079625 0.079014 0.082968 0.051757 0.036635 0.043437 0.048784 0.051757 0.054052 0.044781 0.044781 0.059245 0.051428 0.043437 0.036292 0.030047 0.029697 0.036635 0.036292 0.030047 0.035604 0.069102 0.087482 0.097236 0.087482 0.087482 0.086584 0.096359 0.142582 0.165124 0.150650 0.116627 0.096359 0.117740 0.096359 0.054052 0.086584 0.116905 0.076867 0.086584 0.107330 0.108752 0.098693 0.091649 0.114392 0.114392 0.096066 0.093716 0.100725 0.103322 0.096359 0.100725 0.116348 0.105044 0.082968 0.096944 0.078095 0.096944 0.123537 0.126542 0.117740 0.112426 0.082968 0.087482 0.101014 0.084479 0.075636 0.072849 0.087781 0.096944 0.100725 0.082968 0.070668 0.087781 0.096944 0.082968 0.067215 0.096944 0.084479 0.075636 0.070668 0.062134 0.081756 0.091057 0.108752 0.119957 0.042087 0.048452 0.064365 0.069729 0.075636 0.059567 0.035259 0.051428 0.044781 0.042087 0.026882 0.051757 0.069102 0.048784 0.026882 0.055358 0.070668 0.052743 0.057630 0.079319 0.059567 0.048452 0.055358 0.052743 0.051428 0.066899 0.075636 0.062134 0.059567 0.068160 0.064365 0.079014 0.151165 0.190688 0.123537 0.149875 0.107330 0.009835 0.000384 0.003820 0.003820 0.003440 0.006466 0.006466 0.013906 0.060532 0.006466 0.006466 0.003440 0.001534 0.001916 0.001534 0.001916 0.000384 0.000768 0.000384 0.000768 0.000384 0.000384 0.000384 0.000384 0.000000 0.000000 0.000000 0.000384 0.000384 0.000000 0.000000 0.000000 0.000000 0.000000 0.000768 0.003440 0.000000 0.001916 0.077175 0.110734 0.067215 0.071604 0.052743 0.046455 0.070668 0.088976 0.045786 0.148841 0.165124 0.140477 0.087781 0.075636 0.051428 0.086584 0.106474 0.119957 0.075636 0.076867 0.076867 0.090166 0.069729 0.045786 0.046455 0.042087 0.036292 0.032489 0.127630 0.113270 0.110734 0.101014 0.079014 0.044781 0.027235 0.036292 0.069729 0.071604 0.062773 0.056333 0.059567 0.063092 0.054052 0.098693 0.110169 0.087781 0.067215 0.048784 0.035259 0.048452 0.051428 0.051428 0.063092 0.056982 0.063092 0.082666 0.092536 0.069729 0.057630 0.048452 0.046455 0.051428 0.051428 0.043437 0.052414 0.062134 0.056333 0.062773 0.066899 0.066899 0.064365 0.069729 0.075636 0.075636 0.075636 0.098111 0.109886 0.096944 0.100725 0.133832 0.109886 0.116348 0.091057 0.106474 0.096066 0.052743 0.098693 0.172813 0.127630 0.072849 0.108752 0.165874
0.086584 0.076867 0.086584 0.086584 0.067845 0.068160 0.059567 0.054052 0.054052 0.035259 0.022613 0.021537 0.019736 0.026882 0.031096 0.036292 0.036292 0.062134 0.072849 0.069102 0.088976 0.067215 0.037664 0.036635 0.044781 0.067215 0.060532 0.037664 0.032837 0.031096 0.039372 0.037664 0.043773 0.044781 0.044781 0.030047 0.029697 0.023685 0.029697 0.025110 0.041749 0.107330 0.106188 0.076867 0.086584 0.096359 0.086584 0.119127 0.138626 0.116627 0.119127 0.129797 0.108752 0.117740 0.087781 0.087781 0.127630 0.106474 0.107330 0.130067 0.138626 0.119957 0.116627 0.116627 0.096066 0.097236 0.059245 0.043437 0.097236 0.078095 0.086584 0.138361 0.127358 0.100725 0.072849 0.043437 0.069102 0.107330 0.100725 0.170099 0.161359 0.052743 0.063092 0.112426 0.088976 0.082666 0.067215 0.101014 0.136236 0.121062 0.109886 0.084479 0.103034 0.104184 0.115231 0.096066 0.084479 0.082968 0.084479 0.079014 0.067215 0.084479 0.079014 0.064365 0.110734 0.086584 0.051099 0.044781 0.032837 0.074709 0.064365 0.027235 0.048784 0.036635 0.026882 0.026882 0.038348 0.071604 0.056333 0.041749 0.048784 0.079014 0.059567 0.062773 0.084479 0.057630 0.056333 0.062773 0.066899 0.062773 0.064365 0.069102 0.064365 0.051757 0.039372 0.060532 0.067845 0.059567 0.086284 0.208173 0.229503 0.155014 0.084479 0.007593 0.001916 0.003440 0.003820 0.003440 0.006466 0.006466 0.007593 0.006466 0.003059 0.003820 0.003820 0.001916 0.001916 0.001916 0.001534 0.000384 0.000768 0.000384 0.000384 0.000384 0.000000 0.000384 0.000384 0.000000 0.000000 0.000384 0.000768 0.000000 0.000000 0.000000 0.000000 0.000000 0.000384 0.000768 0.000384 0.000768 0.015373 0.048452 0.116905 0.116627 0.026882 0.032837 0.042087 0.057630 0.103034 0.082059 0.110734 0.114392 0.119127 0.077175 0.056333 0.052414 0.069102 0.110169 0.069729 0.087482 0.096066 0.071604 0.059567 0.042087 0.035604 0.031096 0.032489 0.027235 0.048784 0.075636 0.100725 0.059245 0.051428 0.074709 0.051428 0.042087 0.056982 0.069729 0.096359 0.090166 0.082968 0.109886 0.096944 0.068160 0.022613 0.072849 0.114392 0.087482 0.069729 0.064365 0.059567 0.091649 0.096066 0.090166 0.064365 0.059567 0.074709 0.112426 0.121062 0.084479 0.070668 0.070668 0.054052 0.044781 0.043773 0.043773 0.051757 0.051428 0.096066 0.121062 0.103034 0.096359 0.101014 0.119127 0.115231 0.114392 0.147804 0.188310 0.196818 0.155014 0.164123 0.159338 0.106474 0.069102 0.056333 0.044781 0.066899 0.101014 0.140477 0.138626 0.129797 0.173305 0.184722
0.086284 0.086284 0.086284 0.077175 0.076867 0.067845 0.067845 0.069102 0.046455 0.032837 0.021537 0.012062 0.012801 0.024042 0.026882 0.036635 0.043773 0.070668 0.056333 0.044781 0.044781 0.043437 0.035259 0.059245 0.048784 0.039372 0.030047 0.036635 0.031096 0.032837 0.026882 0.018651 0.023685 0.029697 0.037664 0.032837 0.024042 0.030047 0.023685 0.022613 0.059567 0.106188 0.106474 0.087482 0.096359 0.086584 0.106474 0.119127 0.108752 0.123537 0.123537 0.121062 0.113270 0.088976 0.064365 0.097236 0.142582 0.150650 0.161106 0.165124 0.116348 0.051428 0.063092 0.133028 0.157308 0.157308 0.190688 0.133028 0.148841 0.171088 0.138626 0.127358 0.149875 0.110734 0.139420 0.204493 0.114392 0.075636 0.082059 0.170099 0.227298 0.170099 0.106474 0.084479 0.069102 0.030047 0.059567 0.138361 0.100725 0.060532 0.069102 0.106188 0.091649 0.076867 0.096359 0.079319 0.066899 0.062773 0.087482 0.082968 0.070668 0.082968 0.075636 0.075636 0.081756 0.069102 0.064365 0.030047 0.067215 0.091057 0.031096 0.021537 0.027235 0.029346 0.062773 0.051757 0.084479 0.069102 0.063092 0.046455 0.044781 0.067845 0.060532 0.056333 0.066899 0.055358 0.063092 0.055358 0.070668 0.070668 0.074709 0.069729 0.063092 0.045786 0.052743 0.055358 0.052414 0.069102 0.059567 0.236065 0.300707 0.147804 0.059245 0.003820 0.003820 0.003820 0.003820 0.003820 0.004956 0.004956 0.006842 0.007593 0.003820 0.006842 0.003820 0.001916 0.001916 0.000768 0.000768 0.001534 0.000768 0.000000 0.000768 0.000384 0.000000 0.000768 0.000384 0.000000 0.000000 0.000384 0.000384 0.000000 0.000000 0.000000 0.000000 0.000000 0.000768 0.000384 0.000768 0.006466 0.026882 0.039372 0.054052 0.103322 0.081756 0.048452 0.062773 0.090166 0.036292 0.046455 0.114392 0.059245 0.062134 0.086284 0.051428 0.070668 0.093716 0.069729 0.069729 0.069729 0.066899 0.051757 0.051757 0.055358 0.036292 0.035604 0.045786 0.040732 0.052743 0.044781 0.024042 0.027235 0.069102 0.084479 0.088976 0.071604 0.096066 0.125724 0.127358 0.066899 0.059567 0.076867 0.052743 0.059567 0.059567 0.024042 0.043773 0.056333 0.040732 0.066899 0.042087 0.032489 0.048452 0.068160 0.043773 0.019736 0.015007 0.044781 0.123537 0.119957 0.076867 0.104184 0.134100 0.098111 0.076867 0.051428 0.075636 0.097236 0.075636 0.141268 0.148841 0.119127 0.140477 0.153735 0.133832 0.103322 0.098693 0.106474 0.109886 0.115231 0.090166 0.110169 0.119127 0.097236 0.124085 0.155014 0.157308 0.173305 0.156799 0.115231 0.153735 0.165874 0.153735
0.086584 0.076867 0.077175 0.086584 0.077175 0.068160 0.076867 0.076867 0.060532 0.031096 0.015007 0.010951 0.015373 0.022613 0.022613 0.026882 0.048784 0.041749 0.043437 0.043773 0.041749 0.054052 0.054052 0.046455 0.039372 0.032837 0.025110 0.031096 0.031096 0.030047 0.024042 0.025110 0.024042 0.023685 0.019736 0.026882 0.029697 0.023685 0.019375 0.029697 0.078095 0.106188 0.087482 0.078095 0.097236 0.098693 0.072849 0.114392 0.134100 0.110169 0.134100 0.134100 0.119127 0.129797 0.087482 0.084479 0.175023 0.153735 0.095773 0.151938 0.184722 0.157308 0.103034 0.088976 0.148841 0.133028 0.117740 0.168115 0.182798 0.170099 0.149875 0.161359 0.190214 0.214776 0.096359 0.110734 0.173797 0.112426 0.123537 0.184962 0.170099 0.148841 0.103034 0.076867 0.115231 0.096359 0.075636 0.095773 0.140741 0.139420 0.116348 0.165874 0.151165 0.116348 0.076867 0.043773 0.044781 0.087781 0.091057 0.052414 0.067215 0.082968 0.056333 0.059245 0.079625 0.096944 0.038348 0.046455 0.079014 0.036635 0.036292 0.056333 0.062773 0.046455 0.051428 0.069729 0.104184 0.076867 0.059245 0.036292 0.045786 0.055358 0.079625 0.103322 0.079625 0.051757 0.035259 0.063092 0.084479 0.079014 0.079014 0.066899 0.071604 0.071604 0.071604 0.036292 0.041749 0.052414 0.096359 0.232356 0.259893 0.163371 0.051428 0.000000 0.006089 0.003820 0.003440 0.001916 0.003820 0.004956 0.003059 0.006466 0.003820 0.003820 0.000768 0.001916 0.001916 0.001534 0.000768 0.000384 0.000384 0.000384 0.000768 0.000000 0.000384 0.000768 0.000000 0.000000 0.000000 0.000384 0.000384 0.000000 0.000000 0.000000 0.000000 0.000384 0.000768 0.000384 0.000384 0.003440 0.032837 0.039372 0.048784 0.129797 0.117740 0.064365 0.084479 0.076867 0.038348 0.088976 0.057630 0.056333 0.079014 0.064365 0.081756 0.096944 0.093716 0.064365 0.051428 0.057630 0.064365 0.048452 0.059245 0.052743 0.036292 0.051428 0.063092 0.055358 0.044781 0.040732 0.052743 0.069729 0.082666 0.098111 0.071604 0.048452 0.076867 0.088976 0.051428 0.044781 0.052743 0.057630 0.046455 0.035259 0.043437 0.043437 0.031096 0.036292 0.016834 0.019375 0.051757 0.052743 0.106474 0.124358 0.082059 0.079319 0.082968 0.072849 0.031096 0.046455 0.027235 0.031096 0.105044 0.128715 0.103034 0.062773 0.039372 0.051428 0.031096 0.038348 0.044781 0.031096 0.026528 0.055358 0.064365 0.030047 0.015007 0.035259 0.048784 0.059567 0.103034 0.110169 0.169356 0.241043 0.211599 0.173797 0.165124 0.148841 0.110169 0.133028 0.151938 0.114392 0.091057
0.106474 0.086584 0.077175 0.077175 0.076867 0.076867 0.076867 0.087482 0.060532 0.031096 0.021537 0.016834 0.019375 0.016834 0.016834 0.022613 0.016834 0.016834 0.032489 0.048784 0.046455 0.044781 0.054052 0.046455 0.037664 0.030047 0.030047 0.031096 0.025110 0.025110 0.031096 0.030047 0.023685 0.024042 0.019736 0.024042 0.030047 0.015007 0.029346 0.067845 0.059567 0.069102 0.091057 0.091057 0.093716 0.082968 0.084479 0.091649 0.143631 0.156035 0.142582 0.139420 0.127630 0.138626 0.138626 0.106474 0.071604 0.151165 0.148841 0.166124 0.198923 0.149875 0.125724 0.095773 0.084479 0.139420 0.110734 0.127358 0.212963 0.179896 0.069729 0.155014 0.158831 0.175268 0.181107 0.106474 0.108752 0.142582 0.163371 0.139420 0.114392 0.109886 0.145461 0.103322 0.066899 0.082968 0.076867 0.075636 0.108752 0.151938 0.096066 0.100725 0.103322 0.149100 0.148841 0.091649 0.103322 0.069102 0.041749 0.081756 0.106474 0.062134 0.054052 0.059567 0.086584 0.091057 0.037664 0.037664 0.043773 0.037664 0.052414 0.062134 0.024042 0.037664 0.075636 0.075636 0.064365 0.055358 0.042087 0.059567 0.071604 0.076867 0.082666 0.054052 0.054052 0.054052 0.072849 0.087781 0.052743 0.059567 0.059245 0.074709 0.076867 0.079319 0.056333 0.032837 0.036292 0.044781 0.107330 0.211143 0.247042 0.162114 0.030047 0.003440 0.001916 0.003440 0.003820 0.001916 0.001916 0.003059 0.001916 0.003820 0.003440 0.001916 0.001916 0.003059 0.000768 0.000768 0.000384 0.000768 0.000384 0.000384 0.000384 0.000000 0.000384 0.000384 0.000000 0.000000 0.000000 0.000768 0.000384 0.000000 0.000000 0.000000 0.000000 0.000768 0.000384 0.000768 0.000768 0.029346 0.055358 0.064365 0.076867 0.101014 0.128444 0.110169 0.090166 0.051428 0.046455 0.082666 0.051428 0.082666 0.090166 0.087482 0.098111 0.087781 0.072849 0.072849 0.064365 0.059567 0.044781 0.040732 0.056333 0.059245 0.042087 0.055358 0.059567 0.040732 0.062773 0.079319 0.076867 0.082666 0.075636 0.059567 0.026882 0.035259 0.064365 0.067215 0.051757 0.045786 0.046455 0.045786 0.036292 0.021537 0.018651 0.043437 0.055358 0.064365 0.048452 0.079014 0.084479 0.082666 0.110169 0.101014 0.087482 0.082666 0.082968 0.088976 0.097236 0.074709 0.056982 0.064365 0.082666 0.042087 0.032837 0.043437 0.029346 0.087482 0.149100 0.133832 0.110734 0.084479 0.091649 0.118850 0.140741 0.112426 0.114392 0.134100 0.155014 0.217260 0.232137 0.241043 0.242764 0.211599 0.191399 0.161359 0.127358 0.092536 0.101014 0.115231 0.092536 0.070668 0.075636
0.086584 0.077175 0.076867 0.077175 0.067845 0.068160 0.096066 0.097236 0.059245 0.036635 0.019736 0.015007 0.010951 0.012801 0.021537 0.016834 0.010951 0.026528 0.022613 0.024042 0.035259 0.041749 0.046455 0.036635 0.030047 0.031096 0.037664 0.030047 0.030047 0.025110 0.025110 0.024042 0.023685 0.018651 0.025110 0.024042 0.019736 0.022613 0.041749 0.072849 0.064365 0.064365 0.075636 0.079014 0.092536 0.090166 0.087482 0.093716 0.138626 0.163371 0.165124 0.185681 0.153735 0.108752 0.115231 0.087482 0.117740 0.133832 0.148841 0.125724 0.175268 0.192109 0.148841 0.118850 0.106474 0.075636 0.144417 0.149875 0.196818 0.197755 0.128715 0.124358 0.185442 0.178926 0.151938 0.178926 0.129797 0.096066 0.151165 0.140477 0.105044 0.100725 0.119127 0.136236 0.104184 0.069729 0.064365 0.107330 0.149617 0.138626 0.096066 0.096359 0.069102 0.068160 0.123537 0.091649 0.100725 0.100725 0.072849 0.077175 0.072849 0.056333 0.070668 0.069102 0.051428 0.081756 0.081756 0.068160 0.067845 0.043773 0.043437 0.031096 0.043773 0.091649 0.054052 0.036635 0.076867 0.068160 0.036635 0.052414 0.032837 0.032837 0.048452 0.052743 0.091649 0.062773 0.071604 0.056333 0.072849 0.064365 0.051428 0.052743 0.051428 0.057630 0.035259 0.044781 0.039372 0.036292 0.110734 0.185681 0.205185 0.190688 0.082059 0.000384 0.000768 0.000384 0.001916 0.001916 0.003059 0.003059 0.001916 0.001534 0.003440 0.001534 0.001916 0.001916 0.000768 0.000768 0.000768 0.000768 0.000000 0.000768 0.000384 0.000000 0.000768 0.000384 0.000000 0.000000 0.000384 0.000768 0.000000 0.000000 0.000000 0.000000 0.000384 0.000768 0.000768 0.000384 0.010951 0.048452 0.074709 0.079319 0.071604 0.084479 0.106474 0.121062 0.079014 0.056982 0.082059 0.088976 0.082666 0.117740 0.090166 0.103034 0.103034 0.069102 0.082968 0.074709 0.059245 0.048784 0.051757 0.046455 0.052743 0.059245 0.042087 0.048452 0.051757 0.051757 0.075636 0.079319 0.063092 0.063092 0.052743 0.031096 0.042087 0.069729 0.079319 0.070668 0.051757 0.035259 0.027235 0.024042 0.019375 0.012801 0.019375 0.041749 0.054052 0.046455 0.051428 0.076867 0.076867 0.082666 0.071604 0.071604 0.082968 0.082968 0.075636 0.091649 0.110734 0.108752 0.075636 0.090166 0.121062 0.109886 0.116348 0.082968 0.096359 0.157308 0.168115 0.134100 0.124085 0.131685 0.147804 0.159085 0.151938 0.139420 0.133832 0.159085 0.212736 0.221745 0.216358 0.218834 0.185681 0.166124 0.138626 0.114392 0.067215 0.060532 0.072849 0.079625 0.069102 0.060532 0.069102
0.068160 0.078095 0.078095 0.078095 0.077175 0.078095 0.106188 0.087482 0.052414 0.046455 0.025110 0.013906 0.018651 0.018651 0.015007 0.012801 0.015007 0.019736 0.016834 0.027235 0.031096 0.029346 0.032837 0.030047 0.036635 0.037664 0.030047 0.030047 0.030047 0.024042 0.025110 0.018651 0.018651 0.013906 0.018651 0.019736 0.012801 0.018651 0.044781 0.079014 0.070668 0.070668 0.079014 0.062773 0.062773 0.091649 0.113270 0.156035 0.151165 0.134100 0.150650 0.142582 0.149100 0.157308 0.153735 0.181107 0.105044 0.075636 0.110734 0.127358 0.121062 0.141268 0.168115 0.170099 0.110734 0.091057 0.092536 0.197755 0.223750 0.149875 0.158831 0.158831 0.263837 0.235630 0.169356 0.173305 0.157308 0.130067 0.188310 0.148841 0.124358 0.118850 0.096359 0.118850 0.118850 0.114392 0.117740 0.117740 0.138626 0.149875 0.096066 0.077175 0.078095 0.086584 0.072849 0.067215 0.098693 0.100725 0.088976 0.079625 0.081756 0.068160 0.068160 0.076867 0.069102 0.062134 0.059567 0.070668 0.046455 0.039372 0.077175 0.068160 0.070668 0.056333 0.016834 0.043437 0.078095 0.051428 0.037664 0.031096 0.031096 0.086584 0.086584 0.056982 0.055358 0.062134 0.066899 0.051757 0.067845 0.054052 0.018651 0.018651 0.029697 0.040732 0.032489 0.035259 0.054052 0.051757 0.082968 0.098693 0.096359 0.113270 0.134100 0.036292 0.000384 0.000384 0.001534 0.000768 0.000768 0.003059 0.001916 0.001534 0.001534 0.001534 0.001916 0.000768 0.000384 0.000768 0.000768 0.000000 0.000768 0.000768 0.000000 0.000384 0.000768 0.000000 0.000000 0.000000 0.000768 0.000384 0.000000 0.000000 0.000000 0.000000 0.000384 0.001534 0.000768 0.001534 0.026528 0.079319 0.084479 0.076867 0.090166 0.096359 0.101014 0.100725 0.108752 0.092536 0.082059 0.075636 0.104184 0.064365 0.062773 0.090166 0.062773 0.048452 0.069729 0.066899 0.048452 0.051757 0.070668 0.044781 0.052743 0.048784 0.041749 0.052743 0.052743 0.074709 0.087482 0.046455 0.036292 0.057630 0.040732 0.046455 0.069729 0.069729 0.057630 0.041749 0.031096 0.023685 0.018289 0.018651 0.018289 0.009463 0.015007 0.016834 0.018651 0.031096 0.038348 0.044781 0.038348 0.022613 0.035259 0.072849 0.074709 0.062134 0.081756 0.055358 0.044781 0.054052 0.072849 0.090166 0.103034 0.104184 0.082968 0.106474 0.130067 0.166124 0.148841 0.110734 0.082059 0.079319 0.082968 0.092536 0.110169 0.121062 0.115231 0.149875 0.175268 0.177709 0.173305 0.140741 0.124358 0.071604 0.066899 0.079625 0.037664 0.059245 0.086584 0.067845 0.059567 0.059567 0.068160
0.068160 0.068160 0.077175 0.086584 0.069102 0.078095 0.096359 0.081756 0.054052 0.041749 0.038348 0.024042 0.019736 0.025110 0.029697 0.013906 0.007593 0.018651 0.025110 0.029346 0.021537 0.022613 0.019375 0.019736 0.031096 0.030047 0.024042 0.030047 0.023685 0.024042 0.018651 0.013538 0.013906 0.018651 0.013906 0.012801 0.012062 0.012801 0.032837 0.062134 0.062134 0.062134 0.072849 0.075636 0.064365 0.075636 0.096944 0.092536 0.158831 0.258016 0.258224 0.156799 0.128715 0.170099 0.174778 0.136236 0.133028 0.098111 0.087482 0.115231 0.114392 0.114392 0.140477 0.136236 0.133832 0.105044 0.069102 0.145461 0.187595 0.161359 0.118850 0.173305 0.252767 0.204493 0.161359 0.181832 0.234977 0.192346 0.190688 0.173797 0.090166 0.118850 0.110169 0.096944 0.110734 0.139420 0.138626 0.116905 0.139420 0.149875 0.098693 0.077175 0.072849 0.054052 0.064365 0.087482 0.097236 0.093716 0.081756 0.072849 0.088976 0.098693 0.077175 0.077175 0.078095 0.068160 0.079625 0.036635 0.072849 0.076867 0.032837 0.070668 0.069102 0.052414 0.029346 0.035259 0.072849 0.036635 0.059567 0.051428 0.013906 0.056333 0.087482 0.079625 0.032837 0.059567 0.067845 0.015373 0.054052 0.054052 0.015007 0.015007 0.070668 0.086584 0.013906 0.015007 0.032489 0.046455 0.069102 0.130067 0.139420 0.109886 0.100725 0.023685 0.000384 0.000384 0.000768 0.000768 0.000768 0.000768 0.001916 0.001534 0.001534 0.001534 0.001534 0.000384 0.000768 0.000768 0.000000 0.000768 0.000768 0.000000 0.000000 0.000768 0.000384 0.000000 0.000000 0.000384 0.000768 0.000000 0.000000 0.000000 0.000000 0.000000 0.000384 0.001534 0.000384 0.012801 0.069729 0.090166 0.098111 0.098111 0.104184 0.095773 0.082666 0.074709 0.130067 0.100725 0.082666 0.081756 0.048452 0.031096 0.096944 0.070668 0.038348 0.070668 0.096066 0.052743 0.048452 0.059567 0.048784 0.044781 0.035259 0.030047 0.052414 0.062134 0.051757 0.059245 0.052414 0.025110 0.040732 0.042087 0.036292 0.051428 0.042087 0.039372 0.025110 0.018289 0.019736 0.019736 0.026882 0.021537 0.015373 0.012801 0.021537 0.021537 0.013906 0.018651 0.024042 0.031096 0.035259 0.032837 0.043437 0.077175 0.060532 0.044781 0.069102 0.059567 0.041749 0.046455 0.070668 0.087482 0.076867 0.064365 0.069729 0.098111 0.110734 0.125179 0.125724 0.104184 0.063092 0.046455 0.040732 0.063092 0.101014 0.092536 0.082059 0.110734 0.127358 0.125179 0.125179 0.098111 0.052743 0.027235 0.063092 0.056333 0.041749 0.059245 0.069102 0.059567 0.077175 0.076867 0.067845
0.106474 0.076867 0.059567 0.068160 0.070668 0.086284 0.088976 0.072849 0.059245 0.042087 0.036292 0.042087 0.035259 0.031096 0.031096 0.019736 0.013906 0.019736 0.031096 0.026882 0.021537 0.021537 0.015373 0.019375 0.021537 0.018651 0.024042 0.024042 0.023685 0.023685 0.018289 0.018289 0.013538 0.013906 0.012801 0.012062 0.012801 0.015007 0.036635 0.067845 0.059245 0.051428 0.056333 0.054052 0.054052 0.062134 0.082968 0.087482 0.110169 0.166124 0.234977 0.246829 0.171088 0.121062 0.125724 0.109886 0.087781 0.114392 0.082968 0.096944 0.119957 0.106474 0.096066 0.104184 0.106474 0.103034 0.079319 0.116348 0.139420 0.090166 0.116348 0.142582 0.185442 0.209317 0.161359 0.170099 0.185681 0.138626 0.136236 0.187595 0.159338 0.110734 0.117740 0.106188 0.119127 0.149875 0.156035 0.129797 0.116905 0.096359 0.097236 0.069102 0.060532 0.086584 0.077175 0.077175 0.069102 0.078095 0.103322 0.086284 0.086584 0.086584 0.087482 0.069102 0.070668 0.056333 0.081756 0.079319 0.044781 0.124358 0.113270 0.032837 0.054052 0.116348 0.024042 0.055358 0.056333 0.031096 0.039372 0.030047 0.056333 0.064365 0.078095 0.069102 0.032837 0.036635 0.079625 0.067845 0.031096 0.044781 0.054052 0.025110 0.036292 0.013906 0.025110 0.044781 0.062773 0.052743 0.110734 0.145461 0.118850 0.087482 0.057630 0.003440 0.000384 0.000000 0.000768 0.000768 0.000768 0.000768 0.001534 0.001534 0.000384 0.000384 0.000384 0.000384 0.001534 0.000384 0.000768 0.000768 0.000000 0.000000 0.000768 0.000768 0.000000 0.000000 0.000000 0.000384 0.000384 0.000000 0.000000 0.000000 0.000000 0.000000 0.000384 0.001534 0.006466 0.046455 0.079319 0.087482 0.074709 0.084479 0.101014 0.082968 0.063092 0.082666 0.101014 0.100725 0.055358 0.055358 0.069102 0.056982 0.059567 0.059245 0.062773 0.074709 0.054052 0.044781 0.041749 0.042087 0.044781 0.041749 0.019375 0.035259 0.059245 0.062134 0.051099 0.037664 0.043437 0.052414 0.041749 0.032837 0.041749 0.021537 0.009463 0.018651 0.021537 0.015007 0.021537 0.019736 0.016834 0.022613 0.027235 0.015007 0.019375 0.026882 0.018651 0.019736 0.025110 0.019736 0.029346 0.041749 0.062134 0.086584 0.069102 0.060532 0.069102 0.060532 0.060532 0.059245 0.051428 0.048452 0.040732 0.070668 0.079319 0.063092 0.082059 0.115231 0.106474 0.056982 0.042087 0.048452 0.052743 0.063092 0.079319 0.064365 0.067215 0.087781 0.103322 0.093716 0.074709 0.055358 0.031096 0.040732 0.056982 0.052743 0.051757 0.059567 0.041749 0.044781 0.068160 0.070668 0.072849
0.054052 0.051428 0.068160 0.067845 0.077175 0.077175 0.062134 0.067215 0.052743 0.042087 0.038348 0.038348 0.048784 0.039372 0.032837 0.032837 0.024042 0.024042 0.032837 0.032837 0.024042 0.024042 0.027235 0.022613 0.016834 0.019736 0.025110 0.024042 0.018289 0.018289 0.013538 0.013906 0.010951 0.007593 0.006842 0.010951 0.013538 0.018651 0.044781 0.067845 0.069102 0.031096 0.036635 0.077175 0.059245 0.036635 0.043437 0.068160 0.051757 0.079319 0.128715 0.151938 0.130067 0.105044 0.100725 0.121062 0.078095 0.064365 0.093716 0.091057 0.100725 0.091057 0.062773 0.041749 0.044781 0.077175 0.096359 0.076867 0.100725 0.107330 0.106474 0.100725 0.087781 0.155014 0.181591 0.151165 0.176978 0.162114 0.110734 0.139420 0.161359 0.150650 0.151165 0.155014 0.143631 0.181107 0.165124 0.081756 0.096359 0.116905 0.086584 0.076867 0.077175 0.059567 0.059245 0.077175 0.087482 0.064365 0.097236 0.128444 0.077175 0.069102 0.072849 0.079014 0.062134 0.079319 0.059567 0.063092 0.062773 0.096066 0.115231 0.121062 0.051757 0.100725 0.137034 0.059245 0.039372 0.038348 0.051099 0.059567 0.030047 0.041749 0.036635 0.052743 0.062773 0.059567 0.059567 0.067845 0.068160 0.032837 0.013538 0.046455 0.044781 0.026528 0.038348 0.087482 0.060532 0.051428 0.103034 0.110169 0.092536 0.059245 0.029346 0.000000 0.000384 0.000000 0.000000 0.000768 0.000768 0.001534 0.000384 0.000768 0.000768 0.000384 0.000384 0.000768 0.000768 0.000384 0.000384 0.000000 0.000384 0.000768 0.000768 0.000000 0.000000 0.000000 0.000000 0.000384 0.000384 0.000000 0.000000 0.000000 0.000384 0.000384 0.000768 0.003440 0.029346 0.066899 0.066899 0.062773 0.084479 0.100725 0.062773 0.056333 0.067215 0.070668 0.070668 0.070668 0.075636 0.075636 0.035259 0.048784 0.066899 0.052414 0.048784 0.039372 0.062134 0.048784 0.051757 0.038348 0.038348 0.052414 0.038348 0.052743 0.059567 0.040732 0.039372 0.052414 0.052414 0.052414 0.029697 0.029697 0.023685 0.007593 0.010951 0.019736 0.021537 0.019736 0.021537 0.024042 0.012801 0.012801 0.025110 0.015007 0.015007 0.039372 0.021537 0.016834 0.026882 0.021537 0.018651 0.037664 0.068160 0.087482 0.087482 0.076867 0.068160 0.060532 0.060532 0.059567 0.046455 0.036292 0.045786 0.064365 0.070668 0.079319 0.088976 0.090166 0.066899 0.052743 0.057630 0.057630 0.055358 0.057630 0.057630 0.051757 0.064365 0.070668 0.077175 0.086284 0.077175 0.060532 0.032837 0.036292 0.038348 0.032489 0.037664 0.043773 0.029697 0.023685 0.039372 0.062773 0.071604
0.036635 0.043773 0.069102 0.068160 0.059567 0.072849 0.056333 0.048452 0.055358 0.051757 0.035259 0.039372 0.044781 0.037664 0.030047 0.043773 0.037664 0.030047 0.048784 0.035259 0.029346 0.036292 0.035604 0.022613 0.024042 0.021537 0.019736 0.018289 0.018651 0.013906 0.009835 0.003820 0.004956 0.004956 0.009835 0.018289 0.024042 0.029346 0.038348 0.039372 0.043773 0.059567 0.060532 0.059245 0.067845 0.060532 0.054052 0.035259 0.037664 0.070668 0.069102 0.087482 0.106188 0.106474 0.116627 0.106188 0.077175 0.068160 0.068160 0.096066 0.106188 0.077175 0.077175 0.078095 0.064365 0.070668 0.072849 0.078095 0.091057 0.088976 0.088976 0.086584 0.108752 0.140741 0.127358 0.139420 0.162114 0.163371 0.202643 0.229503 0.159338 0.196818 0.218160 0.181107 0.153735 0.121062 0.100725 0.100725 0.091057 0.097236 0.086584 0.068160 0.052414 0.077175 0.097236 0.098693 0.096359 0.077175 0.078095 0.078095 0.054052 0.051757 0.059245 0.101014 0.082666 0.071604 0.110169 0.092536 0.062773 0.074709 0.091649 0.082968 0.100725 0.098693 0.063092 0.087482 0.062773 0.066899 0.070668 0.041749 0.042087 0.046455 0.054052 0.030047 0.097236 0.096066 0.067845 0.069102 0.037664 0.037664 0.056333 0.048452 0.030047 0.042087 0.052743 0.040732 0.056333 0.110734 0.074709 0.092536 0.079319 0.046455 0.009463 0.000768 0.000384 0.000000 0.000000 0.000000 0.000384 0.000768 0.000768 0.000384 0.001534 0.001534 0.000384 0.000384 0.000000 0.000384 0.000384 0.000768 0.000768 0.000384 0.000000 0.000000 0.000000 0.000000 0.000000 0.000768 0.000384 0.000000 0.000000 0.000768 0.000768 0.000384 0.000384 0.010951 0.055358 0.062773 0.062773 0.062773 0.079014 0.072849 0.056333 0.070668 0.056333 0.060532 0.051428 0.086584 0.106474 0.037664 0.032489 0.059245 0.029697 0.038348 0.062134 0.059245 0.067215 0.054052 0.048784 0.031096 0.032489 0.039372 0.048784 0.051757 0.059245 0.035259 0.027235 0.031096 0.044781 0.036635 0.024042 0.029697 0.025110 0.010951 0.009835 0.016834 0.019736 0.015007 0.012801 0.021537 0.019736 0.019736 0.024042 0.015007 0.009463 0.019736 0.024042 0.019736 0.025110 0.032837 0.030047 0.036292 0.059567 0.077175 0.087482 0.087482 0.086584 0.068160 0.051099 0.059245 0.068160 0.046455 0.042087 0.064365 0.074709 0.082968 0.079319 0.071604 0.066899 0.052743 0.046455 0.046455 0.046455 0.052743 0.051428 0.046455 0.051757 0.054052 0.069102 0.086284 0.076867 0.059567 0.046455 0.030047 0.025110 0.021537 0.024042 0.042087 0.042087 0.036292 0.040732 0.051428 0.063092
0.054052 0.062134 0.054052 0.043773 0.052414 0.054052 0.048784 0.048784 0.046455 0.051757 0.048784 0.044781 0.052414 0.043437 0.036635 0.051428 0.037664 0.039372 0.054052 0.032837 0.038348 0.048452 0.031096 0.027235 0.024042 0.015007 0.015007 0.013906 0.018651 0.015007 0.012801 0.009463 0.004956 0.006466 0.009463 0.018651 0.037664 0.048784 0.048452 0.044781 0.044781 0.041749 0.046455 0.060532 0.077175 0.059567 0.059567 0.064365 0.048452 0.064365 0.106474 0.100725 0.079014 0.093716 0.108752 0.106188 0.086284 0.076867 0.079625 0.077175 0.086284 0.078095 0.077175 0.078095 0.078095 0.077175 0.059567 0.077175 0.106188 0.096359 0.067845 0.096359 0.117740 0.107330 0.117740 0.116905 0.150650 0.234323 0.295438 0.193291 0.139420 0.196349 0.175023 0.123537 0.098693 0.097236 0.086584 0.076867 0.078095 0.086284 0.078095 0.087482 0.076867 0.059245 0.077175 0.068160 0.052414 0.075636 0.093716 0.087781 0.062773 0.066899 0.052743 0.051428 0.090166 0.075636 0.104184 0.127358 0.092536 0.082968 0.096944 0.093716 0.078095 0.075636 0.084479 0.077175 0.048784 0.051428 0.079625 0.036635 0.037664 0.067215 0.054052 0.059567 0.067215 0.076867 0.043437 0.054052 0.092536 0.077175 0.068160 0.024042 0.046455 0.059245 0.057630 0.088976 0.082666 0.066899 0.097236 0.113270 0.051428 0.015373 0.000384 0.000384 0.000000 0.000000 0.000000 0.000384 0.000384 0.000384 0.001534 0.000384 0.000384 0.000768 0.000768 0.000384 0.000768 0.000768 0.000384 0.000384 0.000000 0.000000 0.000000 0.000000 0.000000 0.000000 0.000768 0.000768 0.000000 0.000000 0.000768 0.000768 0.000000 0.000000 0.001916 0.036292 0.071604 0.066899 0.062773 0.059245 0.067215 0.070668 0.070668 0.054052 0.030047 0.037664 0.051099 0.068160 0.077175 0.076867 0.051428 0.015007 0.051428 0.087781 0.046455 0.054052 0.044781 0.037664 0.036635 0.036292 0.036292 0.048784 0.046455 0.044781 0.037664 0.023685 0.024042 0.030047 0.029697 0.031096 0.036635 0.025110 0.016834 0.010951 0.007593 0.015007 0.025110 0.019375 0.015007 0.025110 0.015007 0.015007 0.024042 0.019736 0.013906 0.015007 0.024042 0.023685 0.018651 0.024042 0.037664 0.039372 0.060532 0.078095 0.078095 0.087482 0.078095 0.070668 0.069102 0.068160 0.069102 0.060532 0.059567 0.056333 0.059245 0.072849 0.064365 0.056333 0.048784 0.039372 0.044781 0.044781 0.042087 0.045786 0.040732 0.040732 0.046455 0.051757 0.056333 0.069102 0.068160 0.039372 0.042087 0.046455 0.035604 0.036292 0.040732 0.046455 0.056982 0.046455 0.051428 0.063092 0.063092
0.044781 0.048784 0.051428 0.030047 0.030047 0.051428 0.044781 0.044781 0.037664 0.037664 0.052414 0.051099 0.059245 0.043773 0.036292 0.068160 0.052414 0.039372 0.046455 0.048784 0.051757 0.035259 0.026882 0.026528 0.012801 0.015007 0.015007 0.013906 0.013906 0.016834 0.012801 0.012062 0.012801 0.010951 0.018651 0.031096 0.048784 0.056333 0.044781 0.038348 0.044781 0.051757 0.055358 0.051757 0.064365 0.060532 0.084479 0.070668 0.041749 0.070668 0.098693 0.086584 0.086584 0.078095 0.068160 0.076867 0.078095 0.096066 0.077175 0.069102 0.079625 0.072849 0.084479 0.082968 0.082968 0.092536 0.079014 0.088976 0.105044 0.105044 0.105044 0.087482 0.110169 0.142582 0.142582 0.139420 0.186878 0.275913 0.259685 0.142582 0.149875 0.185681 0.170099 0.147804 0.096066 0.067845 0.076867 0.106188 0.086284 0.059245 0.069102 0.088976 0.072849 0.069102 0.086584 0.096944 0.060532 0.082666 0.070668 0.079014 0.055358 0.048452 0.059567 0.038348 0.042087 0.044781 0.062773 0.096944 0.106474 0.091057 0.098693 0.108752 0.088976 0.068160 0.086284 0.078095 0.051428 0.059245 0.068160 0.078095 0.067215 0.071604 0.079014 0.059567 0.063092 0.062773 0.046455 0.018651 0.052414 0.129797 0.072849 0.056333 0.067215 0.070668 0.103322 0.076867 0.046455 0.064365 0.055358 0.060532 0.059567 0.018651 0.000384 0.000000 0.000000 0.000000 0.000384 0.000768 0.000384 0.000384 0.000768 0.000768 0.000384 0.000000 0.000384 0.000384 0.000384 0.000000 0.000000 0.000000 0.000000 0.000000 0.000000 0.000384 0.000384 0.000768 0.000768 0.000000 0.000000 0.000768 0.000768 0.000000 0.000000 0.000768 0.015007 0.062773 0.066899 0.048452 0.044781 0.048784 0.056333 0.054052 0.051099 0.043773 0.043773 0.051428 0.044781 0.096359 0.097236 0.036292 0.036292 0.036292 0.060532 0.059567 0.039372 0.044781 0.051428 0.044781 0.030047 0.024042 0.051099 0.060532 0.030047 0.036635 0.036292 0.023685 0.024042 0.024042 0.026882 0.031096 0.025110 0.024042 0.029346 0.016834 0.012801 0.015007 0.010951 0.019375 0.021537 0.024042 0.027235 0.026882 0.025110 0.016834 0.012801 0.009463 0.035259 0.037664 0.018651 0.023685 0.018651 0.039372 0.069102 0.079625 0.087482 0.087482 0.078095 0.069102 0.069102 0.062134 0.062134 0.072849 0.078095 0.077175 0.059567 0.059567 0.059567 0.051099 0.043773 0.043773 0.044781 0.039372 0.039372 0.032837 0.029346 0.032489 0.032489 0.032837 0.043773 0.043773 0.041749 0.036292 0.031096 0.045786 0.046455 0.036292 0.040732 0.045786 0.052743 0.057630 0.051428 0.063092 0.069102
0.039372 0.035259 0.030047 0.029697 0.037664 0.043437 0.036292 0.043773 0.044781 0.043437 0.059245 0.059567 0.043773 0.043437 0.052414 0.070668 0.054052 0.051757 0.064365 0.055358 0.035259 0.026882 0.035259 0.024042 0.015373 0.016834 0.015007 0.013906 0.013906 0.016834 0.027235 0.015373 0.015373 0.024042 0.030047 0.037664 0.052414 0.054052 0.046455 0.044781 0.048452 0.059567 0.059567 0.059567 0.066899 0.075636 0.075636 0.059245 0.048452 0.062773 0.077175 0.068160 0.077175 0.088976 0.087482 0.081756 0.096944 0.088976 0.067215 0.062134 0.087482 0.074709 0.076867 0.084479 0.090166 0.121062 0.149100 0.070668 0.090166 0.114392 0.092536 0.113270 0.163371 0.138626 0.138626 0.128444 0.127630 0.274493 0.292884 0.178926 0.161106 0.131685 0.131685 0.186878 0.161106 0.096359 0.086584 0.076867 0.077175 0.068160 0.051099 0.068160 0.086584 0.086284 0.043437 0.059567 0.025110 0.059245 0.127358 0.051428 0.052414 0.043773 0.043773 0.036635 0.039372 0.044781 0.064365 0.088976 0.086584 0.096359 0.096066 0.086284 0.096359 0.096359 0.069102 0.067845 0.059245 0.051428 0.096066 0.086284 0.087482 0.069102 0.048784 0.072849 0.051428 0.029697 0.037664 0.044781 0.082666 0.032837 0.018651 0.098693 0.051428 0.066899 0.149875 0.091649 0.054052 0.031096 0.045786 0.064365 0.064365 0.003820 0.000768 0.000384 0.000384 0.000000 0.000384 0.000768 0.000000 0.000384 0.000384 0.000384 0.000768 0.000768 0.000384 0.000384 0.000384 0.000384 0.000384 0.000384 0.000384 0.000384 0.000768 0.000768 0.000384 0.000384 0.000000 0.000000 0.000384 0.000768 0.000000 0.000000 0.000768 0.001916 0.021537 0.064365 0.059245 0.044781 0.044781 0.051757 0.056333 0.039372 0.037664 0.043437 0.043773 0.059567 0.052414 0.037664 0.075636 0.097236 0.052414 0.024042 0.064365 0.086584 0.054052 0.037664 0.044781 0.036635 0.030047 0.030047 0.046455 0.051428 0.036292 0.036292 0.030047 0.018651 0.021537 0.024042 0.032489 0.041749 0.029346 0.016834 0.024042 0.019375 0.015373 0.024042 0.019375 0.010951 0.015007 0.015007 0.021537 0.032837 0.029346 0.016834 0.016834 0.009835 0.023685 0.048784 0.032837 0.024042 0.018289 0.031096 0.059567 0.078095 0.087482 0.087482 0.078095 0.069102 0.062134 0.064365 0.062134 0.072849 0.088976 0.079625 0.070668 0.068160 0.052414 0.052414 0.054052 0.044781 0.054052 0.044781 0.030047 0.031096 0.031096 0.023685 0.018651 0.019736 0.039372 0.038348 0.031096 0.045786 0.035604 0.036292 0.046455 0.051428 0.040732 0.048452 0.052743 0.057630 0.057630 0.063092 0.069102
0.056333 0.035259 0.026882 0.039372 0.031096 0.036635 0.036635 0.029697 0.043773 0.051099 0.059567 0.059567 0.051428 0.054052 0.062134 0.081756 0.070668 0.051757 0.054052 0.046455 0.032489 0.038348 0.042087 0.024042 0.018651 0.012801 0.015007 0.013906 0.013906 0.019736 0.027235 0.035604 0.029346 0.036635 0.036635 0.036292 0.051099 0.060532 0.052414 0.056333 0.059245 0.059245 0.059567 0.064365 0.055358 0.059567 0.087781 0.087781 0.064365 0.063092 0.071604 0.082968 0.059245 0.067845 0.064365 0.064365 0.105044 0.128715 0.106474 0.064365 0.069729 0.103034 0.103034 0.096359 0.076867 0.079319 0.143631 0.130067 0.079014 0.114392 0.126542 0.127630 0.138626 0.162114 0.127630 0.140741 0.173797 0.212736 0.234977 0.223528 0.176978 0.144939 0.181591 0.190688 0.138361 0.077175 0.068160 0.087482 0.078095 0.069102 0.087482 0.078095 0.060532 0.078095 0.077175 0.069102 0.067845 0.092536 0.059567 0.056333 0.044781 0.067215 0.048784 0.055358 0.087781 0.059567 0.052743 0.074709 0.087781 0.081756 0.087482 0.097236 0.098693 0.097236 0.079625 0.064365 0.059567 0.059567 0.059245 0.103322 0.078095 0.070668 0.088976 0.022613 0.016834 0.079625 0.046455 0.062134 0.096359 0.051757 0.036292 0.037664 0.032837 0.068160 0.103322 0.121062 0.096944 0.062134 0.059567 0.064365 0.029346 0.001916 0.001916 0.009463 0.003820 0.001916 0.000384 0.000768 0.001534 0.000384 0.000384 0.000384 0.000000 0.000384 0.000384 0.000384 0.000384 0.000384 0.000384 0.000384 0.000384 0.000384 0.000384 0.000000 0.000000 0.000000 0.000000 0.000000 0.000384 0.000768 0.000000 0.000384 0.000768 0.003440 0.035259 0.075636 0.067215 0.044781 0.044781 0.041749 0.039372 0.036635 0.031096 0.036635 0.052414 0.060532 0.051428 0.037664 0.062134 0.096066 0.062134 0.059245 0.070668 0.052414 0.043773 0.036635 0.043437 0.036635 0.031096 0.037664 0.054052 0.036292 0.024042 0.031096 0.032837 0.016834 0.012801 0.022613 0.032489 0.048452 0.046455 0.027235 0.024042 0.019375 0.015373 0.016834 0.024042 0.025110 0.018651 0.013906 0.013906 0.019736 0.026882 0.019736 0.019736 0.018651 0.013538 0.024042 0.044781 0.046455 0.037664 0.030047 0.037664 0.069102 0.088976 0.088976 0.081756 0.064365 0.056333 0.064365 0.067215 0.072849 0.091057 0.084479 0.081756 0.075636 0.059245 0.051757 0.055358 0.055358 0.055358 0.066899 0.052743 0.036292 0.052743 0.042087 0.022613 0.027235 0.032489 0.040732 0.035604 0.040732 0.046455 0.042087 0.042087 0.052743 0.059567 0.048452 0.052743 0.064365 0.057630 0.063092 0.075636
0.052743 0.026882 0.029346 0.026882 0.026882 0.036635 0.029697 0.031096 0.043773 0.059567 0.070668 0.062134 0.064365 0.064365 0.067215 0.075636 0.059567 0.043773 0.044781 0.059567 0.048784 0.038348 0.029346 0.016834 0.012801 0.009463 0.009463 0.009835 0.009463 0.015007 0.018651 0.036292 0.046455 0.044781 0.036635 0.043773 0.068160 0.068160 0.062134 0.062134 0.048784 0.067215 0.079014 0.052743 0.055358 0.092536 0.079319 0.075636 0.075636 0.066899 0.076867 0.064365 0.040732 0.031096 0.025110 0.043773 0.077175 0.082968 0.087482 0.092536 0.063092 0.063092 0.084479 0.105044 0.100725 0.087781 0.093716 0.114392 0.093716 0.110169 0.142582 0.165124 0.149875 0.138626 0.131685 0.163371 0.211143 0.229503 0.339862 0.303808 0.144417 0.128715 0.148841 0.117740 0.096359 0.086584 0.077175 0.068160 0.079625 0.067845 0.086584 0.128715 0.086284 0.060532 0.043773 0.068160 0.077175 0.067845 0.076867 0.062134 0.062134 0.064365 0.051428 0.056333 0.046455 0.046455 0.067215 0.087781 0.060532 0.064365 0.078095 0.096359 0.096359 0.096066 0.096944 0.051428 0.044781 0.046455 0.055358 0.070668 0.116348 0.074709 0.063092 0.092536 0.069102 0.010951 0.057630 0.096066 0.052743 0.015373 0.075636 0.129797 0.059567 0.036635 0.069102 0.068160 0.137034 0.091057 0.084479 0.086284 0.013538 0.003820 0.009835 0.001916 0.004956 0.004956 0.003059 0.001534 0.000768 0.000384 0.000384 0.000000 0.000000 0.000000 0.000000 0.000000 0.000000 0.000000 0.000000 0.000000 0.000000 0.000000 0.000000 0.000000 0.000000 0.000000 0.000000 0.000000 0.000000 0.000768 0.000384 0.000384 0.000384 0.009463 0.054052 0.072849 0.052414 0.039372 0.031096 0.031096 0.030047 0.031096 0.036635 0.044781 0.054052 0.054052 0.052414 0.052414 0.054052 0.043773 0.097236 0.096066 0.041749 0.044781 0.043437 0.035259 0.043773 0.051428 0.037664 0.037664 0.030047 0.023685 0.024042 0.025110 0.026882 0.021537 0.010951 0.015373 0.024042 0.029346 0.038348 0.038348 0.029346 0.019375 0.016834 0.018651 0.018651 0.026882 0.024042 0.016834 0.016834 0.021537 0.026882 0.019736 0.019736 0.019736 0.010951 0.016834 0.039372 0.048784 0.035259 0.035259 0.052414 0.069102 0.079625 0.081756 0.075636 0.075636 0.067215 0.056333 0.067215 0.081756 0.081756 0.084479 0.075636 0.070668 0.062773 0.059567 0.059567 0.059567 0.059567 0.057630 0.069102 0.051428 0.046455 0.057630 0.040732 0.027235 0.032489 0.031096 0.036292 0.036292 0.042087 0.042087 0.048452 0.048452 0.059567 0.052743 0.048452 0.064365 0.069729 0.057630 0.064365
0.019375 0.016834 0.032489 0.031096 0.021537 0.019736 0.044781 0.037664 0.037664 0.070668 0.079625 0.070668 0.070668 0.067215 0.082968 0.059567 0.037664 0.054052 0.056333 0.067215 0.052414 0.031096 0.018289 0.013538 0.009463 0.006466 0.007593 0.004956 0.003440 0.004956 0.012801 0.031096 0.051428 0.051099 0.044781 0.051428 0.069102 0.078095 0.070668 0.062134 0.072849 0.079014 0.064365 0.051757 0.074709 0.074709 0.055358 0.066899 0.070668 0.070668 0.067215 0.056333 0.048452 0.056982 0.057630 0.051428 0.036292 0.044781 0.059245 0.041749 0.051757 0.060532 0.069102 0.077175 0.070668 0.079625 0.098693 0.100725 0.079625 0.110734 0.149875 0.161359 0.196818 0.221745 0.158831 0.144417 0.217260 0.197755 0.221745 0.298371 0.210003 0.149875 0.096066 0.097236 0.116348 0.060532 0.069102 0.068160 0.087482 0.108752 0.018289 0.070668 0.176734 0.072849 0.068160 0.086584 0.059245 0.059567 0.086584 0.076867 0.051428 0.044781 0.043773 0.059567 0.068160 0.062134 0.059567 0.013538 0.060532 0.119127 0.064365 0.079014 0.105044 0.082666 0.092536 0.104184 0.069729 0.071604 0.067215 0.100725 0.051757 0.063092 0.082968 0.075636 0.079319 0.046455 0.046455 0.068160 0.056333 0.060532 0.041749 0.026882 0.064365 0.043773 0.077175 0.127630 0.060532 0.075636 0.103322 0.110734 0.056982 0.000384 0.007593 0.006842 0.000384 0.001916 0.003820 0.001916 0.000768 0.000384 0.000000 0.000000 0.000384 0.000384 0.000384 0.000384 0.000384 0.000384 0.000000 0.000000 0.000000 0.000000 0.000000 0.000000 0.000000 0.000000 0.000000 0.000000 0.000000 0.000384 0.000384 0.000384 0.000384 0.013906 0.060532 0.059567 0.051428 0.036635 0.030047 0.031096 0.037664 0.039372 0.035259 0.059245 0.064365 0.056333 0.046455 0.044781 0.052414 0.052414 0.059245 0.041749 0.048784 0.091057 0.097236 0.043773 0.025110 0.043773 0.036635 0.030047 0.036635 0.023685 0.013906 0.019736 0.026882 0.019736 0.007593 0.007593 0.025110 0.035259 0.026882 0.026882 0.026882 0.021537 0.025110 0.024042 0.012801 0.018651 0.027235 0.027235 0.022613 0.024042 0.035259 0.026882 0.019736 0.019736 0.009835 0.013538 0.030047 0.039372 0.039372 0.043773 0.051428 0.059567 0.068160 0.072849 0.072849 0.064365 0.064365 0.064365 0.064365 0.081756 0.081756 0.072849 0.075636 0.067215 0.055358 0.048452 0.059567 0.059567 0.063092 0.056982 0.063092 0.064365 0.048452 0.042087 0.051428 0.042087 0.031096 0.022613 0.027235 0.031096 0.031096 0.032489 0.038348 0.042087 0.046455 0.052743 0.048452 0.052743 0.069729 0.069729 0.064365
0.015373 0.031096 0.027235 0.016834 0.025110 0.038348 0.032837 0.030047 0.056333 0.075636 0.072849 0.091057 0.079625 0.075636 0.081756 0.035259 0.035259 0.067215 0.067215 0.048784 0.024042 0.018289 0.013906 0.013906 0.013906 0.013538 0.009835 0.001916 0.001534 0.001916 0.013906 0.036635 0.059567 0.070668 0.046455 0.046455 0.079625 0.081756 0.070668 0.070668 0.070668 0.062134 0.062134 0.064365 0.067215 0.062134 0.064365 0.079014 0.079319 0.059567 0.052743 0.062773 0.070668 0.051757 0.040732 0.046455 0.051428 0.051428 0.036292 0.035259 0.054052 0.059567 0.068160 0.077175 0.068160 0.079625 0.078095 0.096066 0.087482 0.116905 0.172813 0.173059 0.173059 0.211143 0.217260 0.163371 0.139420 0.167369 0.214776 0.267137 0.220179 0.148841 0.149100 0.079319 0.119127 0.131685 0.087482 0.072849 0.060532 0.091057 0.088976 0.075636 0.078095 0.093716 0.086584 0.084479 0.062134 0.079625 0.091057 0.048784 0.048784 0.078095 0.059567 0.036635 0.029697 0.046455 0.088976 0.075636 0.036635 0.082059 0.088976 0.142845 0.096359 0.156799 0.096066 0.095773 0.074709 0.101014 0.079625 0.072849 0.064365 0.046455 0.064365 0.074709 0.059245 0.088976 0.087482 0.037664 0.029697 0.051428 0.059567 0.056333 0.070668 0.059567 0.066899 0.060532 0.070668 0.060532 0.086584 0.054052 0.052743 0.024042 0.001534 0.006466 0.001534 0.001916 0.003820 0.001534 0.001916 0.000384 0.000384 0.000768 0.000768 0.000384 0.000384 0.000384 0.000384 0.000768 0.000768 0.000384 0.000384 0.000384 0.000384 0.000000 0.000000 0.000000 0.000000 0.000000 0.000000 0.000384 0.000768 0.000384 0.001916 0.019736 0.052414 0.060532 0.051428 0.036292 0.036635 0.036635 0.041749 0.048784 0.066899 0.064365 0.055358 0.048784 0.037664 0.044781 0.051428 0.068160 0.044781 0.024042 0.037664 0.059567 0.088976 0.060532 0.044781 0.030047 0.025110 0.036635 0.036635 0.026882 0.016834 0.016834 0.029346 0.026882 0.012801 0.010951 0.009835 0.024042 0.041749 0.035259 0.026882 0.021537 0.025110 0.015007 0.012801 0.019375 0.024042 0.019375 0.027235 0.029346 0.032837 0.035259 0.029346 0.026882 0.018651 0.015007 0.018289 0.031096 0.043773 0.059245 0.051428 0.051428 0.051428 0.054052 0.072849 0.070668 0.060532 0.056333 0.064365 0.081756 0.081756 0.072849 0.067215 0.062773 0.055358 0.048452 0.048452 0.051428 0.051428 0.057630 0.059567 0.071604 0.055358 0.040732 0.040732 0.051428 0.045786 0.031096 0.027235 0.036292 0.032489 0.035259 0.038348 0.042087 0.042087 0.055358 0.048452 0.052743 0.064365 0.071604 0.071604
0.042087 0.036292 0.027235 0.022613 0.038348 0.036292 0.027235 0.048784 0.072849 0.075636 0.075636 0.067215 0.069102 0.072849 0.060532 0.043773 0.044781 0.060532 0.043773 0.030047 0.024042 0.018289 0.013538 0.013906 0.013906 0.013906 0.009835 0.003820 0.001534 0.003820 0.018289 0.043773 0.070668 0.070668 0.046455 0.059245 0.081756 0.081756 0.062134 0.062134 0.069102 0.069102 0.070668 0.062134 0.054052 0.054052 0.072849 0.088976 0.069102 0.052414 0.056333 0.051757 0.035259 0.044781 0.059245 0.048452 0.040732 0.057630 0.064365 0.052743 0.045786 0.048784 0.069102 0.078095 0.088976 0.093716 0.075636 0.106474 0.087482 0.088976 0.151938 0.176734 0.156035 0.140741 0.235630 0.188310 0.143631 0.176978 0.223528 0.269804 0.207026 0.145461 0.145461 0.138626 0.151938 0.140477 0.079014 0.075636 0.087482 0.096066 0.093716 0.078095 0.070668 0.087781 0.072849 0.082968 0.087781 0.062773 0.101014 0.084479 0.072849 0.091057 0.079014 0.052414 0.036292 0.036292 0.046455 0.075636 0.082968 0.074709 0.059567 0.117740 0.136236 0.101014 0.139420 0.091649 0.082968 0.091057 0.113270 0.087482 0.056333 0.037664 0.037664 0.062134 0.096359 0.086584 0.054052 0.054052 0.078095 0.075636 0.064365 0.062134 0.039372 0.062773 0.059245 0.037664 0.059245 0.086284 0.087482 0.052414 0.046455 0.013538 0.001534 0.003820 0.003440 0.007593 0.003059 0.003059 0.001916 0.000768 0.000768 0.000384 0.000000 0.000000 0.000000 0.000000 0.000000 0.000000 0.000384 0.000384 0.000384 0.000384 0.000768 0.000768 0.000384 0.000000 0.000000 0.000000 0.000000 0.000000 0.000768 0.000384 0.003820 0.032837 0.062134 0.054052 0.036635 0.036635 0.037664 0.052414 0.064365 0.064365 0.070668 0.055358 0.038348 0.026882 0.031096 0.037664 0.043773 0.059245 0.052414 0.036635 0.030047 0.043437 0.087482 0.087482 0.031096 0.018651 0.036292 0.036292 0.025110 0.016834 0.016834 0.019375 0.026882 0.026882 0.012801 0.016834 0.016834 0.013906 0.026882 0.038348 0.035259 0.029346 0.032837 0.012801 0.004956 0.015007 0.021537 0.015007 0.013906 0.030047 0.030047 0.019736 0.025110 0.037664 0.036635 0.018289 0.009463 0.029697 0.051428 0.043773 0.044781 0.060532 0.054052 0.044781 0.069102 0.078095 0.056333 0.048784 0.062134 0.081756 0.084479 0.067215 0.062773 0.062773 0.059567 0.052743 0.051428 0.051428 0.052743 0.052743 0.052743 0.071604 0.059567 0.045786 0.040732 0.045786 0.045786 0.042087 0.035259 0.038348 0.044781 0.041749 0.044781 0.055358 0.044781 0.055358 0.052743 0.048452 0.052743 0.071604 0.064365
0.031096 0.032489 0.029346 0.029346 0.046455 0.035259 0.031096 0.036292 0.067215 0.084479 0.072849 0.062134 0.070668 0.069102 0.052414 0.031096 0.036635 0.051428 0.036292 0.030047 0.029697 0.023685 0.018651 0.019736 0.015007 0.015007 0.010951 0.003820 0.000384 0.007593 0.023685 0.060532 0.079625 0.070668 0.064365 0.059245 0.072849 0.070668 0.060532 0.060532 0.060532 0.068160 0.069102 0.064365 0.067215 0.075636 0.067215 0.054052 0.051428 0.059245 0.059567 0.051099 0.059567 0.052414 0.032837 0.032837 0.056333 0.071604 0.064365 0.062773 0.048452 0.031096 0.062773 0.091057 0.097236 0.097236 0.088976 0.075636 0.060532 0.070668 0.096359 0.150650 0.186878 0.172813 0.149875 0.151165 0.139420 0.185681 0.221745 0.211143 0.165874 0.137034 0.151938 0.150650 0.119127 0.106474 0.116348 0.108752 0.107330 0.060532 0.075636 0.096944 0.064365 0.101014 0.096066 0.074709 0.092536 0.071604 0.106474 0.105044 0.076867 0.103034 0.112426 0.109886 0.059567 0.045786 0.067215 0.088976 0.087482 0.104184 0.082666 0.062773 0.124358 0.106474 0.110169 0.093716 0.088976 0.097236 0.097236 0.081756 0.060532 0.059567 0.051428 0.068160 0.067845 0.069102 0.068160 0.079625 0.098693 0.070668 0.043437 0.044781 0.086584 0.078095 0.023685 0.025110 0.054052 0.078095 0.068160 0.059567 0.051428 0.009463 0.000768 0.003820 0.006466 0.006466 0.006466 0.004956 0.001916 0.001534 0.000384 0.000384 0.000384 0.000384 0.000384 0.000384 0.000000 0.000000 0.000000 0.000000 0.000000 0.000000 0.000000 0.000384 0.000768 0.000768 0.000384 0.000000 0.000000 0.000000 0.000384 0.000384 0.009835 0.046455 0.054052 0.044781 0.039372 0.046455 0.048784 0.059245 0.059245 0.064365 0.072849 0.039372 0.025110 0.024042 0.030047 0.036292 0.036635 0.043437 0.051428 0.043437 0.030047 0.036635 0.068160 0.103322 0.052414 0.018651 0.031096 0.026882 0.019736 0.021537 0.012801 0.019375 0.031096 0.026882 0.012801 0.012801 0.021537 0.019736 0.016834 0.026882 0.031096 0.026882 0.032837 0.024042 0.007593 0.009835 0.019736 0.026882 0.023685 0.023685 0.025110 0.024042 0.024042 0.032837 0.030047 0.019736 0.018289 0.036635 0.036635 0.036292 0.043437 0.043773 0.052414 0.060532 0.068160 0.054052 0.048784 0.062134 0.062134 0.064365 0.075636 0.070668 0.062773 0.055358 0.057630 0.056982 0.056982 0.057630 0.057630 0.052743 0.052743 0.066899 0.069729 0.045786 0.045786 0.045786 0.040732 0.038348 0.038348 0.038348 0.041749 0.041749 0.041749 0.055358 0.048452 0.048452 0.059567 0.046455 0.042087 0.052743 0.069102
0.035259 0.044781 0.027235 0.044781 0.044781 0.031096 0.042087 0.052743 0.079319 0.070668 0.062773 0.056333 0.062134 0.059567 0.059245 0.036635 0.036635 0.051099 0.031096 0.031096 0.031096 0.025110 0.026882 0.021537 0.016834 0.016834 0.007593 0.001916 0.000384 0.006089 0.043773 0.068160 0.076867 0.077175 0.060532 0.051428 0.059567 0.059245 0.051428 0.059245 0.059567 0.068160 0.096359 0.087482 0.067215 0.054052 0.052414 0.052414 0.046455 0.037664 0.054052 0.062134 0.046455 0.052414 0.059567 0.046455 0.064365 0.081756 0.066899 0.048452 0.044781 0.059567 0.088976 0.064365 0.072849 0.096066 0.096066 0.086284 0.067845 0.077175 0.098693 0.128444 0.178926 0.188549 0.142582 0.140741 0.181591 0.224417 0.215455 0.153735 0.138361 0.161359 0.149617 0.117740 0.106188 0.096359 0.098693 0.116348 0.110169 0.098111 0.076867 0.088976 0.069729 0.087781 0.109886 0.079319 0.087482 0.091649 0.087781 0.088976 0.069102 0.104184 0.124358 0.121062 0.096359 0.072849 0.098693 0.076867 0.076867 0.075636 0.082666 0.079014 0.110169 0.124085 0.123537 0.126542 0.097236 0.096359 0.088976 0.086584 0.076867 0.043437 0.051428 0.069102 0.069102 0.078095 0.096359 0.086284 0.091649 0.059567 0.032489 0.056333 0.069102 0.067215 0.071604 0.062134 0.059245 0.067845 0.077175 0.052414 0.039372 0.013538 0.000768 0.003440 0.006466 0.010951 0.013906 0.009463 0.003440 0.001534 0.001534 0.001534 0.000384 0.000384 0.000384 0.000768 0.000768 0.000384 0.000384 0.000000 0.000000 0.000000 0.000000 0.000000 0.000000 0.000384 0.000768 0.000384 0.000000 0.000000 0.000384 0.001916 0.015007 0.044781 0.052414 0.052414 0.044781 0.048784 0.059245 0.070668 0.056333 0.059245 0.054052 0.031096 0.019736 0.018651 0.023685 0.036292 0.043437 0.043437 0.051428 0.036292 0.036292 0.043437 0.036635 0.084479 0.081756 0.021537 0.016834 0.039372 0.025110 0.015373 0.015373 0.021537 0.032837 0.031096 0.022613 0.016834 0.019736 0.019375 0.024042 0.037664 0.032837 0.021537 0.024042 0.016834 0.019375 0.015007 0.010951 0.029346 0.032837 0.019736 0.025110 0.036635 0.013906 0.025110 0.046455 0.024042 0.023685 0.036635 0.043437 0.037664 0.036292 0.043773 0.043437 0.052414 0.062134 0.054052 0.051428 0.052414 0.056333 0.067215 0.067215 0.062773 0.066899 0.052743 0.045786 0.063092 0.063092 0.063092 0.055358 0.055358 0.048452 0.048452 0.057630 0.051428 0.045786 0.051428 0.052743 0.044781 0.041749 0.041749 0.035259 0.035259 0.041749 0.048452 0.042087 0.032489 0.057630 0.051428 0.042087 0.035604 0.045786
0.048784 0.039372 0.041749 0.059567 0.044781 0.059245 0.051428 0.057630 0.066899 0.070668 0.059245 0.041749 0.048784 0.044781 0.051428 0.036635 0.029697 0.059567 0.054052 0.035259 0.038348 0.042087 0.036292 0.027235 0.019375 0.012801 0.003820 0.000768 0.000384 0.015373 0.032837 0.051428 0.077175 0.086584 0.060532 0.046455 0.062134 0.069102 0.059567 0.059245 0.067845 0.068160 0.077175 0.096359 0.068160 0.043773 0.051428 0.059567 0.051099 0.059567 0.072849 0.056333 0.056333 0.052743 0.044781 0.062773 0.067215 0.079625 0.072849 0.044781 0.066899 0.110169 0.076867 0.063092 0.063092 0.064365 0.087482 0.067845 0.068160 0.096359 0.106474 0.175023 0.217260 0.170099 0.144939 0.185681 0.241904 0.235630 0.144939 0.107330 0.117740 0.127630 0.161359 0.151938 0.086584 0.072849 0.067215 0.098111 0.110734 0.112426 0.117740 0.127358 0.115231 0.101014 0.084479 0.087482 0.091649 0.082968 0.074709 0.076867 0.066899 0.084479 0.112426 0.090166 0.087482 0.091057 0.066899 0.059567 0.057630 0.074709 0.091057 0.078095 0.081756 0.123537 0.116627 0.116905 0.138361 0.086284 0.096066 0.106474 0.067845 0.068160 0.069102 0.076867 0.072849 0.059567 0.062773 0.052743 0.075636 0.121062 0.082968 0.075636 0.078095 0.030047 0.037664 0.087482 0.084479 0.091057 0.100725 0.078095 0.044781 0.003440 0.001534 0.003059 0.009463 0.012801 0.018651 0.018651 0.007593 0.003820 0.001534 0.000768 0.000768 0.000384 0.000384 0.000000 0.000384 0.000384 0.000768 0.000768 0.000384 0.000000 0.000000 0.000000 0.000000 0.000000 0.000384 0.000768 0.000000 0.000000 0.000000 0.003820 0.023685 0.043437 0.052414 0.043773 0.051099 0.068160 0.062134 0.051757 0.046455 0.052414 0.043773 0.030047 0.018651 0.013538 0.024042 0.036292 0.036292 0.051428 0.051428 0.036292 0.029697 0.030047 0.032837 0.070668 0.070668 0.025110 0.030047 0.031096 0.019375 0.010951 0.016834 0.019736 0.016834 0.015373 0.032489 0.035259 0.019375 0.012801 0.026882 0.031096 0.032489 0.041749 0.032837 0.007593 0.010951 0.024042 0.012801 0.019736 0.039372 0.031096 0.029697 0.030047 0.021537 0.018651 0.036635 0.036292 0.029697 0.036635 0.043773 0.036292 0.036292 0.043773 0.029697 0.036635 0.059567 0.070668 0.056333 0.044781 0.048452 0.062773 0.074709 0.059567 0.064365 0.069102 0.059567 0.064365 0.075636 0.084479 0.074709 0.052743 0.048452 0.052743 0.051428 0.051428 0.052743 0.055358 0.062773 0.059245 0.044781 0.042087 0.038348 0.039372 0.032837 0.046455 0.051428 0.027235 0.031096 0.045786 0.040732 0.040732 0.045786
0.037664 0.035259 0.055358 0.051757 0.048452 0.055358 0.044781 0.051428 0.059567 0.051757 0.039372 0.046455 0.046455 0.037664 0.037664 0.030047 0.052414 0.079625 0.054052 0.048784 0.051757 0.038348 0.027235 0.015373 0.009463 0.003820 0.001534 0.000768 0.009463 0.027235 0.032489 0.044781 0.062134 0.068160 0.043773 0.044781 0.070668 0.078095 0.069102 0.067845 0.067845 0.077175 0.097236 0.086584 0.043773 0.036292 0.051428 0.059245 0.059245 0.069102 0.078095 0.060532 0.070668 0.067215 0.076867 0.075636 0.057630 0.079014 0.072849 0.072849 0.092536 0.100725 0.084479 0.076867 0.064365 0.063092 0.070668 0.064365 0.064365 0.098693 0.144939 0.196349 0.211143 0.175023 0.196349 0.174778 0.170099 0.186878 0.127630 0.116905 0.106474 0.129797 0.131685 0.134100 0.119127 0.079319 0.075636 0.082059 0.110734 0.103034 0.112426 0.121062 0.104184 0.115231 0.119127 0.091649 0.096066 0.101014 0.079319 0.076867 0.069102 0.063092 0.115231 0.096359 0.059245 0.048452 0.054052 0.060532 0.054052 0.081756 0.103322 0.072849 0.070668 0.149875 0.193291 0.119127 0.088976 0.106474 0.100725 0.087482 0.077175 0.060532 0.044781 0.086284 0.070668 0.044781 0.051428 0.082059 0.082968 0.096066 0.098111 0.110169 0.128715 0.062134 0.043773 0.037664 0.044781 0.056333 0.110169 0.079014 0.071604 0.055358 0.003820 0.006466 0.009463 0.012801 0.009463 0.006842 0.009463 0.004956 0.003059 0.000768 0.001534 0.000384 0.000768 0.000768 0.000000 0.000000 0.000000 0.000384 0.000768 0.000768 0.000000 0.000000 0.000000 0.000000 0.000000 0.000768 0.000384 0.000000 0.000000 0.001916 0.018289 0.059567 0.060532 0.036292 0.043437 0.069102 0.086584 0.060532 0.031096 0.036292 0.043437 0.030047 0.013906 0.009835 0.024042 0.043437 0.051099 0.051428 0.043773 0.030047 0.031096 0.026882 0.029346 0.078095 0.100725 0.031096 0.013906 0.021537 0.032489 0.015007 0.012801 0.021537 0.024042 0.012801 0.012801 0.027235 0.032489 0.019736 0.024042 0.025110 0.024042 0.035259 0.044781 0.021537 0.006466 0.010951 0.019736 0.024042 0.029697 0.036635 0.029697 0.018651 0.025110 0.036292 0.036635 0.030047 0.031096 0.044781 0.037664 0.029697 0.043773 0.043437 0.030047 0.043773 0.043773 0.032837 0.048452 0.044781 0.055358 0.062773 0.071604 0.069729 0.063092 0.074709 0.074709 0.076867 0.088976 0.087482 0.079319 0.066899 0.052743 0.051428 0.057630 0.052743 0.055358 0.055358 0.055358 0.059567 0.052743 0.032489 0.039372 0.048784 0.038348 0.031096 0.045786 0.040732 0.031096 0.036292 0.035604 0.031096 0.031096
0.031096 0.035259 0.042087 0.055358 0.067215 0.051757 0.062773 0.059567 0.045786 0.042087 0.044781 0.041749 0.039372 0.037664 0.044781 0.044781 0.051757 0.072849 0.060532 0.046455 0.039372 0.032837 0.021537 0.012801 0.003820 0.001534 0.000768 0.003059 0.018651 0.027235 0.042087 0.044781 0.051757 0.054052 0.037664 0.030047 0.059245 0.077175 0.078095 0.077175 0.077175 0.086284 0.077175 0.068160 0.059567 0.043437 0.051099 0.068160 0.068160 0.079625 0.070668 0.062134 0.079625 0.091057 0.096066 0.064365 0.063092 0.075636 0.059245 0.084479 0.123537 0.079319 0.093716 0.075636 0.066899 0.071604 0.075636 0.066899 0.074709 0.116348 0.153735 0.156035 0.162114 0.210003 0.221745 0.188549 0.153735 0.106188 0.097236 0.110734 0.098693 0.098693 0.116348 0.106474 0.109886 0.084479 0.082666 0.069102 0.082666 0.082968 0.087781 0.091057 0.100725 0.097236 0.093716 0.087781 0.074709 0.087482 0.090166 0.069102 0.076867 0.070668 0.084479 0.082059 0.056982 0.059245 0.081756 0.106474 0.096944 0.091649 0.091057 0.062134 0.051428 0.150650 0.139420 0.088976 0.173059 0.096359 0.059245 0.077175 0.067845 0.076867 0.051099 0.018651 0.019375 0.052743 0.044781 0.032837 0.062134 0.070668 0.084479 0.087781 0.134100 0.130067 0.048784 0.064365 0.059567 0.043437 0.068160 0.072849 0.036635 0.039372 0.030047 0.013538 0.009835 0.007593 0.000384 0.001916 0.001916 0.001916 0.001916 0.001916 0.000768 0.000768 0.000000 0.000768 0.000768 0.000000 0.000000 0.000000 0.000000 0.000768 0.000768 0.000000 0.000000 0.000000 0.000000 0.000384 0.000384 0.000384 0.001916 0.006842 0.036292 0.067215 0.043773 0.030047 0.036635 0.078095 0.097236 0.051099 0.030047 0.036292 0.036635 0.025110 0.018651 0.013538 0.030047 0.043773 0.043773 0.059245 0.036292 0.019736 0.021537 0.024042 0.039372 0.046455 0.087482 0.070668 0.026882 0.015373 0.027235 0.027235 0.022613 0.019375 0.022613 0.016834 0.013906 0.018651 0.031096 0.032837 0.025110 0.016834 0.016834 0.030047 0.036635 0.025110 0.013906 0.013538 0.024042 0.030047 0.024042 0.029697 0.029697 0.018289 0.024042 0.036292 0.043437 0.043773 0.037664 0.037664 0.030047 0.031096 0.037664 0.030047 0.036292 0.051428 0.029697 0.019736 0.041749 0.039372 0.042087 0.052743 0.057630 0.063092 0.074709 0.082968 0.071604 0.057630 0.082968 0.105044 0.079014 0.055358 0.045786 0.046455 0.051428 0.046455 0.042087 0.042087 0.048452 0.048452 0.071604 0.055358 0.052414 0.041749 0.040732 0.040732 0.035604 0.035604 0.032489 0.031096 0.031096 0.032489 0.032489
0.044781 0.041749 0.064365 0.076867 0.070668 0.067215 0.067215 0.056333 0.048452 0.051428 0.036292 0.038348 0.035259 0.032837 0.067215 0.056333 0.055358 0.062773 0.051757 0.056333 0.051757 0.035259 0.021537 0.004956 0.000768 0.000768 0.000000 0.003820 0.019736 0.029346 0.032489 0.035259 0.048784 0.046455 0.031096 0.031096 0.052414 0.059245 0.067845 0.078095 0.078095 0.097236 0.087482 0.068160 0.051428 0.043437 0.060532 0.069102 0.077175 0.088976 0.078095 0.062134 0.079625 0.110734 0.091057 0.067215 0.071604 0.063092 0.051428 0.079014 0.098693 0.106474 0.059567 0.075636 0.096944 0.071604 0.057630 0.063092 0.076867 0.087482 0.131685 0.162114 0.173059 0.161359 0.211143 0.188549 0.110734 0.123537 0.093716 0.107330 0.119127 0.098693 0.100725 0.096944 0.079014 0.057630 0.052743 0.062134 0.076867 0.087482 0.113270 0.113270 0.093716 0.079625 0.059567 0.059567 0.059245 0.051428 0.044781 0.060532 0.069102 0.039372 0.048784 0.062134 0.087482 0.121062 0.110734 0.084479 0.059567 0.060532 0.070668 0.064365 0.056982 0.176978 0.188310 0.100725 0.148841 0.133832 0.098693 0.088976 0.069102 0.060532 0.048452 0.048452 0.019736 0.032837 0.052414 0.052743 0.048784 0.059245 0.070668 0.068160 0.098693 0.103322 0.072849 0.060532 0.079625 0.068160 0.059245 0.069102 0.059567 0.031096 0.013538 0.013906 0.013906 0.006466 0.000000 0.001534 0.001534 0.001534 0.000768 0.000768 0.000768 0.000768 0.000768 0.000000 0.000768 0.000768 0.000000 0.000000 0.000000 0.000000 0.000768 0.000768 0.000000 0.000000 0.000000 0.000384 0.001916 0.001534 0.003059 0.026528 0.051428 0.036292 0.030047 0.036635 0.052414 0.079625 0.067845 0.051428 0.029697 0.024042 0.031096 0.030047 0.024042 0.009835 0.029697 0.059245 0.043437 0.043437 0.032837 0.016834 0.024042 0.026882 0.030047 0.037664 0.088976 0.075636 0.018651 0.012801 0.019736 0.015373 0.016834 0.026882 0.026882 0.030047 0.018651 0.013538 0.013906 0.019736 0.024042 0.019736 0.029697 0.043773 0.030047 0.018651 0.013538 0.018289 0.024042 0.023685 0.023685 0.029697 0.031096 0.023685 0.025110 0.029697 0.043773 0.043437 0.036635 0.036635 0.036292 0.036635 0.036635 0.031096 0.032837 0.043773 0.024042 0.010951 0.035259 0.040732 0.040732 0.063092 0.069729 0.070668 0.075636 0.079319 0.079319 0.070668 0.056333 0.084479 0.087781 0.052743 0.052743 0.052743 0.057630 0.059567 0.055358 0.051757 0.051757 0.051757 0.048452 0.059245 0.035259 0.032489 0.029346 0.031096 0.036292 0.035259 0.029346 0.027235 0.032489 0.031096 0.031096
0.036292 0.056333 0.079319 0.071604 0.062773 0.059245 0.059245 0.056333 0.059245 0.038348 0.036292 0.040732 0.032489 0.051757 0.066899 0.046455 0.070668 0.064365 0.055358 0.051757 0.041749 0.019736 0.009835 0.003440 0.003059 0.001916 0.001916 0.006089 0.024042 0.036635 0.032837 0.035259 0.039372 0.037664 0.031096 0.030047 0.046455 0.059567 0.059567 0.059245 0.076867 0.086584 0.087482 0.078095 0.067845 0.069102 0.072849 0.067215 0.084479 0.093716 0.075636 0.072849 0.096944 0.100725 0.086584 0.077175 0.070668 0.048784 0.045786 0.069102 0.079014 0.098693 0.106474 0.087482 0.059245 0.069102 0.071604 0.096359 0.088976 0.096359 0.105044 0.119127 0.149617 0.165124 0.163371 0.184722 0.147804 0.110169 0.140477 0.128444 0.088976 0.086584 0.078095 0.078095 0.068160 0.051428 0.081756 0.106474 0.114392 0.130067 0.124085 0.100725 0.084479 0.059567 0.059245 0.067845 0.062134 0.051428 0.054052 0.048452 0.043773 0.044781 0.064365 0.103322 0.091057 0.078095 0.088976 0.082968 0.063092 0.087482 0.075636 0.082666 0.071604 0.162114 0.179896 0.096066 0.151165 0.163371 0.129797 0.088976 0.079625 0.051757 0.045786 0.059567 0.074709 0.070668 0.081756 0.043773 0.016834 0.056333 0.105044 0.046455 0.070668 0.108752 0.068160 0.068160 0.068160 0.068160 0.062134 0.062134 0.067845 0.044781 0.023685 0.018651 0.009463 0.003820 0.000384 0.001534 0.001534 0.000768 0.000768 0.000384 0.000768 0.000384 0.000768 0.000384 0.000000 0.000768 0.000768 0.000000 0.000000 0.000000 0.000000 0.000768 0.000384 0.000000 0.000000 0.000384 0.001916 0.003440 0.018651 0.038348 0.032489 0.022613 0.019375 0.041749 0.054052 0.059567 0.062134 0.051428 0.031096 0.024042 0.037664 0.030047 0.019736 0.018651 0.037664 0.043437 0.043773 0.037664 0.024042 0.019375 0.024042 0.036635 0.043773 0.031096 0.048784 0.095773 0.063092 0.029346 0.013906 0.015007 0.013538 0.013906 0.024042 0.037664 0.018289 0.009835 0.019736 0.030047 0.024042 0.018651 0.031096 0.036292 0.023685 0.018289 0.018651 0.018651 0.024042 0.024042 0.023685 0.018651 0.030047 0.044781 0.024042 0.030047 0.043773 0.043437 0.043773 0.030047 0.029697 0.036635 0.043773 0.044781 0.030047 0.025110 0.026528 0.015373 0.022613 0.042087 0.052743 0.074709 0.087781 0.087781 0.066899 0.070668 0.108752 0.072849 0.056333 0.072849 0.066899 0.059567 0.075636 0.082968 0.091649 0.087781 0.087781 0.079014 0.055358 0.059567 0.046455 0.040732 0.035259 0.029697 0.016834 0.013906 0.029697 0.030047 0.031096 0.019375 0.022613 0.031096 0.031096
0.036292 0.059567 0.064365 0.064365 0.048452 0.059245 0.051757 0.056333 0.054052 0.048784 0.055358 0.042087 0.040732 0.064365 0.055358 0.051757 0.059245 0.056333 0.052414 0.036635 0.024042 0.013906 0.009463 0.006089 0.003820 0.001916 0.003059 0.013906 0.024042 0.036292 0.043773 0.031096 0.032837 0.039372 0.025110 0.039372 0.054052 0.046455 0.062134 0.070668 0.069102 0.078095 0.077175 0.086584 0.086284 0.077175 0.088976 0.081756 0.087781 0.096944 0.082968 0.082968 0.091649 0.064365 0.064365 0.078095 0.077175 0.068160 0.078095 0.056333 0.057630 0.079319 0.096944 0.088976 0.059245 0.087482 0.119957 0.101014 0.090166 0.075636 0.082666 0.096066 0.100725 0.127630 0.176734 0.156035 0.119957 0.119957 0.151165 0.158831 0.129797 0.106188 0.088976 0.103322 0.103322 0.084479 0.101014 0.114392 0.100725 0.093716 0.106474 0.079625 0.032489 0.059245 0.125179 0.106474 0.088976 0.128715 0.116348 0.046455 0.039372 0.067215 0.067845 0.059567 0.067215 0.071604 0.076867 0.096066 0.079014 0.088976 0.096066 0.070668 0.117740 0.131685 0.108752 0.128444 0.185681 0.221745 0.100725 0.052743 0.071604 0.064365 0.051428 0.064365 0.082059 0.088976 0.098111 0.130067 0.091057 0.108752 0.097236 0.054052 0.110169 0.075636 0.057630 0.067215 0.078095 0.108752 0.103322 0.055358 0.062773 0.035259 0.009835 0.013538 0.006466 0.004956 0.001916 0.000768 0.000384 0.000768 0.001534 0.000384 0.000384 0.000384 0.000384 0.000768 0.000000 0.000000 0.000768 0.000384 0.000000 0.000000 0.000000 0.000768 0.000384 0.000000 0.000384 0.000384 0.003820 0.009835 0.019736 0.037664 0.031096 0.019736 0.026882 0.038348 0.035259 0.038348 0.056333 0.059245 0.031096 0.024042 0.031096 0.031096 0.024042 0.030047 0.036292 0.036635 0.030047 0.029346 0.027235 0.019375 0.039372 0.043773 0.026882 0.031096 0.022613 0.046455 0.074709 0.067215 0.035259 0.016834 0.021537 0.019736 0.018651 0.037664 0.025110 0.006466 0.024042 0.036292 0.024042 0.024042 0.024042 0.029697 0.029697 0.026882 0.021537 0.019736 0.025110 0.021537 0.024042 0.036635 0.037664 0.023685 0.018651 0.030047 0.036635 0.043773 0.044781 0.032837 0.029346 0.038348 0.035259 0.038348 0.046455 0.036292 0.044781 0.044781 0.044781 0.056333 0.070668 0.084479 0.091649 0.069729 0.075636 0.096066 0.078095 0.067215 0.062773 0.076867 0.079319 0.088976 0.091057 0.096944 0.110169 0.100725 0.100725 0.092536 0.057630 0.035604 0.038348 0.037664 0.051428 0.031096 0.019736 0.036635 0.024042 0.004956 0.015373 0.036292 0.027235 0.027235 0.022613
0.042087 0.046455 0.051428 0.046455 0.040732 0.042087 0.044781 0.051757 0.048784 0.056333 0.048784 0.044781 0.052743 0.056982 0.035259 0.048452 0.056333 0.039372 0.023685 0.023685 0.024042 0.024042 0.013538 0.006089 0.006089 0.001916 0.001916 0.018651 0.030047 0.036292 0.043773 0.043437 0.044781 0.032837 0.031096 0.044781 0.051757 0.067215 0.067215 0.056333 0.069102 0.079625 0.059245 0.069102 0.086284 0.097236 0.097236 0.086584 0.097236 0.098693 0.081756 0.075636 0.067215 0.079014 0.082968 0.059245 0.062134 0.052414 0.043437 0.087482 0.106474 0.077175 0.060532 0.059567 0.086584 0.084479 0.051428 0.070668 0.082968 0.075636 0.125724 0.117740 0.084479 0.087781 0.119127 0.139420 0.117740 0.098693 0.144939 0.181591 0.150650 0.150650 0.128444 0.106474 0.067845 0.088976 0.106474 0.077175 0.070668 0.067215 0.063092 0.082666 0.096944 0.072849 0.098111 0.136236 0.092536 0.119127 0.158831 0.110169 0.046455 0.082968 0.114392 0.082666 0.056982 0.064365 0.046455 0.062773 0.062134 0.070668 0.107330 0.131685 0.138626 0.116348 0.086584 0.131685 0.170099 0.124358 0.133028 0.103034 0.104184 0.098111 0.082059 0.076867 0.090166 0.101014 0.096066 0.110169 0.148841 0.119957 0.121062 0.131685 0.139420 0.060532 0.029346 0.064365 0.076867 0.103322 0.088976 0.070668 0.071604 0.013538 0.006466 0.009835 0.003820 0.001916 0.001916 0.000384 0.000000 0.000768 0.001534 0.000384 0.000384 0.000768 0.000000 0.000768 0.000384 0.000000 0.000384 0.000384 0.000000 0.000000 0.000384 0.000768 0.000000 0.000000 0.000384 0.003820 0.004956 0.009463 0.029346 0.031096 0.024042 0.019736 0.035259 0.051757 0.062773 0.074709 0.045786 0.022613 0.023685 0.025110 0.030047 0.036635 0.024042 0.024042 0.036635 0.037664 0.025110 0.019375 0.031096 0.032489 0.041749 0.052743 0.026528 0.024042 0.039372 0.036635 0.052414 0.046455 0.040732 0.035604 0.027235 0.032489 0.029346 0.032837 0.029346 0.015007 0.024042 0.030047 0.030047 0.029697 0.023685 0.029697 0.043773 0.036292 0.013906 0.015007 0.031096 0.018651 0.013538 0.024042 0.025110 0.026882 0.031096 0.031096 0.032837 0.041749 0.042087 0.046455 0.059567 0.075636 0.075636 0.040732 0.031096 0.044781 0.048784 0.064365 0.079625 0.097236 0.091057 0.087781 0.075636 0.093716 0.106474 0.086284 0.062134 0.057630 0.071604 0.091649 0.123537 0.110734 0.093716 0.096944 0.091649 0.074709 0.051428 0.066899 0.067215 0.054052 0.052414 0.044781 0.035259 0.032489 0.032837 0.031096 0.016834 0.012062 0.004956 0.012801 0.027235 0.032489 0.039372
0.055358 0.059567 0.057630 0.040732 0.042087 0.040732 0.046455 0.032489 0.035259 0.041749 0.035259 0.038348 0.042087 0.022613 0.036292 0.051757 0.032837 0.024042 0.030047 0.031096 0.018651 0.018289 0.013538 0.006089 0.006466 0.001534 0.001534 0.013538 0.029697 0.036292 0.043773 0.051099 0.051428 0.039372 0.041749 0.067215 0.062773 0.055358 0.059245 0.051757 0.067215 0.062134 0.070668 0.093716 0.093716 0.098693 0.079625 0.077175 0.096359 0.106188 0.086284 0.076867 0.086584 0.079625 0.052414 0.051757 0.062773 0.048784 0.048784 0.067215 0.059245 0.072849 0.096944 0.081756 0.091057 0.084479 0.079625 0.078095 0.029346 0.051757 0.087781 0.069729 0.092536 0.098111 0.109886 0.114392 0.103322 0.087781 0.108752 0.185681 0.227077 0.150650 0.128444 0.091649 0.114392 0.127358 0.155014 0.096359 0.082666 0.098111 0.130067 0.114392 0.126542 0.088976 0.100725 0.115231 0.091649 0.074709 0.079014 0.119957 0.088976 0.051099 0.044781 0.052414 0.051428 0.072849 0.082968 0.082666 0.101014 0.110169 0.091057 0.138626 0.138361 0.062773 0.045786 0.048452 0.161359 0.197755 0.125179 0.112426 0.096359 0.112426 0.106474 0.109886 0.133028 0.136236 0.134100 0.121062 0.127358 0.134100 0.159085 0.159338 0.149100 0.109886 0.121062 0.107330 0.046455 0.062773 0.091649 0.096944 0.038348 0.001534 0.006089 0.006466 0.006466 0.001916 0.000768 0.000768 0.000768 0.000768 0.000384 0.000384 0.000000 0.000768 0.000384 0.000384 0.000384 0.000000 0.000384 0.000384 0.000000 0.000000 0.000768 0.000384 0.000000 0.000768 0.001916 0.001916 0.004956 0.019375 0.026528 0.021537 0.038348 0.048452 0.055358 0.055358 0.059567 0.051757 0.037664 0.022613 0.019736 0.018651 0.036635 0.030047 0.025110 0.030047 0.030047 0.031096 0.024042 0.009463 0.016834 0.026882 0.026882 0.035259 0.048784 0.037664 0.032837 0.044781 0.051757 0.045786 0.044781 0.057630 0.051428 0.040732 0.042087 0.041749 0.038348 0.032837 0.030047 0.036635 0.029697 0.018651 0.024042 0.023685 0.029697 0.037664 0.030047 0.023685 0.018651 0.012801 0.016834 0.029346 0.032489 0.036292 0.036292 0.040732 0.040732 0.045786 0.055358 0.081756 0.096944 0.106474 0.125724 0.103034 0.055358 0.060532 0.087482 0.096359 0.106474 0.098693 0.075636 0.069102 0.100725 0.117740 0.117740 0.081756 0.046455 0.072849 0.093716 0.113270 0.113270 0.116348 0.106474 0.082968 0.075636 0.067215 0.059245 0.059245 0.054052 0.044781 0.052743 0.045786 0.063092 0.048452 0.044781 0.041749 0.019375 0.019375 0.024042 0.009463 0.010951 0.031096 0.036635
0.062773 0.062773 0.059245 0.048452 0.052743 0.055358 0.038348 0.038348 0.036292 0.035259 0.026882 0.038348 0.019375 0.031096 0.045786 0.031096 0.029346 0.029346 0.032837 0.025110 0.013906 0.018651 0.013538 0.009835 0.006466 0.000768 0.001534 0.018289 0.030047 0.030047 0.044781 0.060532 0.069102 0.054052 0.051757 0.059245 0.056333 0.059245 0.062773 0.062773 0.071604 0.070668 0.096066 0.096944 0.079014 0.081756 0.081756 0.075636 0.093716 0.088976 0.078095 0.077175 0.086284 0.077175 0.086584 0.087482 0.054052 0.039372 0.056333 0.059245 0.035259 0.035259 0.060532 0.078095 0.077175 0.091057 0.054052 0.067215 0.075636 0.052414 0.116627 0.138361 0.066899 0.069102 0.103322 0.097236 0.096359 0.077175 0.103322 0.211599 0.150650 0.084479 0.082059 0.150650 0.181107 0.234105 0.216358 0.166124 0.112426 0.096066 0.119957 0.114392 0.088976 0.100725 0.093716 0.110169 0.098693 0.106474 0.110734 0.088976 0.086584 0.081756 0.081756 0.077175 0.077175 0.069102 0.076867 0.068160 0.036635 0.042087 0.066899 0.105044 0.095773 0.106474 0.127358 0.101014 0.079014 0.127358 0.125724 0.117740 0.112426 0.079319 0.106474 0.101014 0.133028 0.165124 0.148841 0.166124 0.151938 0.143631 0.171088 0.159085 0.155014 0.144417 0.130067 0.130067 0.087482 0.096359 0.086284 0.056333 0.013538 0.000768 0.003440 0.006089 0.003440 0.001916 0.000768 0.000384 0.000384 0.000000 0.000384 0.000384 0.000000 0.000384 0.000384 0.000384 0.000384 0.000000 0.000384 0.000384 0.000000 0.000384 0.000768 0.000000 0.000384 0.000768 0.000384 0.001534 0.006089 0.025110 0.024042 0.036292 0.055358 0.032489 0.038348 0.056333 0.051757 0.032489 0.035259 0.046455 0.016834 0.013538 0.018651 0.030047 0.025110 0.032837 0.035259 0.024042 0.031096 0.024042 0.019736 0.025110 0.030047 0.030047 0.026882 0.040732 0.035604 0.040732 0.056982 0.062773 0.055358 0.063092 0.063092 0.052743 0.059567 0.052743 0.046455 0.052743 0.048452 0.044781 0.042087 0.032489 0.032837 0.036635 0.030047 0.030047 0.024042 0.016834 0.022613 0.022613 0.022613 0.042087 0.055358 0.066899 0.071604 0.071604 0.071604 0.070668 0.087482 0.097236 0.110169 0.121062 0.125724 0.118850 0.096944 0.096066 0.116627 0.117740 0.088976 0.062773 0.059567 0.088976 0.106474 0.107330 0.093716 0.076867 0.088976 0.098693 0.100725 0.103322 0.093716 0.075636 0.069729 0.062773 0.086584 0.106188 0.062134 0.042087 0.064365 0.064365 0.069729 0.057630 0.055358 0.064365 0.043773 0.037664 0.009463 0.003820 0.018651 0.036292 0.018651 0.030047 0.052414
0.055358 0.059567 0.062773 0.067215 0.074709 0.062773 0.044781 0.041749 0.041749 0.035259 0.035259 0.016834 0.024042 0.046455 0.035604 0.040732 0.040732 0.035604 0.027235 0.019736 0.016834 0.016834 0.013906 0.010951 0.006466 0.000768 0.003820 0.018289 0.036635 0.046455 0.056333 0.054052 0.062134 0.062134 0.056333 0.056333 0.056333 0.064365 0.064365 0.067215 0.070668 0.070668 0.075636 0.070668 0.070668 0.079625 0.087482 0.093716 0.084479 0.081756 0.072849 0.067215 0.072849 0.069102 0.078095 0.076867 0.059567 0.052414 0.059567 0.059245 0.052414 0.052414 0.039372 0.051428 0.068160 0.060532 0.072849 0.059245 0.078095 0.086284 0.059567 0.087482 0.123537 0.056333 0.032489 0.082059 0.127358 0.187595 0.196349 0.179896 0.125724 0.119127 0.140741 0.151938 0.115231 0.198923 0.217260 0.181832 0.134100 0.100725 0.084479 0.092536 0.087482 0.106188 0.086584 0.108752 0.163371 0.140477 0.091057 0.096066 0.097236 0.081756 0.042087 0.051428 0.075636 0.090166 0.130067 0.104184 0.114392 0.112426 0.104184 0.134100 0.133028 0.088976 0.092536 0.121062 0.115231 0.090166 0.095773 0.088976 0.110734 0.069729 0.051428 0.051428 0.070668 0.124358 0.106474 0.116348 0.144939 0.093716 0.134100 0.219731 0.170099 0.136236 0.153735 0.185681 0.103322 0.072849 0.119957 0.096944 0.007593 0.001916 0.009835 0.006089 0.003820 0.000768 0.000768 0.000384 0.000000 0.000000 0.000768 0.000384 0.000000 0.000768 0.000384 0.000384 0.000384 0.000000 0.000384 0.000384 0.000000 0.000384 0.000384 0.000000 0.000768 0.000384 0.000768 0.000384 0.009835 0.039372 0.037664 0.038348 0.026882 0.032837 0.041749 0.046455 0.052414 0.039372 0.029346 0.018651 0.009463 0.015007 0.021537 0.016834 0.013906 0.024042 0.032489 0.027235 0.021537 0.029346 0.026882 0.032837 0.035259 0.031096 0.022613 0.036292 0.051428 0.040732 0.036292 0.042087 0.035604 0.052743 0.071604 0.052743 0.046455 0.063092 0.056982 0.069102 0.069729 0.063092 0.056982 0.057630 0.066899 0.062773 0.048784 0.025110 0.018651 0.024042 0.035259 0.048784 0.054052 0.079625 0.093716 0.091649 0.096066 0.096066 0.091649 0.091057 0.097236 0.098693 0.091649 0.110734 0.117740 0.104184 0.100725 0.106474 0.096066 0.091057 0.064365 0.056333 0.069102 0.088976 0.108752 0.084479 0.069729 0.100725 0.107330 0.108752 0.113270 0.106474 0.105044 0.064365 0.069102 0.097236 0.087482 0.051757 0.059567 0.059245 0.059567 0.057630 0.055358 0.064365 0.077175 0.079625 0.051428 0.026882 0.018651 0.001916 0.001916 0.024042 0.037664 0.024042 0.026882
0.062773 0.074709 0.074709 0.091649 0.087781 0.070668 0.062134 0.059245 0.044781 0.026882 0.029697 0.021537 0.046455 0.031096 0.035604 0.051428 0.046455 0.032489 0.019375 0.019375 0.024042 0.012801 0.012801 0.010951 0.004956 0.000384 0.003440 0.031096 0.054052 0.054052 0.044781 0.052414 0.070668 0.062134 0.054052 0.056333 0.056333 0.059245 0.060532 0.075636 0.062134 0.056333 0.054052 0.068160 0.068160 0.068160 0.096066 0.096066 0.077175 0.076867 0.086284 0.078095 0.064365 0.070668 0.072849 0.062134 0.069102 0.052414 0.041749 0.059567 0.043437 0.036635 0.051428 0.043773 0.051428 0.060532 0.072849 0.084479 0.070668 0.084479 0.103322 0.081756 0.044781 0.048452 0.039372 0.041749 0.072849 0.140477 0.164874 0.216358 0.173797 0.130067 0.106474 0.091649 0.090166 0.134100 0.164874 0.149875 0.118850 0.088976 0.079014 0.121062 0.128444 0.123537 0.126542 0.134100 0.151165 0.121062 0.121062 0.069102 0.029346 0.056333 0.096359 0.087482 0.103034 0.070668 0.088976 0.096066 0.084479 0.106474 0.092536 0.076867 0.104184 0.109886 0.105044 0.079014 0.101014 0.092536 0.064365 0.059567 0.079014 0.062134 0.044781 0.054052 0.056333 0.097236 0.127630 0.119127 0.119127 0.086584 0.079625 0.121062 0.134100 0.149100 0.164123 0.207026 0.158831 0.078095 0.070668 0.106474 0.051757 0.007593 0.007593 0.001534 0.001916 0.001916 0.001534 0.000768 0.000384 0.000768 0.000768 0.000000 0.000384 0.000768 0.000000 0.000384 0.000384 0.000000 0.000384 0.000384 0.000000 0.000768 0.000384 0.000384 0.000768 0.000384 0.000768 0.001534 0.024042 0.035259 0.030047 0.030047 0.031096 0.032837 0.032837 0.041749 0.046455 0.036635 0.019736 0.018289 0.023685 0.018651 0.015373 0.003820 0.003820 0.010951 0.023685 0.031096 0.024042 0.019736 0.026882 0.024042 0.026528 0.035604 0.026528 0.019375 0.029346 0.029346 0.024042 0.024042 0.026882 0.026882 0.044781 0.051757 0.035259 0.032489 0.045786 0.057630 0.069729 0.063092 0.069102 0.069102 0.082059 0.096359 0.090166 0.057630 0.046455 0.052414 0.069102 0.087482 0.096359 0.097236 0.106474 0.105044 0.105044 0.105044 0.100725 0.100725 0.096359 0.091057 0.098111 0.103034 0.103034 0.096066 0.097236 0.106188 0.087482 0.064365 0.091649 0.076867 0.054052 0.084479 0.105044 0.082666 0.091057 0.107330 0.107330 0.098693 0.075636 0.059567 0.075636 0.117740 0.116905 0.086584 0.051428 0.075636 0.062773 0.051428 0.054052 0.060532 0.059567 0.059567 0.051428 0.062134 0.051757 0.022613 0.022613 0.009463 0.003059 0.023685 0.039372 0.024042 0.025110
0.064365 0.071604 0.079319 0.082968 0.079014 0.064365 0.054052 0.051428 0.043437 0.046455 0.039372 0.046455 0.035259 0.027235 0.046455 0.051428 0.031096 0.019375 0.016834 0.018651 0.012801 0.012801 0.015373 0.009463 0.003059 0.000768 0.010951 0.041749 0.046455 0.037664 0.043437 0.059567 0.068160 0.060532 0.062134 0.064365 0.064365 0.048784 0.064365 0.072849 0.056333 0.064365 0.051757 0.059245 0.070668 0.079014 0.087781 0.079625 0.077175 0.087482 0.086584 0.096359 0.107330 0.070668 0.051428 0.059567 0.054052 0.068160 0.054052 0.030047 0.037664 0.043773 0.051099 0.052414 0.043773 0.037664 0.046455 0.070668 0.077175 0.068160 0.068160 0.088976 0.103322 0.069102 0.036635 0.036292 0.059567 0.059245 0.064365 0.093716 0.118850 0.069102 0.031096 0.039372 0.103322 0.103322 0.077175 0.081756 0.084479 0.088976 0.096066 0.151938 0.196349 0.179896 0.149100 0.138626 0.126542 0.096359 0.063092 0.088976 0.091649 0.075636 0.048452 0.063092 0.084479 0.096359 0.087482 0.082666 0.079319 0.081756 0.087781 0.070668 0.070668 0.081756 0.100725 0.079625 0.064365 0.079014 0.068160 0.060532 0.088976 0.119127 0.079014 0.059567 0.071604 0.087482 0.113270 0.129797 0.119127 0.086584 0.068160 0.076867 0.079625 0.084479 0.134100 0.236065 0.258224 0.149875 0.117740 0.082968 0.095773 0.051428 0.012801 0.001916 0.001916 0.001916 0.000384 0.000384 0.000384 0.000384 0.000000 0.000000 0.000384 0.000384 0.000000 0.000384 0.000384 0.000000 0.000384 0.000384 0.000384 0.000768 0.000000 0.000768 0.000384 0.000768 0.000384 0.006466 0.032837 0.021537 0.019736 0.036635 0.037664 0.039372 0.048784 0.048784 0.038348 0.031096 0.019736 0.010951 0.013906 0.019736 0.010951 0.006466 0.010951 0.012062 0.007593 0.013906 0.021537 0.016834 0.031096 0.031096 0.036292 0.021537 0.025110 0.024042 0.030047 0.024042 0.013906 0.018651 0.025110 0.026882 0.037664 0.044781 0.032837 0.016834 0.019375 0.038348 0.052743 0.046455 0.051428 0.063092 0.082059 0.103034 0.110734 0.100725 0.088976 0.086584 0.096066 0.096359 0.107330 0.088976 0.096944 0.105044 0.105044 0.105044 0.106474 0.108752 0.098693 0.079014 0.096359 0.125179 0.112426 0.096944 0.096359 0.096066 0.074709 0.070668 0.119127 0.091057 0.042087 0.069729 0.104184 0.119957 0.108752 0.097236 0.079625 0.059567 0.055358 0.076867 0.103322 0.096359 0.079625 0.057630 0.070668 0.074709 0.079319 0.075636 0.062134 0.054052 0.054052 0.060532 0.059567 0.043437 0.039372 0.032489 0.024042 0.010951 0.006089 0.013906 0.032837 0.035259 0.022613
0.057630 0.063092 0.069729 0.071604 0.038348 0.036635 0.044781 0.041749 0.056333 0.060532 0.043437 0.044781 0.039372 0.035259 0.045786 0.032489 0.018651 0.012062 0.009463 0.009463 0.012801 0.015007 0.009835 0.004956 0.000768 0.003820 0.025110 0.039372 0.037664 0.030047 0.036292 0.059245 0.076867 0.077175 0.069102 0.062134 0.052414 0.051099 0.067215 0.070668 0.064365 0.070668 0.079319 0.082666 0.106474 0.124358 0.092536 0.071604 0.075636 0.081756 0.079625 0.091057 0.077175 0.052414 0.052414 0.081756 0.068160 0.051099 0.041749 0.026882 0.035259 0.062773 0.048784 0.044781 0.066899 0.051757 0.060532 0.096066 0.087482 0.079625 0.078095 0.044781 0.048784 0.079014 0.066899 0.062773 0.075636 0.084479 0.081756 0.062773 0.051757 0.060532 0.062134 0.124085 0.155014 0.087781 0.059567 0.055358 0.070668 0.096944 0.134100 0.208173 0.252767 0.176978 0.100725 0.068160 0.055358 0.072849 0.131685 0.124085 0.076867 0.096359 0.084479 0.069729 0.069729 0.064365 0.063092 0.072849 0.096359 0.096066 0.076867 0.077175 0.059567 0.077175 0.096066 0.070668 0.052414 0.096066 0.116905 0.076867 0.078095 0.087482 0.076867 0.070668 0.062134 0.075636 0.081756 0.096359 0.096359 0.069102 0.069102 0.078095 0.069102 0.070668 0.078095 0.106474 0.182798 0.199855 0.217260 0.181832 0.124358 0.139420 0.106474 0.026528 0.004956 0.003820 0.001916 0.000000 0.000000 0.000000 0.000000 0.000000 0.000768 0.000384 0.000000 0.000384 0.000384 0.000000 0.000768 0.000384 0.000384 0.000384 0.000384 0.000768 0.000768 0.000768 0.000384 0.009835 0.031096 0.025110 0.027235 0.035259 0.051757 0.051757 0.041749 0.046455 0.032837 0.019736 0.018651 0.013906 0.006466 0.012062 0.018651 0.009835 0.013538 0.009835 0.004956 0.006089 0.013906 0.003440 0.006466 0.019375 0.048452 0.060532 0.036635 0.030047 0.024042 0.013906 0.009463 0.013538 0.015007 0.029346 0.046455 0.041749 0.032489 0.024042 0.013906 0.024042 0.038348 0.036292 0.035604 0.040732 0.056982 0.075636 0.092536 0.106474 0.098693 0.096359 0.096359 0.086584 0.097236 0.091057 0.096944 0.105044 0.105044 0.100725 0.113270 0.110734 0.093716 0.087482 0.090166 0.121062 0.139420 0.096944 0.086584 0.072849 0.079319 0.113270 0.100725 0.082666 0.059567 0.074709 0.091649 0.106474 0.093716 0.084479 0.057630 0.056333 0.086584 0.106188 0.081756 0.059567 0.064365 0.075636 0.062773 0.059567 0.079014 0.079014 0.079014 0.064365 0.070668 0.077175 0.068160 0.043773 0.015007 0.010951 0.032837 0.029346 0.010951 0.012801 0.018651 0.048452 0.070668
0.051428 0.063092 0.069102 0.027235 0.024042 0.042087 0.039372 0.037664 0.032837 0.031096 0.036635 0.037664 0.025110 0.032837 0.032489 0.022613 0.012801 0.004956 0.006842 0.009463 0.006842 0.003820 0.009835 0.006089 0.000768 0.006466 0.030047 0.036635 0.030047 0.023685 0.036292 0.059567 0.076867 0.076867 0.076867 0.059245 0.036635 0.069102 0.088976 0.060532 0.081756 0.114392 0.101014 0.092536 0.098111 0.079319 0.067215 0.048784 0.043773 0.070668 0.091057 0.078095 0.051428 0.043773 0.036292 0.069102 0.088976 0.044781 0.035259 0.035259 0.024042 0.051757 0.074709 0.038348 0.051757 0.081756 0.087482 0.068160 0.056333 0.072849 0.079625 0.070668 0.059245 0.043773 0.039372 0.062773 0.092536 0.087482 0.088976 0.106474 0.126542 0.110734 0.096359 0.078095 0.078095 0.100725 0.096066 0.069102 0.079625 0.078095 0.108752 0.236065 0.205185 0.092536 0.127358 0.119127 0.131685 0.151938 0.116348 0.096359 0.104184 0.084479 0.082666 0.069102 0.088976 0.074709 0.077175 0.106188 0.097236 0.086584 0.086584 0.077175 0.082968 0.069102 0.074709 0.070668 0.091057 0.079625 0.082968 0.105044 0.116348 0.103322 0.081756 0.069102 0.068160 0.077175 0.067845 0.076867 0.091057 0.081756 0.072849 0.084479 0.072849 0.076867 0.086584 0.059567 0.062134 0.087781 0.110169 0.133028 0.082059 0.075636 0.096066 0.072849 0.021537 0.003820 0.001916 0.000768 0.000000 0.000000 0.000000 0.000768 0.000768 0.000000 0.000000 0.000384 0.000384 0.000384 0.000768 0.000000 0.000768 0.000384 0.000768 0.001916 0.000768 0.000384 0.000384 0.013906 0.039372 0.039372 0.038348 0.052743 0.059567 0.042087 0.038348 0.039372 0.024042 0.009835 0.006466 0.012801 0.006842 0.003820 0.024042 0.032837 0.021537 0.019375 0.012801 0.012801 0.027235 0.022613 0.007593 0.000768 0.025110 0.075636 0.048784 0.029346 0.024042 0.018651 0.019736 0.012801 0.012062 0.027235 0.044781 0.042087 0.042087 0.044781 0.019375 0.015373 0.032489 0.031096 0.027235 0.031096 0.035604 0.057630 0.070668 0.081756 0.088976 0.086584 0.077175 0.086584 0.087482 0.091057 0.087781 0.105044 0.105044 0.106474 0.110734 0.103322 0.100725 0.092536 0.101014 0.101014 0.121062 0.105044 0.079625 0.064365 0.100725 0.114392 0.098111 0.092536 0.087781 0.082968 0.082968 0.070668 0.067215 0.045786 0.079014 0.091057 0.081756 0.066899 0.082666 0.082666 0.079319 0.059567 0.048452 0.060532 0.068160 0.068160 0.077175 0.076867 0.077175 0.076867 0.059245 0.039372 0.035259 0.021537 0.010951 0.031096 0.027235 0.039372 0.052414 0.077175 0.116627
0.052743 0.057630 0.031096 0.010951 0.024042 0.007593 0.009463 0.012801 0.016834 0.016834 0.018651 0.018289 0.025110 0.029346 0.029346 0.009463 0.003059 0.006466 0.007593 0.003820 0.003820 0.001916 0.006089 0.009835 0.000384 0.010951 0.025110 0.036292 0.031096 0.024042 0.029697 0.059567 0.086284 0.077175 0.067845 0.068160 0.068160 0.070668 0.060532 0.078095 0.121062 0.108752 0.075636 0.064365 0.075636 0.054052 0.039372 0.024042 0.059245 0.108752 0.072849 0.060532 0.052414 0.043437 0.043773 0.051099 0.067845 0.043437 0.024042 0.025110 0.025110 0.031096 0.051757 0.059245 0.067215 0.075636 0.093716 0.084479 0.064365 0.088976 0.087482 0.068160 0.059245 0.043773 0.018651 0.015007 0.056333 0.070668 0.079319 0.110169 0.119127 0.148841 0.130067 0.096066 0.071604 0.076867 0.127358 0.115231 0.079319 0.096944 0.121062 0.170099 0.197755 0.117740 0.159338 0.143631 0.096944 0.126542 0.110169 0.106474 0.096359 0.110734 0.088976 0.056982 0.079014 0.126542 0.097236 0.098693 0.088976 0.072849 0.084479 0.056982 0.076867 0.096066 0.084479 0.114392 0.096066 0.098111 0.087482 0.121062 0.145461 0.139420 0.124085 0.110169 0.088976 0.079625 0.070668 0.059567 0.059567 0.068160 0.060532 0.078095 0.117740 0.123537 0.093716 0.062134 0.051428 0.059567 0.059245 0.068160 0.067845 0.067845 0.086584 0.043437 0.015007 0.015373 0.003059 0.000768 0.000768 0.000384 0.000768 0.000768 0.000000 0.000000 0.000000 0.000768 0.000384 0.000384 0.000384 0.000384 0.000768 0.000384 0.001916 0.000768 0.000768 0.000384 0.000384 0.025110 0.046455 0.039372 0.048784 0.051757 0.039372 0.031096 0.021537 0.019736 0.018289 0.009835 0.003820 0.007593 0.015007 0.022613 0.038348 0.035259 0.019736 0.019736 0.009463 0.024042 0.022613 0.003059 0.000384 0.000384 0.007593 0.055358 0.064365 0.051428 0.059567 0.032489 0.021537 0.019375 0.024042 0.031096 0.052743 0.046455 0.042087 0.038348 0.035604 0.026528 0.031096 0.036292 0.027235 0.026528 0.022613 0.035259 0.056333 0.062134 0.069102 0.069102 0.068160 0.086284 0.087482 0.093716 0.087781 0.100725 0.110169 0.113270 0.103322 0.096944 0.096066 0.101014 0.101014 0.098111 0.098111 0.091649 0.087781 0.076867 0.105044 0.112426 0.112426 0.110169 0.100725 0.096066 0.087482 0.074709 0.063092 0.056333 0.059245 0.087482 0.079319 0.057630 0.048452 0.044781 0.038348 0.052414 0.078095 0.091057 0.081756 0.075636 0.084479 0.081756 0.072849 0.069102 0.043773 0.024042 0.026528 0.046455 0.038348 0.046455 0.069102 0.076867 0.096066 0.116905 0.117740
0.039372 0.030047 0.006466 0.001534 0.009463 0.019375 0.013538 0.009463 0.006466 0.003440 0.001916 0.004956 0.009463 0.009463 0.001916 0.000384 0.001534 0.003820 0.003440 0.003440 0.003820 0.001916 0.003820 0.006842 0.006089 0.015373 0.024042 0.013906 0.024042 0.036635 0.036635 0.059245 0.077175 0.078095 0.077175 0.068160 0.067845 0.077175 0.077175 0.079625 0.086584 0.106188 0.086584 0.069102 0.059567 0.043773 0.043437 0.025110 0.067215 0.108752 0.078095 0.060532 0.036292 0.036292 0.036635 0.059567 0.086584 0.052414 0.019736 0.013538 0.018651 0.024042 0.037664 0.032837 0.051757 0.091649 0.105044 0.101014 0.075636 0.088976 0.121062 0.091057 0.062134 0.036635 0.018651 0.038348 0.041749 0.039372 0.046455 0.068160 0.110169 0.140477 0.139420 0.104184 0.082059 0.062773 0.098693 0.110734 0.116627 0.117740 0.107330 0.116627 0.113270 0.052743 0.059567 0.117740 0.072849 0.055358 0.101014 0.096359 0.082666 0.090166 0.101014 0.084479 0.070668 0.103322 0.116348 0.103322 0.100725 0.082968 0.069729 0.082059 0.084479 0.087482 0.067215 0.087482 0.092536 0.106474 0.090166 0.082666 0.139420 0.169356 0.143631 0.138626 0.119957 0.091649 0.113270 0.116905 0.069102 0.054052 0.067215 0.096066 0.151165 0.158831 0.072849 0.035259 0.048784 0.075636 0.081756 0.091649 0.066899 0.062773 0.079625 0.043437 0.003440 0.006842 0.012801 0.001916 0.000384 0.000384 0.000384 0.000000 0.000000 0.000000 0.000384 0.000768 0.000000 0.000384 0.000384 0.000384 0.000384 0.000384 0.001534 0.001916 0.006466 0.000768 0.001916 0.031096 0.043773 0.044781 0.044781 0.030047 0.023685 0.030047 0.030047 0.018289 0.009463 0.006089 0.024042 0.036292 0.022613 0.026528 0.031096 0.016834 0.012801 0.018651 0.024042 0.015373 0.001916 0.003440 0.000768 0.001534 0.006466 0.045786 0.056982 0.063092 0.069102 0.074709 0.055358 0.044781 0.029346 0.031096 0.042087 0.052743 0.059567 0.046455 0.027235 0.031096 0.036292 0.036292 0.035604 0.031096 0.029346 0.031096 0.037664 0.052414 0.052414 0.059567 0.068160 0.086584 0.069102 0.084479 0.087781 0.087781 0.096944 0.106474 0.087781 0.091649 0.087482 0.101014 0.106474 0.098111 0.098111 0.091649 0.076867 0.101014 0.104184 0.106474 0.124085 0.114392 0.087482 0.069729 0.056982 0.055358 0.069102 0.054052 0.037664 0.060532 0.079625 0.069102 0.060532 0.044781 0.046455 0.072849 0.093716 0.081756 0.081756 0.081756 0.075636 0.070668 0.059567 0.037664 0.031096 0.038348 0.056333 0.072849 0.088976 0.096359 0.106474 0.116627 0.117740 0.127630 0.116627
0.013538 0.015007 0.012801 0.004956 0.009463 0.024042 0.024042 0.031096 0.026528 0.022613 0.009463 0.006842 0.009463 0.004956 0.003820 0.000768 0.001534 0.006466 0.003440 0.001916 0.001534 0.001916 0.003059 0.007593 0.009835 0.022613 0.018651 0.015373 0.021537 0.024042 0.036635 0.059567 0.070668 0.079625 0.079625 0.078095 0.086584 0.077175 0.076867 0.059245 0.086284 0.127630 0.087482 0.059567 0.044781 0.046455 0.059245 0.060532 0.075636 0.078095 0.060532 0.043773 0.037664 0.054052 0.056333 0.062773 0.084479 0.054052 0.013906 0.009835 0.018651 0.023685 0.031096 0.032837 0.031096 0.051757 0.072849 0.110734 0.119127 0.098693 0.081756 0.091649 0.091057 0.079625 0.060532 0.046455 0.069102 0.088976 0.069729 0.059567 0.055358 0.086584 0.077175 0.078095 0.096066 0.098693 0.108752 0.117740 0.116905 0.106188 0.098693 0.096944 0.076867 0.074709 0.031096 0.052743 0.057630 0.043773 0.059567 0.069102 0.072849 0.081756 0.098693 0.081756 0.070668 0.086584 0.098693 0.091057 0.075636 0.056333 0.048784 0.064365 0.084479 0.087781 0.070668 0.079319 0.090166 0.090166 0.104184 0.087781 0.100725 0.126542 0.131685 0.129797 0.108752 0.097236 0.127630 0.129797 0.097236 0.097236 0.106188 0.106474 0.110169 0.086584 0.067845 0.060532 0.067215 0.070668 0.091649 0.106474 0.074709 0.052743 0.048452 0.025110 0.003440 0.001916 0.006466 0.004956 0.000768 0.000000 0.000000 0.000000 0.000000 0.000000 0.000384 0.000384 0.000000 0.000384 0.000384 0.000384 0.000384 0.000384 0.003440 0.009835 0.000384 0.003440 0.009463 0.032489 0.048784 0.048784 0.037664 0.031096 0.025110 0.024042 0.023685 0.024042 0.019736 0.042087 0.056982 0.022613 0.026528 0.031096 0.031096 0.026528 0.018651 0.012801 0.018651 0.003059 0.001916 0.003059 0.001916 0.009463 0.003059 0.031096 0.056982 0.051428 0.064365 0.074709 0.062773 0.059567 0.040732 0.035259 0.035259 0.036292 0.046455 0.051428 0.040732 0.035604 0.036292 0.035604 0.036292 0.038348 0.046455 0.044781 0.051428 0.059567 0.059567 0.059245 0.069102 0.067845 0.062134 0.064365 0.070668 0.079014 0.075636 0.079014 0.082968 0.074709 0.087482 0.087482 0.098111 0.088976 0.076867 0.092536 0.088976 0.096359 0.106474 0.105044 0.084479 0.069729 0.067215 0.060532 0.059245 0.070668 0.062134 0.056333 0.070668 0.070668 0.064365 0.084479 0.072849 0.048784 0.048784 0.072849 0.081756 0.079625 0.079625 0.078095 0.068160 0.043773 0.038348 0.040732 0.048784 0.077175 0.106474 0.119127 0.128444 0.138626 0.127358 0.149875 0.138626 0.138626 0.127358
0.013906 0.013538 0.006466 0.003820 0.004956 0.009463 0.018651 0.018651 0.031096 0.018651 0.015373 0.009463 0.009463 0.009463 0.004956 0.003820 0.007593 0.004956 0.003820 0.004956 0.001916 0.000000 0.000384 0.003440 0.010951 0.022613 0.015373 0.015373 0.015373 0.016834 0.025110 0.043437 0.059567 0.078095 0.088976 0.087482 0.079625 0.088976 0.086584 0.078095 0.096359 0.088976 0.070668 0.075636 0.044781 0.059567 0.086584 0.059245 0.059567 0.078095 0.068160 0.062134 0.056333 0.059245 0.064365 0.079014 0.070668 0.024042 0.003820 0.006089 0.023685 0.018651 0.018289 0.031096 0.031096 0.060532 0.096066 0.086284 0.081756 0.084479 0.084479 0.093716 0.100725 0.091057 0.098693 0.096359 0.070668 0.044781 0.051757 0.051428 0.059567 0.101014 0.149100 0.103034 0.088976 0.091649 0.100725 0.100725 0.110169 0.079625 0.056333 0.079319 0.059567 0.038348 0.036292 0.046455 0.067215 0.096066 0.092536 0.063092 0.057630 0.079014 0.079625 0.078095 0.096066 0.096359 0.078095 0.078095 0.087482 0.076867 0.043773 0.036292 0.059567 0.064365 0.051757 0.052743 0.076867 0.087482 0.100725 0.117740 0.107330 0.142582 0.151938 0.127630 0.116627 0.096359 0.096066 0.108752 0.081756 0.075636 0.155014 0.158831 0.088976 0.078095 0.078095 0.069102 0.079625 0.088976 0.084479 0.078095 0.059567 0.043773 0.039372 0.010951 0.001534 0.001916 0.001534 0.001916 0.001916 0.000768 0.000000 0.000000 0.000000 0.000000 0.000768 0.000384 0.000000 0.000384 0.000384 0.000384 0.000384 0.000384 0.003440 0.001916 0.006089 0.004956 0.027235 0.048452 0.048452 0.035259 0.035259 0.035259 0.024042 0.024042 0.024042 0.038348 0.062773 0.069729 0.031096 0.022613 0.042087 0.031096 0.035604 0.019375 0.004956 0.004956 0.003820 0.007593 0.001916 0.000384 0.003820 0.006089 0.001534 0.006466 0.052743 0.052743 0.048452 0.055358 0.051428 0.052743 0.055358 0.044781 0.031096 0.031096 0.042087 0.040732 0.036292 0.045786 0.045786 0.042087 0.044781 0.046455 0.044781 0.051428 0.067845 0.068160 0.069102 0.059245 0.060532 0.043437 0.054052 0.051757 0.059245 0.067215 0.070668 0.062773 0.074709 0.074709 0.074709 0.084479 0.082666 0.071604 0.057630 0.087482 0.095773 0.104184 0.109886 0.082666 0.084479 0.086584 0.077175 0.068160 0.069102 0.069102 0.079625 0.084479 0.059245 0.048784 0.072849 0.075636 0.056333 0.046455 0.046455 0.072849 0.079625 0.070668 0.067845 0.059567 0.051757 0.045786 0.055358 0.072849 0.086284 0.117740 0.127358 0.128444 0.138626 0.138626 0.149617 0.138626 0.138626 0.138361 0.128444
0.006466 0.006466 0.004956 0.001916 0.004956 0.006842 0.006842 0.004956 0.022613 0.021537 0.015373 0.009463 0.006842 0.007593 0.007593 0.009463 0.009835 0.003820 0.004956 0.003820 0.000384 0.000768 0.000384 0.003059 0.012062 0.015373 0.012062 0.015373 0.015373 0.019375 0.024042 0.039372 0.054052 0.059245 0.076867 0.078095 0.079625 0.098693 0.088976 0.077175 0.079625 0.093716 0.079014 0.075636 0.081756 0.067845 0.069102 0.059567 0.086284 0.077175 0.067845 0.068160 0.051428 0.051099 0.059245 0.068160 0.036292 0.010951 0.009835 0.015007 0.013538 0.023685 0.024042 0.018289 0.031096 0.059567 0.088976 0.070668 0.075636 0.091057 0.084479 0.093716 0.103322 0.093716 0.093716 0.091649 0.074709 0.082968 0.081756 0.062134 0.051428 0.096944 0.110734 0.084479 0.071604 0.096359 0.139420 0.143631 0.101014 0.035604 0.031096 0.067215 0.079625 0.082968 0.104184 0.095773 0.110169 0.112426 0.098111 0.090166 0.112426 0.098111 0.096359 0.076867 0.070668 0.108752 0.108752 0.088976 0.051428 0.044781 0.046455 0.044781 0.044781 0.046455 0.044781 0.038348 0.056333 0.106474 0.128444 0.139420 0.163371 0.128444 0.096359 0.097236 0.107330 0.103322 0.091057 0.096944 0.101014 0.084479 0.136236 0.185442 0.169356 0.155014 0.110734 0.067845 0.070668 0.081756 0.069102 0.059567 0.051428 0.051099 0.043773 0.010951 0.001916 0.001534 0.001534 0.001534 0.000384 0.000768 0.000768 0.000000 0.000000 0.000384 0.000768 0.000000 0.000000 0.000384 0.000384 0.000384 0.000384 0.000384 0.001534 0.001916 0.003440 0.019375 0.027235 0.032837 0.032837 0.032837 0.044781 0.038348 0.032489 0.040732 0.051428 0.063092 0.064365 0.042087 0.019375 0.036292 0.022613 0.018651 0.019375 0.003059 0.001916 0.000384 0.000768 0.003059 0.003059 0.000000 0.004956 0.006089 0.010951 0.009463 0.021537 0.051428 0.046455 0.045786 0.044781 0.044781 0.052743 0.051428 0.045786 0.040732 0.045786 0.052743 0.048452 0.046455 0.059567 0.051757 0.056333 0.056333 0.052414 0.059567 0.068160 0.068160 0.069102 0.059567 0.043437 0.030047 0.032837 0.041749 0.048784 0.051757 0.055358 0.062773 0.062773 0.074709 0.079319 0.104184 0.118850 0.075636 0.079625 0.082968 0.088976 0.069729 0.082968 0.119127 0.106474 0.097236 0.079625 0.070668 0.069102 0.078095 0.087482 0.069102 0.052414 0.051428 0.069102 0.077175 0.051428 0.036635 0.051428 0.069102 0.068160 0.051428 0.048784 0.048452 0.046455 0.067215 0.079625 0.107330 0.116905 0.119127 0.116627 0.128444 0.138626 0.138361 0.138361 0.116627 0.127630 0.116627 0.087482
0.003059 0.007593 0.012801 0.009835 0.006466 0.009463 0.010951 0.009463 0.019375 0.022613 0.019375 0.018651 0.012801 0.007593 0.009835 0.013538 0.009835 0.006466 0.003440 0.001916 0.000384 0.000768 0.004956 0.009463 0.015373 0.015373 0.015373 0.015373 0.015373 0.022613 0.031096 0.048452 0.041749 0.052414 0.068160 0.059567 0.069102 0.087482 0.107330 0.078095 0.062134 0.062134 0.075636 0.091057 0.088976 0.077175 0.078095 0.077175 0.077175 0.078095 0.069102 0.056333 0.048784 0.060532 0.070668 0.069102 0.036635 0.018651 0.019736 0.012801 0.015007 0.015007 0.019736 0.025110 0.024042 0.052414 0.081756 0.072849 0.069102 0.081756 0.079014 0.096944 0.110169 0.096944 0.087781 0.096066 0.087482 0.079014 0.087781 0.075636 0.088976 0.106188 0.107330 0.096359 0.106474 0.110734 0.081756 0.070668 0.068160 0.062134 0.069102 0.076867 0.084479 0.110169 0.101014 0.084479 0.082666 0.076867 0.079319 0.084479 0.075636 0.044781 0.048452 0.041749 0.051757 0.069102 0.076867 0.060532 0.048784 0.046455 0.048784 0.048784 0.056333 0.044781 0.038348 0.048784 0.086284 0.129797 0.127630 0.127358 0.108752 0.106474 0.116348 0.126542 0.096944 0.096066 0.100725 0.096359 0.118850 0.121062 0.151938 0.190688 0.148841 0.170099 0.185681 0.151165 0.119127 0.077175 0.052414 0.054052 0.051428 0.059245 0.052414 0.009835 0.000384 0.000384 0.001534 0.001534 0.000768 0.000000 0.000768 0.000384 0.000000 0.000768 0.000384 0.000000 0.000000 0.000384 0.000384 0.000384 0.000768 0.000384 0.000384 0.001916 0.013538 0.021537 0.016834 0.026882 0.037664 0.048784 0.051757 0.038348 0.042087 0.052743 0.056982 0.051428 0.051428 0.024042 0.024042 0.019375 0.009835 0.016834 0.006466 0.003059 0.000384 0.000384 0.000768 0.000768 0.006466 0.000768 0.015373 0.004956 0.013906 0.003820 0.000384 0.018651 0.035604 0.048452 0.055358 0.040732 0.051428 0.069729 0.064365 0.059567 0.062773 0.079014 0.091649 0.082968 0.070668 0.067215 0.056333 0.062134 0.077175 0.068160 0.059567 0.068160 0.062134 0.054052 0.037664 0.031096 0.025110 0.032837 0.041749 0.044781 0.044781 0.051757 0.055358 0.062773 0.087781 0.133832 0.211599 0.192346 0.165124 0.136236 0.133028 0.101014 0.098693 0.113270 0.096944 0.087482 0.092536 0.096066 0.091649 0.079014 0.091649 0.091649 0.084479 0.081756 0.069102 0.060532 0.054052 0.044781 0.051428 0.069102 0.054052 0.038348 0.046455 0.051428 0.041749 0.060532 0.096359 0.116627 0.138626 0.117740 0.116905 0.127358 0.149617 0.149875 0.128444 0.116627 0.116905 0.100725 0.079319
0.013538 0.013906 0.018651 0.025110 0.016834 0.015007 0.016834 0.015373 0.012801 0.022613 0.015373 0.016834 0.016834 0.015007 0.013906 0.009835 0.007593 0.007593 0.004956 0.003820 0.003059 0.004956 0.015373 0.012062 0.018651 0.018651 0.018651 0.015373 0.027235 0.045786 0.045786 0.045786 0.036292 0.048452 0.051428 0.051099 0.068160 0.096359 0.086284 0.068160 0.068160 0.068160 0.059245 0.088976 0.108752 0.079625 0.070668 0.067845 0.077175 0.070668 0.056333 0.062773 0.072849 0.062134 0.060532 0.086584 0.060532 0.023685 0.018651 0.013906 0.009835 0.006089 0.006466 0.025110 0.030047 0.036292 0.072849 0.096944 0.072849 0.056333 0.064365 0.081756 0.110169 0.106474 0.082968 0.070668 0.087781 0.091057 0.093716 0.088976 0.098693 0.098693 0.100725 0.110734 0.100725 0.096944 0.103322 0.088976 0.078095 0.087482 0.076867 0.052414 0.041749 0.069102 0.086584 0.059245 0.059245 0.060532 0.036635 0.036292 0.048784 0.044781 0.051099 0.043437 0.043773 0.059567 0.069102 0.054052 0.046455 0.046455 0.037664 0.046455 0.048452 0.057630 0.051757 0.070668 0.116905 0.116627 0.096359 0.098693 0.103322 0.103322 0.110169 0.114392 0.121062 0.115231 0.096359 0.079319 0.098111 0.125724 0.165874 0.219731 0.173305 0.137034 0.171088 0.194469 0.164874 0.121062 0.088976 0.087482 0.087781 0.084479 0.054052 0.009463 0.000768 0.000384 0.001534 0.000384 0.000768 0.000384 0.000384 0.000768 0.000768 0.000768 0.000000 0.000000 0.000000 0.000384 0.000384 0.000000 0.000768 0.001534 0.000768 0.000384 0.018651 0.029697 0.018651 0.025110 0.037664 0.052414 0.044781 0.039372 0.041749 0.051757 0.048452 0.042087 0.027235 0.015373 0.016834 0.009835 0.009835 0.003440 0.001916 0.004956 0.003059 0.000768 0.001916 0.003059 0.003059 0.021537 0.009463 0.007593 0.003059 0.001534 0.001916 0.013906 0.036292 0.051428 0.063092 0.074709 0.062773 0.082968 0.096066 0.091649 0.084479 0.100725 0.106474 0.109886 0.087482 0.062773 0.056333 0.059567 0.059567 0.059567 0.051428 0.051428 0.056333 0.056333 0.046455 0.046455 0.039372 0.031096 0.032837 0.038348 0.038348 0.044781 0.051757 0.062134 0.078095 0.121062 0.181107 0.208173 0.153735 0.165124 0.199855 0.177709 0.151938 0.141268 0.133028 0.117740 0.112426 0.115231 0.109886 0.096066 0.091649 0.100725 0.096066 0.096066 0.100725 0.082968 0.062773 0.059245 0.056333 0.059245 0.059567 0.045786 0.046455 0.052743 0.046455 0.060532 0.098693 0.117740 0.127630 0.127630 0.116905 0.127630 0.138626 0.128444 0.129797 0.116905 0.106474 0.087781 0.082666
0.019736 0.018651 0.018651 0.015007 0.016834 0.016834 0.016834 0.026528 0.022613 0.015373 0.024042 0.019375 0.016834 0.016834 0.015007 0.010951 0.007593 0.009463 0.009463 0.003059 0.003440 0.009463 0.015373 0.018651 0.022613 0.018651 0.019375 0.026528 0.040732 0.040732 0.031096 0.040732 0.036292 0.040732 0.032489 0.064365 0.081756 0.079625 0.086584 0.067845 0.059245 0.068160 0.108752 0.130067 0.096944 0.084479 0.059245 0.046455 0.052414 0.051428 0.044781 0.054052 0.068160 0.078095 0.087482 0.069102 0.043773 0.025110 0.013906 0.021537 0.019736 0.009463 0.012801 0.024042 0.037664 0.031096 0.031096 0.075636 0.093716 0.079625 0.075636 0.062134 0.084479 0.093716 0.084479 0.091057 0.086584 0.077175 0.087482 0.087482 0.088976 0.100725 0.098693 0.098693 0.093716 0.103322 0.113270 0.110169 0.081756 0.081756 0.079014 0.070668 0.064365 0.054052 0.067215 0.075636 0.072849 0.064365 0.048784 0.036635 0.051099 0.067845 0.051428 0.031096 0.037664 0.062134 0.064365 0.059245 0.048784 0.056333 0.046455 0.027235 0.040732 0.059567 0.075636 0.097236 0.119127 0.113270 0.103322 0.091057 0.093716 0.087781 0.091649 0.096066 0.087482 0.096066 0.090166 0.057630 0.062773 0.098693 0.140741 0.184722 0.192346 0.109886 0.125179 0.211599 0.236717 0.141268 0.118850 0.103322 0.087781 0.093716 0.087482 0.027235 0.004956 0.001916 0.001916 0.000768 0.000384 0.000384 0.000000 0.000384 0.000384 0.000000 0.000000 0.000000 0.000000 0.000384 0.000384 0.000000 0.000384 0.000384 0.000768 0.001534 0.013906 0.030047 0.024042 0.030047 0.037664 0.043437 0.051099 0.043773 0.043773 0.054052 0.039372 0.026882 0.018651 0.009835 0.006089 0.006466 0.007593 0.004956 0.000384 0.001916 0.001916 0.001534 0.000384 0.001916 0.009835 0.019736 0.010951 0.009835 0.003440 0.000384 0.032489 0.024042 0.051757 0.064365 0.087781 0.096944 0.091649 0.079014 0.091649 0.100725 0.091057 0.100725 0.105044 0.098111 0.082666 0.052743 0.039372 0.044781 0.036635 0.036292 0.036292 0.036635 0.046455 0.048784 0.054052 0.046455 0.048784 0.041749 0.035259 0.038348 0.035259 0.039372 0.054052 0.069102 0.067845 0.069102 0.082666 0.082666 0.076867 0.096066 0.139420 0.168115 0.157308 0.157308 0.165124 0.142845 0.124358 0.114392 0.110169 0.105044 0.100725 0.087482 0.098111 0.115231 0.106474 0.098111 0.092536 0.079319 0.066899 0.064365 0.056982 0.059567 0.066899 0.070668 0.068160 0.072849 0.084479 0.108752 0.107330 0.116905 0.106474 0.117740 0.116627 0.117740 0.129797 0.117740 0.098693 0.082666 0.098111
0.018289 0.018651 0.015007 0.021537 0.021537 0.019736 0.012801 0.024042 0.040732 0.024042 0.018651 0.021537 0.027235 0.021537 0.021537 0.012801 0.006842 0.006842 0.009463 0.006842 0.003440 0.015373 0.022613 0.018651 0.018651 0.022613 0.026528 0.022613 0.027235 0.027235 0.031096 0.040732 0.038348 0.046455 0.057630 0.064365 0.064365 0.075636 0.060532 0.059245 0.060532 0.100725 0.144939 0.121062 0.093716 0.070668 0.056333 0.055358 0.055358 0.039372 0.036635 0.062134 0.084479 0.093716 0.098693 0.060532 0.032837 0.025110 0.015007 0.010951 0.010951 0.009463 0.015007 0.031096 0.024042 0.041749 0.046455 0.059567 0.088976 0.052414 0.060532 0.081756 0.078095 0.100725 0.079625 0.097236 0.106188 0.076867 0.076867 0.078095 0.076867 0.096359 0.106474 0.087482 0.078095 0.087482 0.081756 0.103322 0.110734 0.072849 0.067215 0.079014 0.070668 0.067215 0.070668 0.070668 0.079014 0.067215 0.064365 0.068160 0.051428 0.037664 0.041749 0.041749 0.039372 0.048784 0.059245 0.062773 0.059245 0.062773 0.051428 0.036292 0.040732 0.067215 0.093716 0.088976 0.093716 0.110169 0.124085 0.110169 0.087781 0.087781 0.081756 0.091057 0.088976 0.069102 0.060532 0.051428 0.078095 0.108752 0.106188 0.127630 0.144939 0.101014 0.074709 0.114392 0.179896 0.165874 0.139420 0.128444 0.081756 0.067215 0.071604 0.052743 0.015373 0.003059 0.003059 0.001916 0.001534 0.000384 0.000000 0.000000 0.000000 0.000000 0.000000 0.000000 0.000000 0.000384 0.000384 0.000000 0.000384 0.000384 0.000384 0.000384 0.013538 0.044781 0.030047 0.031096 0.030047 0.036292 0.051428 0.043773 0.054052 0.060532 0.037664 0.018651 0.009835 0.007593 0.009463 0.006842 0.007593 0.009835 0.001916 0.000384 0.000768 0.000768 0.000768 0.003059 0.012801 0.016834 0.015007 0.006842 0.004956 0.026528 0.046455 0.031096 0.070668 0.084479 0.100725 0.100725 0.105044 0.091649 0.087781 0.096944 0.091057 0.081756 0.101014 0.110169 0.088976 0.057630 0.032837 0.036635 0.044781 0.043773 0.036635 0.036292 0.039372 0.046455 0.039372 0.041749 0.041749 0.041749 0.041749 0.044781 0.048784 0.044781 0.059567 0.068160 0.060532 0.036292 0.067215 0.064365 0.056333 0.079014 0.082968 0.115231 0.130067 0.118850 0.149875 0.164874 0.153735 0.130067 0.105044 0.101014 0.112426 0.096359 0.096359 0.118850 0.127358 0.112426 0.098111 0.098111 0.076867 0.063092 0.064365 0.067215 0.084479 0.103322 0.097236 0.088976 0.100725 0.103322 0.107330 0.106474 0.106474 0.107330 0.106474 0.116905 0.119127 0.121062 0.087482 0.090166 0.098111
0.025110 0.019736 0.018651 0.018651 0.021537 0.022613 0.012801 0.012801 0.029346 0.032489 0.029346 0.016834 0.016834 0.026882 0.019375 0.015373 0.009463 0.007593 0.009463 0.004956 0.004956 0.015373 0.015373 0.015373 0.022613 0.022613 0.018651 0.018651 0.031096 0.029346 0.042087 0.040732 0.051428 0.066899 0.056982 0.035604 0.062773 0.067215 0.044781 0.069102 0.103322 0.110169 0.113270 0.121062 0.079625 0.070668 0.079625 0.070668 0.042087 0.021537 0.044781 0.091057 0.091057 0.064365 0.059245 0.068160 0.048784 0.024042 0.016834 0.004956 0.000768 0.006089 0.018651 0.030047 0.024042 0.018651 0.054052 0.069102 0.079625 0.091057 0.051428 0.062134 0.078095 0.077175 0.100725 0.119127 0.107330 0.077175 0.067845 0.086284 0.096359 0.087482 0.086284 0.086584 0.086584 0.078095 0.078095 0.097236 0.091057 0.075636 0.059245 0.059245 0.075636 0.081756 0.079625 0.048784 0.059245 0.084479 0.081756 0.067215 0.051757 0.048784 0.044781 0.044781 0.044781 0.055358 0.055358 0.071604 0.055358 0.046455 0.056982 0.057630 0.048452 0.064365 0.093716 0.103322 0.081756 0.079625 0.098693 0.108752 0.096359 0.097236 0.097236 0.087482 0.086584 0.087482 0.087482 0.075636 0.079014 0.084479 0.097236 0.117740 0.087482 0.072849 0.077175 0.106474 0.163371 0.186878 0.139420 0.084479 0.071604 0.076867 0.076867 0.069729 0.045786 0.015373 0.004956 0.003820 0.001534 0.000384 0.000000 0.000000 0.000000 0.000000 0.000000 0.000000 0.000000 0.000384 0.000384 0.000000 0.000384 0.000384 0.000384 0.001534 0.006089 0.044781 0.054052 0.030047 0.023685 0.043773 0.059567 0.060532 0.054052 0.043773 0.030047 0.012801 0.012062 0.004956 0.003820 0.009835 0.013538 0.006089 0.001534 0.001534 0.000384 0.000000 0.000768 0.009463 0.015373 0.021537 0.006466 0.006842 0.013538 0.064365 0.051428 0.062773 0.068160 0.093716 0.093716 0.100725 0.105044 0.091649 0.087781 0.087781 0.093716 0.075636 0.098111 0.117740 0.103034 0.069729 0.054052 0.051099 0.051099 0.059567 0.051428 0.036635 0.037664 0.041749 0.035259 0.039372 0.041749 0.041749 0.041749 0.048784 0.054052 0.051428 0.059245 0.060532 0.048452 0.044781 0.072849 0.070668 0.044781 0.062773 0.087482 0.096066 0.112426 0.110734 0.136236 0.175023 0.185442 0.149100 0.118850 0.103034 0.125179 0.117740 0.103034 0.112426 0.127358 0.127358 0.112426 0.104184 0.096359 0.063092 0.067215 0.079625 0.098693 0.121062 0.117740 0.129797 0.126542 0.103322 0.108752 0.106474 0.106474 0.107330 0.106474 0.106474 0.108752 0.110169 0.095773 0.104184 0.110734
0.019736 0.019736 0.019736 0.016834 0.015373 0.015373 0.015373 0.012801 0.024042 0.024042 0.021537 0.032489 0.021537 0.022613 0.019375 0.019375 0.010951 0.003820 0.004956 0.004956 0.000768 0.010951 0.016834 0.019375 0.019375 0.019375 0.019375 0.022613 0.022613 0.024042 0.048784 0.055358 0.057630 0.056982 0.045786 0.045786 0.075636 0.052743 0.041749 0.096944 0.116348 0.103322 0.116348 0.100725 0.078095 0.069102 0.077175 0.068160 0.025110 0.015007 0.043773 0.077175 0.084479 0.054052 0.056333 0.103322 0.075636 0.024042 0.006089 0.004956 0.012801 0.012801 0.015373 0.035259 0.037664 0.022613 0.026882 0.059245 0.070668 0.069102 0.072849 0.110734 0.106474 0.046455 0.059567 0.116905 0.128444 0.096359 0.086284 0.086584 0.096359 0.087482 0.078095 0.076867 0.069102 0.079625 0.081756 0.079625 0.081756 0.067215 0.067215 0.070668 0.070668 0.081756 0.075636 0.062773 0.062134 0.075636 0.070668 0.074709 0.067215 0.041749 0.042087 0.052743 0.051428 0.052743 0.057630 0.071604 0.079319 0.042087 0.036292 0.046455 0.082968 0.075636 0.081756 0.103322 0.113270 0.108752 0.108752 0.116905 0.127358 0.108752 0.084479 0.084479 0.093716 0.081756 0.091057 0.091057 0.087781 0.075636 0.087781 0.091057 0.078095 0.088976 0.093716 0.147804 0.205185 0.139420 0.064365 0.057630 0.059567 0.066899 0.071604 0.075636 0.056982 0.040732 0.015007 0.006466 0.003440 0.000384 0.000000 0.000000 0.000384 0.000000 0.000000 0.000000 0.000000 0.000384 0.000384 0.000000 0.000384 0.000768 0.000384 0.000768 0.000768 0.026882 0.079319 0.059245 0.046455 0.044781 0.062134 0.062134 0.046455 0.035259 0.026528 0.012062 0.016834 0.019736 0.009463 0.006089 0.009835 0.009463 0.001534 0.000384 0.001916 0.001534 0.006842 0.015373 0.019375 0.009463 0.007593 0.006466 0.038348 0.076867 0.057630 0.052743 0.024042 0.039372 0.064365 0.091649 0.109886 0.087482 0.079014 0.075636 0.075636 0.070668 0.090166 0.125724 0.110734 0.064365 0.060532 0.059567 0.059567 0.051428 0.052414 0.037664 0.032837 0.035259 0.046455 0.039372 0.048784 0.048784 0.039372 0.046455 0.054052 0.051428 0.043437 0.048784 0.052743 0.059245 0.059245 0.062773 0.059245 0.048784 0.056333 0.074709 0.090166 0.098111 0.124358 0.164874 0.187595 0.182798 0.148841 0.125724 0.117740 0.125724 0.112426 0.106474 0.106474 0.115231 0.118850 0.110734 0.103034 0.079319 0.079625 0.096359 0.106474 0.119127 0.127630 0.129797 0.121062 0.110734 0.098693 0.096359 0.106474 0.117740 0.106474 0.106474 0.110734 0.133832 0.149875 0.134100 0.136236
0.010951 0.010951 0.010951 0.012801 0.015373 0.018651 0.015373 0.009463 0.024042 0.035259 0.024042 0.019375 0.016834 0.021537 0.021537 0.019736 0.019736 0.006089 0.003440 0.003820 0.001534 0.018651 0.021537 0.019375 0.019375 0.019375 0.019375 0.019375 0.019375 0.024042 0.055358 0.064365 0.064365 0.063092 0.051428 0.069729 0.088976 0.052743 0.063092 0.105044 0.100725 0.114392 0.114392 0.087781 0.064365 0.062134 0.068160 0.070668 0.036635 0.015007 0.024042 0.037664 0.082968 0.082968 0.048784 0.064365 0.071604 0.066899 0.059245 0.024042 0.015373 0.016834 0.026528 0.040732 0.051428 0.032489 0.046455 0.087482 0.119127 0.130067 0.117740 0.106474 0.087482 0.036292 0.067215 0.113270 0.106474 0.096359 0.091057 0.100725 0.108752 0.097236 0.068160 0.051428 0.060532 0.062134 0.079625 0.097236 0.069102 0.062134 0.069102 0.070668 0.064365 0.070668 0.079319 0.074709 0.070668 0.066899 0.070668 0.075636 0.079014 0.048452 0.031096 0.045786 0.057630 0.051757 0.048452 0.056333 0.074709 0.042087 0.032489 0.032837 0.059245 0.093716 0.088976 0.088976 0.098693 0.097236 0.116905 0.138626 0.138626 0.150650 0.119127 0.100725 0.084479 0.081756 0.091057 0.087482 0.079625 0.079625 0.091057 0.079625 0.081756 0.100725 0.110734 0.123537 0.076867 0.084479 0.091649 0.059245 0.064365 0.048784 0.038348 0.052743 0.055358 0.048784 0.029697 0.009463 0.003440 0.000384 0.000000 0.000768 0.000384 0.000384 0.000000 0.000000 0.000000 0.000384 0.000384 0.000000 0.000000 0.000768 0.000384 0.000768 0.001534 0.003820 0.052743 0.092536 0.059567 0.055358 0.066899 0.084479 0.069729 0.057630 0.051428 0.029346 0.015007 0.016834 0.012801 0.015007 0.015007 0.006842 0.007593 0.006089 0.006466 0.006466 0.016834 0.012062 0.015373 0.004956 0.006466 0.019736 0.057630 0.051428 0.026528 0.012062 0.003820 0.009463 0.013538 0.041749 0.084479 0.092536 0.070668 0.070668 0.062773 0.062773 0.069102 0.112426 0.112426 0.064365 0.051428 0.051099 0.059567 0.052414 0.054052 0.048784 0.039372 0.037664 0.046455 0.046455 0.046455 0.051757 0.048784 0.037664 0.044781 0.044781 0.043773 0.048452 0.062773 0.056333 0.064365 0.062134 0.054052 0.060532 0.043437 0.032837 0.062773 0.079014 0.087781 0.119127 0.139420 0.149875 0.141268 0.134100 0.121062 0.121062 0.109886 0.109886 0.105044 0.098111 0.103034 0.117740 0.118850 0.106474 0.106474 0.116627 0.096359 0.097236 0.106474 0.107330 0.110734 0.108752 0.097236 0.097236 0.108752 0.107330 0.086284 0.086584 0.079625 0.114392 0.187595 0.197755 0.175023
0.007593 0.007593 0.007593 0.009463 0.012062 0.015373 0.019375 0.012801 0.013538 0.024042 0.024042 0.032837 0.026882 0.013538 0.019736 0.018289 0.018651 0.009835 0.001916 0.003440 0.000768 0.023685 0.031096 0.021537 0.016834 0.019375 0.019375 0.016834 0.019375 0.035259 0.055358 0.064365 0.070668 0.069102 0.075636 0.096359 0.075636 0.046455 0.057630 0.079014 0.113270 0.119957 0.105044 0.079319 0.071604 0.064365 0.046455 0.056333 0.059245 0.024042 0.018651 0.018289 0.036292 0.081756 0.077175 0.059567 0.043773 0.039372 0.059245 0.062134 0.024042 0.012062 0.035604 0.064365 0.046455 0.031096 0.069729 0.103034 0.124358 0.151938 0.110169 0.117740 0.084479 0.057630 0.095773 0.091649 0.105044 0.140477 0.130067 0.087781 0.084479 0.068160 0.051428 0.051428 0.052414 0.069102 0.086584 0.086584 0.072849 0.060532 0.062134 0.059245 0.069729 0.069729 0.084479 0.092536 0.079319 0.079014 0.081756 0.064365 0.059245 0.057630 0.040732 0.040732 0.056333 0.054052 0.046455 0.044781 0.048784 0.051757 0.031096 0.032837 0.052414 0.093716 0.098693 0.096359 0.117740 0.131685 0.130067 0.123537 0.123537 0.150650 0.173059 0.098693 0.062134 0.069102 0.069102 0.077175 0.086284 0.077175 0.077175 0.086284 0.086584 0.086584 0.096359 0.096066 0.088976 0.068160 0.064365 0.062134 0.056333 0.051757 0.035259 0.037664 0.051428 0.068160 0.036635 0.006089 0.003440 0.000384 0.000768 0.000768 0.000384 0.000384 0.000000 0.000000 0.000000 0.000384 0.000384 0.000000 0.000000 0.000384 0.000384 0.000384 0.000384 0.000768 0.010951 0.076867 0.098111 0.064365 0.057630 0.075636 0.075636 0.063092 0.066899 0.052743 0.031096 0.031096 0.026528 0.018651 0.019375 0.016834 0.013906 0.013906 0.006466 0.007593 0.009463 0.009463 0.012062 0.006842 0.009463 0.027235 0.026528 0.012801 0.006089 0.006466 0.001534 0.000384 0.000768 0.006089 0.038348 0.079319 0.066899 0.055358 0.048452 0.057630 0.064365 0.087482 0.092536 0.066899 0.043773 0.051099 0.051428 0.052414 0.054052 0.056333 0.048784 0.039372 0.037664 0.046455 0.048784 0.048784 0.056333 0.054052 0.060532 0.059567 0.059567 0.046455 0.091057 0.069102 0.060532 0.062134 0.062134 0.067845 0.043437 0.018651 0.036635 0.070668 0.070668 0.084479 0.096944 0.100725 0.100725 0.105044 0.105044 0.114392 0.114392 0.109886 0.110734 0.118850 0.118850 0.112426 0.119127 0.156035 0.161359 0.139420 0.098693 0.087482 0.096066 0.108752 0.100725 0.098693 0.097236 0.107330 0.097236 0.076867 0.068160 0.037664 0.039372 0.056333 0.109886 0.171088 0.187595
0.004956 0.004956 0.004956 0.004956 0.009463 0.012801 0.019375 0.032489 0.013538 0.010951 0.025110 0.019736 0.032837 0.024042 0.019736 0.023685 0.013906 0.006466 0.006466 0.003820 0.003059 0.026882 0.037664 0.018651 0.019736 0.019736 0.012801 0.016834 0.021537 0.035259 0.044781 0.059567 0.098693 0.087781 0.075636 0.069729 0.059567 0.048452 0.046455 0.069729 0.103322 0.134100 0.119957 0.096066 0.084479 0.082666 0.069102 0.066899 0.018651 0.010951 0.030047 0.044781 0.037664 0.059245 0.086284 0.059567 0.026882 0.032489 0.059245 0.062773 0.055358 0.046455 0.036292 0.030047 0.018651 0.040732 0.079319 0.125724 0.158831 0.148841 0.096066 0.069729 0.048452 0.069729 0.082666 0.098111 0.151938 0.109886 0.084479 0.081756 0.064365 0.043773 0.051428 0.043773 0.051099 0.068160 0.086584 0.069102 0.064365 0.070668 0.055358 0.045786 0.051428 0.084479 0.079319 0.087482 0.100725 0.088976 0.081756 0.070668 0.048452 0.040732 0.036292 0.052414 0.068160 0.052414 0.044781 0.044781 0.037664 0.046455 0.039372 0.032837 0.039372 0.078095 0.128444 0.138361 0.153735 0.156035 0.137034 0.126542 0.113270 0.116348 0.127630 0.107330 0.068160 0.068160 0.076867 0.068160 0.076867 0.086584 0.076867 0.076867 0.086284 0.096359 0.096359 0.077175 0.069102 0.070668 0.060532 0.054052 0.051757 0.046455 0.051428 0.060532 0.070668 0.062134 0.023685 0.006466 0.003440 0.001534 0.000768 0.000000 0.000384 0.000384 0.000000 0.000000 0.000000 0.000384 0.000384 0.000000 0.000000 0.000768 0.000384 0.000384 0.000384 0.000384 0.001534 0.016834 0.088976 0.096359 0.075636 0.063092 0.082666 0.062773 0.055358 0.046455 0.031096 0.031096 0.040732 0.036292 0.022613 0.016834 0.010951 0.010951 0.009835 0.009835 0.009463 0.012062 0.012062 0.006842 0.006842 0.009463 0.009463 0.004956 0.006466 0.007593 0.000768 0.000768 0.004956 0.006466 0.009463 0.048452 0.064365 0.064365 0.046455 0.045786 0.066899 0.079014 0.064365 0.055358 0.043773 0.043773 0.043773 0.052414 0.054052 0.051757 0.051757 0.046455 0.037664 0.037664 0.046455 0.056333 0.062134 0.086584 0.096359 0.087482 0.040732 0.077175 0.098693 0.070668 0.052414 0.052414 0.078095 0.086584 0.051428 0.023685 0.024042 0.052414 0.060532 0.069102 0.088976 0.088976 0.081756 0.081756 0.091057 0.091057 0.096066 0.095773 0.124358 0.139420 0.161359 0.136236 0.113270 0.172813 0.173797 0.137034 0.116348 0.087482 0.096359 0.097236 0.098693 0.088976 0.088976 0.087482 0.076867 0.051428 0.038348 0.027235 0.024042 0.031096 0.042087 0.069729 0.106474
0.003059 0.003059 0.003820 0.003820 0.004956 0.007593 0.007593 0.032837 0.038348 0.009835 0.018651 0.024042 0.029697 0.018289 0.023685 0.036635 0.015007 0.003820 0.006466 0.001534 0.010951 0.029346 0.018651 0.018651 0.018289 0.018651 0.018651 0.019375 0.021537 0.026882 0.023685 0.068160 0.107330 0.097236 0.076867 0.054052 0.042087 0.044781 0.066899 0.090166 0.110734 0.148841 0.126542 0.091649 0.082968 0.071604 0.064365 0.046455 0.026882 0.029346 0.040732 0.051428 0.045786 0.062134 0.068160 0.041749 0.024042 0.025110 0.043773 0.052414 0.046455 0.041749 0.051757 0.059245 0.059245 0.075636 0.114392 0.130067 0.074709 0.052414 0.059567 0.043437 0.064365 0.075636 0.074709 0.121062 0.106474 0.071604 0.075636 0.072849 0.052414 0.044781 0.052414 0.044781 0.052414 0.059567 0.059567 0.060532 0.060532 0.059567 0.040732 0.052743 0.044781 0.055358 0.072849 0.078095 0.106474 0.098693 0.059245 0.064365 0.044781 0.039372 0.059245 0.059567 0.051099 0.043773 0.043437 0.043773 0.036635 0.036635 0.032837 0.030047 0.059245 0.098693 0.117740 0.162114 0.175023 0.149875 0.127630 0.106474 0.116905 0.108752 0.086584 0.078095 0.069102 0.076867 0.086584 0.076867 0.067845 0.076867 0.086284 0.086584 0.096066 0.096359 0.077175 0.069102 0.069102 0.068160 0.059567 0.036635 0.052414 0.076867 0.070668 0.075636 0.067215 0.048784 0.024042 0.006466 0.001916 0.001916 0.000384 0.000000 0.000384 0.000384 0.000000 0.000000 0.000000 0.000768 0.000384 0.000000 0.000384 0.000768 0.000000 0.000384 0.000384 0.000384 0.001534 0.000768 0.026528 0.088976 0.103034 0.076867 0.079319 0.082968 0.059567 0.042087 0.035604 0.018651 0.027235 0.027235 0.022613 0.012062 0.010951 0.013906 0.018651 0.018651 0.019736 0.012801 0.006842 0.003059 0.003820 0.009835 0.010951 0.009463 0.024042 0.012062 0.006466 0.009835 0.009835 0.006842 0.009463 0.019736 0.031096 0.045786 0.056982 0.057630 0.074709 0.070668 0.046455 0.035259 0.043773 0.036292 0.036292 0.043773 0.048784 0.051757 0.048784 0.048784 0.039372 0.037664 0.037664 0.044781 0.067845 0.096359 0.044781 0.044781 0.086284 0.067845 0.072849 0.081756 0.069102 0.059567 0.068160 0.076867 0.051428 0.030047 0.023685 0.043437 0.068160 0.067845 0.076867 0.077175 0.077175 0.086584 0.087482 0.067215 0.063092 0.100725 0.124085 0.143631 0.181107 0.196115 0.173797 0.149875 0.123537 0.105044 0.100725 0.088976 0.086584 0.098693 0.098693 0.087482 0.087482 0.059567 0.052414 0.042087 0.026528 0.026882 0.036635 0.032837 0.031096 0.035604 0.048452
0.003059 0.004956 0.003820 0.003059 0.003820 0.009835 0.009835 0.009463 0.029346 0.030047 0.023685 0.023685 0.037664 0.025110 0.026882 0.041749 0.016834 0.004956 0.004956 0.000384 0.015007 0.019736 0.009463 0.015007 0.024042 0.025110 0.036292 0.025110 0.016834 0.015007 0.018651 0.043437 0.100725 0.110169 0.109886 0.091649 0.070668 0.056333 0.057630 0.069729 0.090166 0.082968 0.091057 0.093716 0.079014 0.074709 0.069729 0.046455 0.056333 0.059245 0.082666 0.088976 0.056333 0.048784 0.038348 0.036292 0.039372 0.059567 0.088976 0.044781 0.038348 0.038348 0.035259 0.075636 0.106474 0.093716 0.087781 0.072849 0.060532 0.059245 0.067215 0.105044 0.101014 0.092536 0.109886 0.119127 0.087781 0.064365 0.048784 0.059245 0.048784 0.051757 0.059245 0.051757 0.051757 0.062134 0.062134 0.043437 0.023685 0.031096 0.043773 0.036292 0.037664 0.068160 0.096066 0.096359 0.076867 0.056333 0.044781 0.060532 0.076867 0.054052 0.054052 0.054052 0.052414 0.052414 0.044781 0.036635 0.036292 0.030047 0.036292 0.056333 0.082968 0.103322 0.123537 0.153735 0.139420 0.106474 0.127630 0.138361 0.127630 0.106474 0.078095 0.078095 0.086584 0.077175 0.076867 0.076867 0.076867 0.086584 0.086284 0.076867 0.086284 0.087482 0.069102 0.068160 0.077175 0.077175 0.060532 0.046455 0.051428 0.086284 0.096066 0.078095 0.064365 0.038348 0.009463 0.006089 0.003820 0.000768 0.000000 0.000000 0.000384 0.000384 0.000000 0.000000 0.000384 0.000768 0.000000 0.000000 0.000384 0.000384 0.000000 0.000384 0.000384 0.000384 0.000384 0.000384 0.000384 0.015007 0.096359 0.112426 0.098111 0.090166 0.076867 0.042087 0.027235 0.019375 0.019736 0.024042 0.016834 0.009463 0.013538 0.009463 0.013538 0.018651 0.013906 0.013538 0.003820 0.001916 0.001916 0.009463 0.019736 0.025110 0.006466 0.000768 0.003059 0.004956 0.003820 0.010951 0.012062 0.015007 0.031096 0.022613 0.035604 0.052743 0.082968 0.082968 0.036292 0.037664 0.036292 0.036292 0.043437 0.036635 0.039372 0.051757 0.051757 0.048784 0.046455 0.044781 0.037664 0.036292 0.070668 0.048784 0.064365 0.059245 0.052414 0.048784 0.064365 0.093716 0.098693 0.076867 0.069102 0.067845 0.043773 0.029697 0.031096 0.046455 0.059567 0.077175 0.078095 0.077175 0.077175 0.068160 0.059245 0.064365 0.081756 0.110734 0.119957 0.134100 0.148841 0.192346 0.193291 0.134100 0.105044 0.092536 0.087781 0.097236 0.097236 0.098693 0.097236 0.097236 0.076867 0.060532 0.048784 0.052743 0.048452 0.024042 0.043437 0.026528 0.036292 0.032489 0.048784
0.001916 0.003820 0.003820 0.003820 0.006089 0.006089 0.009835 0.013538 0.023685 0.030047 0.023685 0.036635 0.046455 0.026882 0.044781 0.039372 0.007593 0.001916 0.000384 0.001916 0.015007 0.013906 0.003820 0.004956 0.021537 0.043773 0.043773 0.029697 0.018651 0.013906 0.013538 0.013538 0.046455 0.091649 0.091649 0.124085 0.137034 0.091057 0.052414 0.051428 0.056333 0.070668 0.098693 0.100725 0.093716 0.084479 0.070668 0.057630 0.070668 0.072849 0.091649 0.071604 0.052743 0.079014 0.062134 0.064365 0.104184 0.141268 0.109886 0.062773 0.096359 0.092536 0.096359 0.117740 0.079319 0.087482 0.109886 0.106474 0.098111 0.118850 0.141268 0.140741 0.110734 0.117740 0.103034 0.090166 0.087482 0.063092 0.069729 0.092536 0.076867 0.082666 0.071604 0.059567 0.041749 0.055358 0.041749 0.041749 0.051757 0.044781 0.039372 0.032837 0.044781 0.064365 0.069102 0.076867 0.062134 0.056333 0.069102 0.088976 0.079625 0.062134 0.062134 0.056333 0.048784 0.048784 0.025110 0.032837 0.056333 0.048452 0.071604 0.105044 0.087482 0.087781 0.110734 0.129797 0.139420 0.121062 0.119127 0.127358 0.107330 0.079625 0.079625 0.086584 0.096066 0.086284 0.076867 0.076867 0.077175 0.076867 0.076867 0.086584 0.078095 0.084479 0.093716 0.084479 0.075636 0.079319 0.069729 0.074709 0.081756 0.072849 0.093716 0.110734 0.086584 0.019736 0.003440 0.009463 0.003440 0.000768 0.000384 0.000384 0.000768 0.000384 0.000000 0.000000 0.000768 0.000384 0.000000 0.000000 0.000768 0.000384 0.000000 0.000768 0.000384 0.000384 0.000384 0.000768 0.010951 0.000384 0.012801 0.090166 0.104184 0.106474 0.096066 0.070668 0.032837 0.026882 0.024042 0.015007 0.006842 0.009835 0.009835 0.006466 0.009835 0.009835 0.013906 0.013538 0.009835 0.000384 0.000384 0.004956 0.016834 0.036292 0.046455 0.022613 0.006842 0.001916 0.003820 0.007593 0.012801 0.003440 0.031096 0.031096 0.031096 0.044781 0.070668 0.087482 0.048452 0.043437 0.043773 0.043773 0.043437 0.037664 0.032837 0.041749 0.048784 0.048784 0.046455 0.046455 0.039372 0.044781 0.051428 0.032837 0.060532 0.059245 0.059245 0.062773 0.064365 0.091057 0.119127 0.108752 0.068160 0.052414 0.052414 0.051099 0.048784 0.044781 0.056333 0.079625 0.078095 0.069102 0.059567 0.044781 0.055358 0.079625 0.107330 0.100725 0.119957 0.124085 0.124085 0.130067 0.126542 0.105044 0.104184 0.101014 0.091057 0.096359 0.096359 0.088976 0.098693 0.096066 0.078095 0.062134 0.059245 0.066899 0.079319 0.044781 0.026882 0.032489 0.038348 0.031096 0.036292
0.001916 0.003440 0.003820 0.003440 0.006089 0.006089 0.009463 0.015007 0.032837 0.030047 0.026882 0.046455 0.052414 0.039372 0.029346 0.018289 0.006466 0.000768 0.000768 0.001916 0.013906 0.006466 0.003059 0.009463 0.025110 0.036292 0.043773 0.036635 0.018289 0.009463 0.013538 0.023685 0.029697 0.062134 0.079625 0.087482 0.113270 0.096944 0.081756 0.097236 0.076867 0.064365 0.103322 0.113270 0.084479 0.070668 0.068160 0.067845 0.039372 0.040732 0.064365 0.055358 0.062773 0.059567 0.079014 0.105044 0.117740 0.141268 0.082666 0.091649 0.112426 0.119127 0.114392 0.092536 0.095773 0.130067 0.130067 0.118850 0.133028 0.148841 0.141268 0.117740 0.110169 0.110734 0.096359 0.103034 0.098111 0.076867 0.096359 0.082666 0.088976 0.063092 0.046455 0.040732 0.052743 0.074709 0.069729 0.076867 0.051428 0.031096 0.038348 0.046455 0.064365 0.075636 0.060532 0.051099 0.043773 0.059567 0.098693 0.107330 0.079625 0.052414 0.060532 0.060532 0.054052 0.041749 0.041749 0.066899 0.079319 0.079319 0.088976 0.066899 0.062773 0.067215 0.087482 0.127630 0.150650 0.119127 0.091057 0.093716 0.114392 0.106474 0.100725 0.107330 0.096359 0.078095 0.077175 0.088976 0.079625 0.079625 0.077175 0.059567 0.054052 0.067215 0.087482 0.098111 0.082666 0.082059 0.098111 0.096944 0.091649 0.087781 0.100725 0.123537 0.123537 0.036635 0.004956 0.006089 0.001916 0.001534 0.000384 0.000384 0.000384 0.000384 0.000384 0.000768 0.000768 0.000000 0.000000 0.000384 0.000768 0.000000 0.000384 0.000768 0.000000 0.000768 0.001534 0.001916 0.000384 0.003820 0.003059 0.046455 0.082968 0.105044 0.100725 0.082968 0.044781 0.029346 0.029346 0.022613 0.012801 0.009835 0.003820 0.006089 0.006466 0.015007 0.019736 0.009835 0.012062 0.006466 0.001916 0.003820 0.007593 0.018651 0.031096 0.035604 0.031096 0.016834 0.006089 0.006466 0.009835 0.000768 0.015373 0.026528 0.036292 0.044781 0.055358 0.057630 0.067215 0.051428 0.059245 0.051099 0.030047 0.032837 0.032837 0.039372 0.041749 0.041749 0.039372 0.032837 0.044781 0.069102 0.018651 0.068160 0.044781 0.041749 0.051757 0.056333 0.079625 0.097236 0.107330 0.100725 0.081756 0.064365 0.060532 0.077175 0.070668 0.051757 0.055358 0.064365 0.069102 0.051428 0.032489 0.048784 0.078095 0.106474 0.117740 0.110734 0.116348 0.124085 0.124085 0.114392 0.101014 0.090166 0.092536 0.100725 0.100725 0.086584 0.096359 0.098693 0.098693 0.086284 0.072849 0.067215 0.059245 0.070668 0.074709 0.070668 0.026528 0.032489 0.035259 0.048784 0.044781
0.006466 0.003440 0.003440 0.006466 0.006466 0.006089 0.024042 0.038348 0.035604 0.038348 0.048452 0.042087 0.048784 0.036635 0.018651 0.009463 0.004956 0.001916 0.001916 0.004956 0.006466 0.003820 0.001916 0.006842 0.037664 0.052414 0.037664 0.037664 0.025110 0.013538 0.013538 0.013538 0.023685 0.051428 0.096944 0.091057 0.100725 0.119127 0.105044 0.100725 0.110734 0.116905 0.108752 0.098693 0.069102 0.043773 0.036635 0.054052 0.069102 0.052414 0.052743 0.056982 0.059567 0.064365 0.087482 0.114392 0.103034 0.104184 0.063092 0.084479 0.117740 0.112426 0.124085 0.119127 0.133832 0.117740 0.142845 0.158831 0.165124 0.157308 0.141268 0.110734 0.096359 0.082666 0.084479 0.082666 0.064365 0.079319 0.076867 0.076867 0.064365 0.032489 0.069729 0.064365 0.076867 0.090166 0.082666 0.056982 0.057630 0.059567 0.096359 0.095773 0.069729 0.035604 0.035259 0.072849 0.079014 0.082968 0.084479 0.087482 0.077175 0.051428 0.059567 0.060532 0.060532 0.054052 0.055358 0.070668 0.074709 0.070668 0.055358 0.055358 0.056333 0.048784 0.070668 0.088976 0.097236 0.110169 0.119127 0.105044 0.110169 0.134100 0.134100 0.134100 0.119127 0.109886 0.098111 0.096359 0.125724 0.124358 0.124358 0.098111 0.075636 0.063092 0.075636 0.090166 0.090166 0.070668 0.091057 0.091057 0.079625 0.096359 0.096359 0.096359 0.129797 0.069102 0.006466 0.001916 0.001916 0.000768 0.000768 0.000384 0.000768 0.000768 0.000384 0.000384 0.000000 0.000000 0.000000 0.000768 0.000384 0.000000 0.000768 0.000384 0.000384 0.000768 0.000384 0.000384 0.000768 0.001534 0.003820 0.006466 0.070668 0.096066 0.109886 0.101014 0.071604 0.038348 0.027235 0.022613 0.021537 0.016834 0.010951 0.013538 0.012801 0.019375 0.006089 0.004956 0.010951 0.012801 0.003820 0.000768 0.000768 0.003440 0.010951 0.013906 0.024042 0.032489 0.021537 0.010951 0.022613 0.015373 0.010951 0.022613 0.032489 0.044781 0.052743 0.052743 0.052414 0.059245 0.059567 0.046455 0.032837 0.031096 0.044781 0.039372 0.035259 0.035259 0.035259 0.031096 0.052414 0.041749 0.068160 0.052414 0.032489 0.035259 0.056333 0.069102 0.077175 0.096359 0.097236 0.088976 0.072849 0.072849 0.097236 0.096066 0.077175 0.060532 0.046455 0.044781 0.036635 0.031096 0.046455 0.076867 0.096359 0.116905 0.117740 0.123537 0.119957 0.114392 0.109886 0.106474 0.098111 0.092536 0.096066 0.096944 0.100725 0.096359 0.097236 0.098693 0.097236 0.079625 0.067215 0.067215 0.059245 0.055358 0.064365 0.063092 0.045786 0.038348 0.025110 0.051099 0.076867
0.006466 0.006466 0.006466 0.006466 0.003820 0.027235 0.052743 0.042087 0.042087 0.045786 0.046455 0.046455 0.035604 0.021537 0.018289 0.006466 0.004956 0.001916 0.003820 0.003820 0.001916 0.000768 0.001534 0.007593 0.030047 0.041749 0.051757 0.044781 0.042087 0.024042 0.015007 0.024042 0.024042 0.018289 0.056333 0.101014 0.090166 0.118850 0.124358 0.164123 0.147804 0.134100 0.147804 0.100725 0.067215 0.051757 0.041749 0.059567 0.077175 0.088976 0.096066 0.069102 0.071604 0.082666 0.095773 0.100725 0.110169 0.110734 0.095773 0.145461 0.151938 0.134100 0.124358 0.138626 0.138626 0.175023 0.199855 0.181832 0.166124 0.134100 0.096359 0.084479 0.088976 0.076867 0.084479 0.071604 0.076867 0.084479 0.076867 0.069729 0.045786 0.069729 0.082666 0.069102 0.088976 0.082059 0.063092 0.088976 0.088976 0.090166 0.090166 0.052743 0.036292 0.035604 0.063092 0.098111 0.082968 0.066899 0.059245 0.068160 0.069102 0.051099 0.067845 0.068160 0.059567 0.069102 0.064365 0.064365 0.064365 0.056333 0.054052 0.041749 0.039372 0.054052 0.081756 0.078095 0.051099 0.059245 0.091649 0.124085 0.106474 0.105044 0.114392 0.124358 0.121062 0.117740 0.117740 0.117740 0.148841 0.173797 0.148841 0.134100 0.134100 0.110169 0.084479 0.082968 0.096944 0.098693 0.086284 0.096359 0.106474 0.100725 0.100725 0.100725 0.108752 0.068160 0.007593 0.001916 0.001916 0.000768 0.001534 0.001534 0.001534 0.000384 0.000384 0.000000 0.000384 0.000384 0.000768 0.000768 0.000000 0.000384 0.000768 0.000000 0.000384 0.000384 0.000384 0.000768 0.000384 0.003440 0.003440 0.003440 0.022613 0.079319 0.101014 0.112426 0.104184 0.064365 0.031096 0.024042 0.021537 0.021537 0.024042 0.018289 0.024042 0.006466 0.001916 0.003440 0.003440 0.010951 0.012062 0.006466 0.003820 0.004956 0.012801 0.012801 0.004956 0.019736 0.044781 0.062134 0.036292 0.006089 0.009463 0.026528 0.032489 0.036292 0.042087 0.059245 0.060532 0.051099 0.037664 0.041749 0.046455 0.043773 0.044781 0.044781 0.038348 0.035259 0.032837 0.036292 0.043773 0.035259 0.062134 0.048452 0.038348 0.046455 0.059567 0.077175 0.086584 0.086284 0.086584 0.077175 0.068160 0.076867 0.096359 0.106474 0.087482 0.060532 0.044781 0.032837 0.036292 0.060532 0.096359 0.107330 0.117740 0.116905 0.107330 0.103322 0.105044 0.106474 0.098111 0.098111 0.098111 0.101014 0.100725 0.103322 0.098693 0.096359 0.086584 0.098693 0.096359 0.081756 0.079014 0.062773 0.059567 0.046455 0.051428 0.056982 0.052743 0.051757 0.059567 0.079625 0.100725
0.006466 0.003820 0.003820 0.009463 0.032489 0.063092 0.040732 0.040732 0.042087 0.057630 0.046455 0.046455 0.024042 0.006842 0.003820 0.003440 0.003059 0.003820 0.001534 0.000384 0.000000 0.000384 0.001534 0.007593 0.026882 0.029346 0.038348 0.051428 0.051428 0.057630 0.038348 0.032837 0.030047 0.018651 0.018289 0.044781 0.074709 0.114392 0.119957 0.134100 0.176978 0.119127 0.121062 0.110734 0.064365 0.056333 0.070668 0.097236 0.106474 0.119127 0.103322 0.074709 0.056982 0.051428 0.071604 0.090166 0.124358 0.138626 0.187595 0.204493 0.179896 0.153735 0.139420 0.169356 0.185442 0.208173 0.171088 0.125724 0.090166 0.074709 0.087482 0.096359 0.084479 0.084479 0.088976 0.076867 0.082666 0.084479 0.076867 0.075636 0.082059 0.098111 0.088976 0.095773 0.082666 0.075636 0.082666 0.088976 0.069102 0.064365 0.057630 0.046455 0.048452 0.071604 0.103034 0.095773 0.064365 0.066899 0.042087 0.032837 0.068160 0.068160 0.068160 0.069102 0.067845 0.077175 0.059567 0.060532 0.060532 0.052414 0.043773 0.043437 0.044781 0.052414 0.059567 0.052414 0.039372 0.039372 0.070668 0.103322 0.106474 0.106474 0.110169 0.105044 0.092536 0.096359 0.096359 0.088976 0.096359 0.148841 0.142845 0.104184 0.098111 0.110169 0.103322 0.088976 0.097236 0.116905 0.107330 0.100725 0.134100 0.131685 0.100725 0.088976 0.076867 0.035259 0.009463 0.003820 0.001534 0.001534 0.001534 0.001534 0.001534 0.001534 0.000768 0.000384 0.000768 0.000384 0.000384 0.000000 0.000000 0.000768 0.000384 0.000000 0.000768 0.000384 0.000000 0.000768 0.001916 0.001916 0.004956 0.010951 0.007593 0.066899 0.079319 0.090166 0.106474 0.098111 0.040732 0.019375 0.016834 0.019736 0.019736 0.018289 0.013538 0.006842 0.006466 0.006466 0.003820 0.003820 0.009835 0.010951 0.006089 0.012801 0.022613 0.015373 0.004956 0.012062 0.059245 0.064365 0.013538 0.001916 0.009463 0.024042 0.040732 0.042087 0.048784 0.062134 0.060532 0.046455 0.039372 0.037664 0.052414 0.060532 0.046455 0.044781 0.051757 0.041749 0.046455 0.043437 0.024042 0.052414 0.052414 0.039372 0.043773 0.059245 0.068160 0.067845 0.086284 0.096066 0.086584 0.087482 0.078095 0.068160 0.086584 0.087482 0.075636 0.070668 0.057630 0.051757 0.086284 0.117740 0.128444 0.128444 0.117740 0.106188 0.091057 0.082968 0.084479 0.090166 0.090166 0.090166 0.101014 0.110169 0.116348 0.123537 0.121062 0.107330 0.097236 0.121062 0.106188 0.087781 0.087482 0.071604 0.064365 0.064365 0.057630 0.057630 0.048452 0.052414 0.078095 0.100725 0.110734
0.006466 0.006466 0.022613 0.040732 0.063092 0.051428 0.045786 0.045786 0.063092 0.042087 0.036292 0.022613 0.004956 0.006466 0.006466 0.000768 0.000384 0.000768 0.000768 0.000768 0.001534 0.001916 0.000768 0.003820 0.021537 0.029346 0.027235 0.035604 0.042087 0.052743 0.064365 0.056333 0.039372 0.025110 0.023685 0.025110 0.041749 0.077175 0.134100 0.127358 0.162114 0.172813 0.128444 0.096359 0.062134 0.052414 0.051099 0.077175 0.131685 0.151938 0.116627 0.070668 0.039372 0.038348 0.070668 0.100725 0.115231 0.134100 0.140741 0.110169 0.104184 0.092536 0.112426 0.125724 0.121062 0.106474 0.092536 0.071604 0.063092 0.092536 0.096066 0.079014 0.064365 0.057630 0.056982 0.075636 0.076867 0.071604 0.070668 0.079319 0.076867 0.075636 0.075636 0.069729 0.063092 0.063092 0.069729 0.076867 0.069729 0.063092 0.051428 0.059567 0.092536 0.106474 0.098111 0.069729 0.056982 0.052743 0.032489 0.031096 0.044781 0.052414 0.059567 0.077175 0.086584 0.077175 0.068160 0.068160 0.059245 0.043773 0.036635 0.043773 0.051428 0.044781 0.043773 0.043773 0.043773 0.051099 0.059245 0.077175 0.088976 0.084479 0.091649 0.101014 0.090166 0.082666 0.090166 0.090166 0.076867 0.105044 0.134100 0.093716 0.098693 0.107330 0.098693 0.098693 0.107330 0.138626 0.138626 0.129797 0.110734 0.086584 0.086284 0.062134 0.051757 0.048452 0.021537 0.010951 0.000384 0.000768 0.001534 0.006089 0.001534 0.000768 0.000768 0.000384 0.000000 0.018289 0.000384 0.001534 0.000768 0.000768 0.000384 0.000768 0.001916 0.000000 0.000000 0.000000 0.000768 0.001916 0.003820 0.006466 0.004956 0.035259 0.066899 0.079319 0.087482 0.098111 0.069729 0.022613 0.015007 0.015007 0.018651 0.013906 0.012801 0.012062 0.009463 0.006842 0.006466 0.003820 0.004956 0.007593 0.006466 0.012062 0.015373 0.004956 0.004956 0.051428 0.075636 0.029346 0.013906 0.010951 0.024042 0.019375 0.036292 0.041749 0.044781 0.054052 0.048784 0.046455 0.046455 0.044781 0.051099 0.060532 0.067215 0.059245 0.059245 0.048784 0.037664 0.024042 0.036635 0.070668 0.054052 0.046455 0.056333 0.064365 0.062134 0.070668 0.088976 0.097236 0.108752 0.088976 0.059567 0.052414 0.072849 0.087482 0.076867 0.075636 0.079014 0.096359 0.128444 0.128444 0.128444 0.116905 0.106188 0.087482 0.079014 0.079319 0.076867 0.082666 0.082666 0.071604 0.087781 0.116348 0.123537 0.142582 0.142582 0.129797 0.128444 0.142582 0.098693 0.096066 0.084479 0.076867 0.071604 0.071604 0.069729 0.063092 0.051757 0.059245 0.081756 0.106474 0.116348
0.012062 0.040732 0.069729 0.063092 0.056982 0.045786 0.040732 0.051428 0.035604 0.024042 0.032489 0.010951 0.004956 0.001916 0.000384 0.001916 0.001916 0.000384 0.003059 0.004956 0.003820 0.003820 0.000384 0.001916 0.009463 0.019375 0.026528 0.036292 0.038348 0.032489 0.059245 0.075636 0.051757 0.039372 0.044781 0.104184 0.115231 0.064365 0.117740 0.161359 0.163371 0.161359 0.106188 0.062134 0.052414 0.076867 0.078095 0.062134 0.086284 0.165124 0.167369 0.088976 0.051757 0.055358 0.082968 0.098693 0.086584 0.068160 0.068160 0.068160 0.054052 0.046455 0.059245 0.054052 0.054052 0.056333 0.044781 0.036292 0.057630 0.062773 0.046455 0.029697 0.044781 0.069102 0.067845 0.052414 0.039372 0.037664 0.051428 0.067845 0.059567 0.052414 0.046455 0.044781 0.055358 0.075636 0.075636 0.082666 0.057630 0.051428 0.063092 0.082666 0.082666 0.064365 0.057630 0.046455 0.040732 0.036292 0.036292 0.046455 0.057630 0.048452 0.051757 0.054052 0.069102 0.077175 0.077175 0.068160 0.059567 0.060532 0.044781 0.048784 0.056333 0.054052 0.056333 0.039372 0.032837 0.043773 0.059245 0.067845 0.060532 0.062134 0.067215 0.074709 0.079319 0.079319 0.074709 0.074709 0.084479 0.098693 0.129797 0.116627 0.096066 0.096359 0.086584 0.098693 0.121062 0.149875 0.149875 0.128444 0.106474 0.086584 0.060532 0.048784 0.054052 0.044781 0.043773 0.013906 0.000768 0.001916 0.004956 0.000384 0.004956 0.000768 0.001916 0.001916 0.019736 0.003820 0.012801 0.006089 0.006466 0.003820 0.003820 0.003820 0.000384 0.000384 0.000384 0.000384 0.000000 0.000384 0.000384 0.000384 0.001534 0.021537 0.038348 0.062773 0.074709 0.084479 0.082666 0.040732 0.016834 0.018651 0.019736 0.015007 0.010951 0.018651 0.015373 0.006842 0.004956 0.001916 0.000000 0.001916 0.006089 0.015373 0.006466 0.001916 0.035604 0.082666 0.051428 0.010951 0.007593 0.037664 0.015373 0.024042 0.029346 0.039372 0.037664 0.039372 0.046455 0.054052 0.046455 0.051428 0.043437 0.051428 0.048784 0.048452 0.031096 0.022613 0.019736 0.044781 0.075636 0.079014 0.062773 0.059567 0.071604 0.071604 0.074709 0.082968 0.084479 0.100725 0.098693 0.068160 0.041749 0.046455 0.069102 0.096359 0.096359 0.096066 0.110734 0.116905 0.129797 0.117740 0.116905 0.106188 0.096359 0.081756 0.082968 0.084479 0.082666 0.082666 0.075636 0.066899 0.070668 0.108752 0.129797 0.140741 0.156035 0.140741 0.175023 0.138626 0.096944 0.090166 0.088976 0.076867 0.071604 0.084479 0.090166 0.079319 0.079625 0.087482 0.106474 0.110169 0.106474
0.059245 0.082059 0.045786 0.036292 0.035604 0.035604 0.040732 0.036292 0.019375 0.027235 0.015007 0.003820 0.001534 0.001916 0.000384 0.001916 0.001534 0.001916 0.006842 0.003059 0.001916 0.003059 0.003820 0.003440 0.001534 0.003059 0.018651 0.040732 0.048452 0.041749 0.046455 0.059245 0.059245 0.048784 0.149617 0.253610 0.164123 0.161359 0.124085 0.138626 0.184722 0.138626 0.086284 0.079625 0.093716 0.100725 0.084479 0.067215 0.070668 0.100725 0.197052 0.175023 0.079319 0.064365 0.048452 0.039372 0.068160 0.088976 0.091649 0.096066 0.079319 0.048784 0.043437 0.043773 0.051428 0.051428 0.044781 0.043437 0.036292 0.031096 0.035259 0.035259 0.046455 0.056333 0.067215 0.075636 0.054052 0.037664 0.044781 0.062134 0.070668 0.060532 0.059567 0.068160 0.079625 0.074709 0.069729 0.063092 0.057630 0.075636 0.063092 0.063092 0.057630 0.045786 0.040732 0.040732 0.036292 0.045786 0.051428 0.056982 0.056982 0.051428 0.052743 0.071604 0.087482 0.082968 0.082968 0.082968 0.082968 0.062773 0.059245 0.070668 0.055358 0.051757 0.048784 0.039372 0.032837 0.032837 0.052414 0.059245 0.059567 0.051428 0.044781 0.051428 0.052414 0.059245 0.068160 0.077175 0.087482 0.106474 0.149617 0.116627 0.086584 0.096359 0.076867 0.067845 0.150650 0.173797 0.108752 0.137034 0.134100 0.081756 0.067215 0.056333 0.067215 0.056333 0.029346 0.027235 0.013906 0.004956 0.001534 0.000000 0.001534 0.003820 0.003440 0.006089 0.006466 0.001916 0.006466 0.006466 0.009463 0.013538 0.009463 0.009835 0.004956 0.001534 0.001916 0.000768 0.000384 0.000000 0.000384 0.000000 0.000384 0.007593 0.032837 0.048784 0.059567 0.064365 0.071604 0.051428 0.016834 0.018651 0.015007 0.016834 0.015373 0.018651 0.022613 0.012801 0.009835 0.003440 0.000384 0.001916 0.024042 0.013906 0.003440 0.026882 0.076867 0.064365 0.026528 0.013906 0.021537 0.029346 0.013906 0.018651 0.026882 0.037664 0.037664 0.037664 0.044781 0.039372 0.046455 0.044781 0.029697 0.015007 0.019736 0.029697 0.036635 0.031096 0.031096 0.046455 0.070668 0.084479 0.070668 0.079319 0.084479 0.082666 0.076867 0.071604 0.070668 0.079625 0.060532 0.042087 0.052743 0.055358 0.079319 0.104184 0.106474 0.103322 0.117740 0.127630 0.117740 0.106474 0.106474 0.096359 0.088976 0.075636 0.079319 0.082666 0.082666 0.088976 0.075636 0.059245 0.067845 0.106188 0.128444 0.128444 0.131685 0.138626 0.150650 0.110734 0.104184 0.088976 0.082666 0.076867 0.074709 0.082968 0.109886 0.119957 0.117740 0.117740 0.123537 0.106474 0.096944
0.109886 0.044781 0.026528 0.036292 0.036292 0.036292 0.031096 0.016834 0.015007 0.010951 0.006089 0.003440 0.003440 0.001916 0.000384 0.001916 0.001916 0.007593 0.004956 0.003059 0.001916 0.001916 0.003820 0.003820 0.004956 0.001916 0.006466 0.031096 0.059245 0.046455 0.046455 0.056333 0.056333 0.078095 0.276318 0.327513 0.142845 0.178926 0.223528 0.123537 0.159338 0.167369 0.162114 0.133832 0.109886 0.096066 0.079319 0.087482 0.096066 0.115231 0.170099 0.185681 0.088976 0.038348 0.038348 0.048452 0.041749 0.024042 0.038348 0.084479 0.121062 0.138626 0.114392 0.067215 0.037664 0.030047 0.043437 0.036635 0.024042 0.024042 0.031096 0.036635 0.043437 0.051428 0.059567 0.068160 0.059567 0.043773 0.043437 0.059567 0.068160 0.067845 0.069102 0.069102 0.097236 0.098693 0.070668 0.059567 0.069729 0.057630 0.056982 0.069102 0.051428 0.046455 0.051428 0.051428 0.052743 0.057630 0.056982 0.063092 0.056982 0.051428 0.075636 0.096359 0.096359 0.098111 0.101014 0.087482 0.066899 0.055358 0.059567 0.059245 0.051757 0.041749 0.041749 0.032837 0.032837 0.041749 0.041749 0.044781 0.052414 0.051099 0.059567 0.062134 0.070668 0.093716 0.075636 0.075636 0.081756 0.081756 0.119127 0.127358 0.107330 0.086284 0.077175 0.077175 0.096359 0.155014 0.133832 0.096066 0.159085 0.149100 0.084479 0.064365 0.076867 0.082666 0.064365 0.048784 0.046455 0.025110 0.009463 0.009463 0.009463 0.018289 0.013538 0.013538 0.009835 0.006466 0.006466 0.006466 0.009835 0.013906 0.013538 0.009835 0.015373 0.015007 0.000384 0.001534 0.000384 0.000384 0.000384 0.000768 0.000000 0.003440 0.021537 0.032489 0.046455 0.071604 0.062773 0.046455 0.024042 0.013906 0.016834 0.006842 0.009463 0.015373 0.031096 0.031096 0.022613 0.009463 0.001916 0.026528 0.032489 0.013538 0.024042 0.051428 0.066899 0.042087 0.019375 0.012801 0.015007 0.009463 0.018651 0.006842 0.024042 0.036635 0.037664 0.037664 0.032837 0.026882 0.025110 0.021537 0.018651 0.024042 0.036292 0.029697 0.023685 0.018651 0.023685 0.051428 0.087482 0.098693 0.081756 0.075636 0.075636 0.062773 0.051757 0.048784 0.037664 0.032837 0.045786 0.062773 0.075636 0.079014 0.066899 0.084479 0.105044 0.110734 0.116905 0.127630 0.106474 0.106474 0.096066 0.087482 0.081756 0.082968 0.076867 0.082666 0.075636 0.082059 0.075636 0.048784 0.070668 0.098693 0.116905 0.119127 0.121062 0.127630 0.106188 0.082968 0.096359 0.095773 0.090166 0.079319 0.079014 0.087781 0.106474 0.123537 0.117740 0.107330 0.110734 0.110734 0.091057
0.024042 0.032489 0.046455 0.026528 0.031096 0.027235 0.012801 0.007593 0.010951 0.009835 0.006466 0.003440 0.003820 0.001916 0.004956 0.006842 0.007593 0.006842 0.004956 0.003059 0.000384 0.003440 0.003820 0.001916 0.001916 0.003440 0.003820 0.019736 0.062134 0.056333 0.037664 0.043773 0.110734 0.178926 0.251500 0.246829 0.190688 0.165124 0.151938 0.273477 0.247894 0.216358 0.194469 0.130067 0.092536 0.087781 0.096066 0.079319 0.091649 0.116348 0.119957 0.107330 0.086284 0.062134 0.051757 0.042087 0.027235 0.021537 0.018651 0.029697 0.059245 0.070668 0.091649 0.114392 0.100725 0.072849 0.060532 0.036292 0.025110 0.029346 0.032837 0.044781 0.046455 0.046455 0.062134 0.070668 0.052414 0.044781 0.046455 0.054052 0.079625 0.088976 0.081756 0.072849 0.093716 0.098693 0.081756 0.070668 0.059567 0.064365 0.075636 0.063092 0.063092 0.063092 0.064365 0.057630 0.059567 0.052743 0.057630 0.063092 0.056982 0.063092 0.088976 0.090166 0.096359 0.076867 0.066899 0.056333 0.056333 0.054052 0.048784 0.046455 0.037664 0.037664 0.037664 0.031096 0.039372 0.039372 0.041749 0.046455 0.046455 0.046455 0.070668 0.070668 0.072849 0.079625 0.070668 0.069102 0.077175 0.097236 0.108752 0.106474 0.086584 0.070668 0.072849 0.072849 0.087781 0.106474 0.139420 0.134100 0.100725 0.130067 0.121062 0.082666 0.064365 0.075636 0.074709 0.075636 0.064365 0.056333 0.039372 0.029697 0.031096 0.029697 0.018651 0.013906 0.013906 0.006089 0.013906 0.015007 0.019736 0.013906 0.009835 0.009463 0.012801 0.016834 0.006842 0.001916 0.000768 0.000384 0.000384 0.000384 0.000384 0.000384 0.007593 0.027235 0.036292 0.062773 0.074709 0.040732 0.029346 0.015007 0.018651 0.010951 0.003820 0.006842 0.012062 0.026528 0.035604 0.031096 0.021537 0.057630 0.015373 0.009835 0.016834 0.046455 0.035259 0.032489 0.018651 0.006842 0.003820 0.001916 0.013906 0.023685 0.012062 0.009463 0.019736 0.032837 0.024042 0.019375 0.012062 0.010951 0.015007 0.021537 0.029346 0.038348 0.032837 0.032837 0.043437 0.062134 0.087482 0.096359 0.076867 0.067845 0.067845 0.052414 0.039372 0.038348 0.031096 0.044781 0.064365 0.088976 0.093716 0.096066 0.084479 0.074709 0.093716 0.107330 0.116627 0.116627 0.096066 0.096066 0.077175 0.079625 0.075636 0.087482 0.090166 0.082059 0.082059 0.082059 0.075636 0.052414 0.079014 0.084479 0.096066 0.107330 0.108752 0.117740 0.072849 0.082059 0.096359 0.090166 0.084479 0.087482 0.084479 0.100725 0.113270 0.113270 0.108752 0.096359 0.103322 0.100725 0.087482
0.056333 0.052743 0.024042 0.031096 0.031096 0.015373 0.007593 0.010951 0.012801 0.007593 0.004956 0.006842 0.009463 0.009463 0.012801 0.007593 0.010951 0.007593 0.004956 0.001916 0.000384 0.001534 0.003059 0.003059 0.001916 0.001534 0.001916 0.027235 0.052743 0.059245 0.105044 0.133832 0.127358 0.140477 0.197052 0.261557 0.305930 0.185442 0.103034 0.159085 0.192346 0.174778 0.142845 0.103034 0.075636 0.082968 0.084479 0.067215 0.067215 0.091057 0.108752 0.110734 0.106474 0.079014 0.059245 0.048452 0.021537 0.009463 0.015007 0.054052 0.067215 0.056333 0.054052 0.060532 0.069102 0.069102 0.077175 0.068160 0.051428 0.031096 0.027235 0.041749 0.052414 0.056333 0.070668 0.070668 0.056333 0.062773 0.062773 0.074709 0.082968 0.087781 0.081756 0.084479 0.096944 0.091057 0.093716 0.072849 0.067215 0.074709 0.064365 0.063092 0.056982 0.045786 0.045786 0.045786 0.040732 0.046455 0.063092 0.063092 0.057630 0.075636 0.088976 0.096359 0.076867 0.057630 0.048452 0.051757 0.046455 0.044781 0.044781 0.036635 0.036292 0.039372 0.036635 0.037664 0.036635 0.044781 0.037664 0.037664 0.051428 0.052414 0.060532 0.068160 0.069102 0.076867 0.059245 0.052414 0.079625 0.106474 0.124085 0.100725 0.082968 0.070668 0.087482 0.096359 0.075636 0.115231 0.144417 0.143631 0.119127 0.101014 0.104184 0.104184 0.075636 0.066899 0.075636 0.064365 0.059245 0.059245 0.062134 0.051428 0.029697 0.015007 0.012801 0.009835 0.013906 0.013906 0.026882 0.025110 0.013906 0.009835 0.010951 0.009463 0.016834 0.016834 0.010951 0.006089 0.001916 0.001916 0.000000 0.000384 0.000000 0.000384 0.001916 0.012062 0.036292 0.051757 0.059567 0.040732 0.032489 0.019375 0.024042 0.032837 0.001534 0.000384 0.007593 0.012062 0.018651 0.032837 0.064365 0.024042 0.003440 0.001916 0.018651 0.019375 0.029346 0.044781 0.012062 0.001916 0.000768 0.004956 0.022613 0.015007 0.006089 0.001534 0.004956 0.010951 0.019375 0.015007 0.013906 0.009835 0.007593 0.016834 0.026882 0.039372 0.037664 0.036635 0.068160 0.069102 0.068160 0.076867 0.069102 0.070668 0.059245 0.046455 0.057630 0.074709 0.084479 0.070668 0.087482 0.088976 0.087781 0.092536 0.101014 0.079014 0.079625 0.096359 0.096066 0.096359 0.086584 0.077175 0.078095 0.070668 0.075636 0.087482 0.110734 0.103034 0.090166 0.096359 0.092536 0.086584 0.096944 0.087781 0.087482 0.097236 0.088976 0.093716 0.079319 0.075636 0.088976 0.090166 0.084479 0.079014 0.088976 0.098693 0.113270 0.113270 0.119127 0.116905 0.110734 0.098693 0.087482
0.063092 0.032489 0.032489 0.036292 0.018651 0.004956 0.004956 0.012801 0.012801 0.012062 0.018651 0.019375 0.009463 0.009463 0.006842 0.009463 0.010951 0.006466 0.003820 0.001916 0.001916 0.000384 0.001916 0.003059 0.001916 0.000768 0.024042 0.106474 0.110169 0.134100 0.148841 0.125724 0.106474 0.079319 0.116905 0.312446 0.380054 0.167369 0.069729 0.084479 0.084479 0.095773 0.088976 0.069102 0.051428 0.057630 0.074709 0.074709 0.087482 0.105044 0.119957 0.155014 0.139420 0.082666 0.075636 0.035604 0.009463 0.016834 0.027235 0.054052 0.070668 0.054052 0.059567 0.052414 0.052414 0.078095 0.070668 0.052414 0.044781 0.056333 0.055358 0.045786 0.055358 0.087781 0.091649 0.071604 0.071604 0.079319 0.066899 0.074709 0.082968 0.074709 0.079014 0.100725 0.091649 0.093716 0.081756 0.062134 0.072849 0.070668 0.064365 0.044781 0.032489 0.032489 0.036292 0.032489 0.036292 0.051428 0.056982 0.056982 0.063092 0.082059 0.088976 0.075636 0.057630 0.046455 0.046455 0.042087 0.035259 0.046455 0.039372 0.032837 0.054052 0.046455 0.031096 0.031096 0.036635 0.044781 0.036292 0.036635 0.043773 0.052414 0.060532 0.070668 0.064365 0.070668 0.071604 0.064365 0.069729 0.071604 0.124358 0.149100 0.124358 0.096359 0.069729 0.103034 0.121062 0.119127 0.139420 0.139420 0.130067 0.112426 0.104184 0.103034 0.098111 0.079014 0.070668 0.059567 0.044781 0.046455 0.046455 0.041749 0.029346 0.019375 0.025110 0.023685 0.018289 0.019736 0.012801 0.006089 0.003820 0.003440 0.007593 0.012801 0.015007 0.012062 0.010951 0.004956 0.003059 0.004956 0.001916 0.000384 0.000768 0.000000 0.000000 0.004956 0.027235 0.055358 0.055358 0.031096 0.032489 0.031096 0.032489 0.035259 0.015373 0.000768 0.000768 0.004956 0.007593 0.044781 0.024042 0.007593 0.001916 0.004956 0.015373 0.015007 0.052743 0.036292 0.004956 0.006089 0.004956 0.019375 0.018651 0.007593 0.003059 0.004956 0.004956 0.001916 0.019736 0.018651 0.009835 0.006466 0.006466 0.013906 0.025110 0.036635 0.043773 0.051428 0.069102 0.059245 0.067845 0.070668 0.059245 0.059567 0.069102 0.059567 0.056333 0.081756 0.103322 0.100725 0.087482 0.081756 0.082968 0.087482 0.092536 0.074709 0.069102 0.086284 0.096066 0.086584 0.087482 0.077175 0.069102 0.064365 0.059245 0.071604 0.096359 0.127358 0.112426 0.106474 0.119957 0.127358 0.113270 0.093716 0.078095 0.078095 0.091057 0.051757 0.076867 0.095773 0.088976 0.076867 0.087482 0.093716 0.097236 0.097236 0.110734 0.121062 0.128444 0.138361 0.119127 0.087482 0.059245
0.019375 0.022613 0.036292 0.024042 0.003820 0.001534 0.012801 0.019375 0.022613 0.026528 0.022613 0.010951 0.009835 0.006842 0.009463 0.012062 0.004956 0.003440 0.003440 0.001916 0.003820 0.000768 0.000384 0.001916 0.001916 0.003440 0.064365 0.138626 0.109886 0.125724 0.110169 0.095773 0.088976 0.075636 0.124358 0.247681 0.381599 0.261557 0.105044 0.069729 0.071604 0.066899 0.055358 0.048452 0.046455 0.071604 0.087482 0.092536 0.098111 0.106474 0.128715 0.165874 0.143631 0.084479 0.063092 0.032837 0.054052 0.062773 0.055358 0.063092 0.060532 0.036635 0.043773 0.068160 0.068160 0.076867 0.076867 0.059567 0.069102 0.067215 0.055358 0.063092 0.075636 0.090166 0.101014 0.098111 0.088976 0.075636 0.069729 0.079319 0.087482 0.087482 0.101014 0.105044 0.082968 0.070668 0.070668 0.070668 0.059567 0.059567 0.060532 0.044781 0.035259 0.035259 0.032489 0.032489 0.048452 0.052743 0.052743 0.056982 0.063092 0.082666 0.082059 0.069102 0.063092 0.063092 0.056982 0.040732 0.040732 0.052743 0.055358 0.048452 0.048452 0.031096 0.032837 0.031096 0.039372 0.037664 0.029697 0.029697 0.029697 0.043773 0.052414 0.059245 0.055358 0.055358 0.051757 0.046455 0.079625 0.087482 0.079625 0.100725 0.098111 0.088976 0.082666 0.074709 0.091649 0.100725 0.124085 0.134100 0.119127 0.101014 0.084479 0.082059 0.069729 0.064365 0.051428 0.052743 0.044781 0.041749 0.035259 0.035259 0.029346 0.031096 0.030047 0.025110 0.015007 0.009835 0.001534 0.000000 0.000384 0.001534 0.003059 0.010951 0.010951 0.009463 0.009463 0.006842 0.003059 0.003820 0.003059 0.000768 0.000000 0.000000 0.000384 0.000768 0.012801 0.044781 0.055358 0.026528 0.019375 0.031096 0.041749 0.044781 0.024042 0.004956 0.000768 0.000768 0.024042 0.024042 0.009463 0.007593 0.004956 0.006842 0.010951 0.035259 0.066899 0.026528 0.015007 0.013906 0.013906 0.015373 0.012801 0.009463 0.007593 0.007593 0.000768 0.001916 0.015007 0.024042 0.016834 0.009835 0.006466 0.009835 0.025110 0.043773 0.051428 0.059245 0.059245 0.051428 0.043773 0.048452 0.063092 0.069729 0.079319 0.091649 0.081756 0.078095 0.088976 0.100725 0.091057 0.084479 0.082968 0.084479 0.090166 0.070668 0.067845 0.087482 0.096066 0.087482 0.078095 0.079625 0.064365 0.059245 0.055358 0.059567 0.079319 0.106474 0.121062 0.114392 0.131685 0.138626 0.128444 0.098693 0.068160 0.059567 0.074709 0.063092 0.046455 0.069102 0.082059 0.071604 0.075636 0.098693 0.097236 0.107330 0.108752 0.119127 0.116905 0.116627 0.096359 0.054052 0.041749
0.024042 0.026882 0.021537 0.004956 0.000768 0.010951 0.019736 0.024042 0.024042 0.015373 0.007593 0.004956 0.006466 0.007593 0.012062 0.009463 0.001916 0.001916 0.003440 0.004956 0.004956 0.001916 0.000384 0.001534 0.001534 0.016834 0.110169 0.134100 0.110169 0.110169 0.087482 0.104184 0.110169 0.121062 0.104184 0.174778 0.394006 0.300707 0.100725 0.070668 0.059567 0.048452 0.055358 0.051757 0.052743 0.064365 0.079014 0.091649 0.091649 0.096066 0.105044 0.165874 0.121062 0.056333 0.048784 0.046455 0.066899 0.067215 0.056333 0.046455 0.026528 0.032837 0.044781 0.051428 0.059567 0.087482 0.079625 0.069102 0.078095 0.088976 0.077175 0.062134 0.071604 0.090166 0.106474 0.098111 0.082666 0.075636 0.082666 0.095773 0.098111 0.087482 0.082968 0.079014 0.064365 0.056333 0.054052 0.043773 0.052414 0.079625 0.070668 0.054052 0.041749 0.038348 0.038348 0.046455 0.052743 0.057630 0.064365 0.069729 0.088976 0.110169 0.095773 0.082666 0.075636 0.064365 0.048452 0.052743 0.056982 0.057630 0.046455 0.042087 0.032489 0.029346 0.035259 0.032837 0.041749 0.025110 0.029346 0.037664 0.039372 0.037664 0.030047 0.036635 0.051428 0.069102 0.081756 0.074709 0.066899 0.056333 0.052414 0.051428 0.062134 0.064365 0.060532 0.076867 0.086584 0.086584 0.097236 0.103322 0.096944 0.091649 0.071604 0.064365 0.057630 0.051428 0.052743 0.048452 0.038348 0.035259 0.035259 0.038348 0.024042 0.021537 0.012801 0.012801 0.009463 0.004956 0.003059 0.001916 0.001916 0.001916 0.001916 0.009835 0.007593 0.004956 0.006842 0.009463 0.009463 0.003820 0.001916 0.000768 0.000384 0.000000 0.001916 0.000384 0.004956 0.029346 0.044781 0.027235 0.015373 0.029346 0.032837 0.035259 0.026882 0.009463 0.003059 0.009463 0.027235 0.003820 0.012801 0.006842 0.004956 0.004956 0.016834 0.064365 0.062773 0.031096 0.015007 0.013538 0.013906 0.016834 0.012062 0.009463 0.004956 0.001534 0.001534 0.000768 0.001916 0.026528 0.032489 0.015007 0.007593 0.012801 0.039372 0.060532 0.039372 0.046455 0.062134 0.056333 0.042087 0.042087 0.066899 0.082968 0.096944 0.103322 0.110734 0.098693 0.079625 0.081756 0.081756 0.087781 0.084479 0.084479 0.092536 0.096944 0.077175 0.079625 0.067845 0.070668 0.070668 0.062134 0.067215 0.070668 0.062773 0.055358 0.066899 0.084479 0.101014 0.116348 0.119127 0.116627 0.116905 0.096359 0.069102 0.039372 0.040732 0.063092 0.056982 0.063092 0.076867 0.079014 0.079625 0.087482 0.086584 0.086584 0.079625 0.088976 0.078095 0.069102 0.056333 0.044781 0.041749
0.023685 0.024042 0.018289 0.006842 0.003820 0.012801 0.019736 0.026882 0.016834 0.007593 0.003440 0.006466 0.003820 0.006842 0.012062 0.004956 0.000384 0.000768 0.000384 0.001916 0.003440 0.003820 0.001916 0.001916 0.010951 0.044781 0.087781 0.117740 0.110734 0.091057 0.106474 0.114392 0.105044 0.103034 0.121062 0.173305 0.290715 0.299150 0.117740 0.068160 0.051428 0.046455 0.044781 0.059567 0.071604 0.064365 0.074709 0.084479 0.081756 0.091057 0.116348 0.116348 0.076867 0.059567 0.052414 0.046455 0.035259 0.026528 0.024042 0.024042 0.027235 0.022613 0.035259 0.043773 0.043437 0.062134 0.084479 0.072849 0.062134 0.091057 0.103322 0.098693 0.096359 0.078095 0.081756 0.072849 0.059245 0.064365 0.070668 0.064365 0.048452 0.055358 0.064365 0.062134 0.051428 0.052414 0.044781 0.059567 0.081756 0.075636 0.064365 0.056333 0.048784 0.048452 0.048452 0.057630 0.064365 0.075636 0.088976 0.103034 0.117740 0.088976 0.057630 0.051428 0.040732 0.036292 0.040732 0.040732 0.036292 0.036292 0.042087 0.036292 0.032489 0.036292 0.029346 0.035259 0.038348 0.048452 0.046455 0.036292 0.038348 0.038348 0.051757 0.062773 0.066899 0.082968 0.096944 0.082968 0.071604 0.059567 0.048452 0.055358 0.051757 0.064365 0.093716 0.096944 0.070668 0.060532 0.067845 0.079625 0.081756 0.070668 0.066899 0.055358 0.045786 0.042087 0.052743 0.051428 0.036292 0.024042 0.024042 0.026528 0.026528 0.015373 0.009463 0.006842 0.009463 0.004956 0.001916 0.003440 0.003440 0.000768 0.003440 0.006089 0.006842 0.003059 0.003820 0.006842 0.009463 0.012801 0.001916 0.000768 0.000768 0.000384 0.000384 0.000384 0.000768 0.021537 0.041749 0.027235 0.015373 0.025110 0.036635 0.036292 0.025110 0.007593 0.003440 0.024042 0.009463 0.006466 0.009463 0.007593 0.004956 0.006842 0.048452 0.066899 0.048452 0.026528 0.007593 0.006466 0.009835 0.007593 0.004956 0.001916 0.000384 0.000384 0.001916 0.001916 0.001916 0.009463 0.052743 0.032489 0.009463 0.015373 0.038348 0.069729 0.075636 0.079319 0.071604 0.056982 0.062773 0.064365 0.075636 0.093716 0.103322 0.103322 0.091057 0.084479 0.067215 0.072849 0.072849 0.082968 0.084479 0.096066 0.091649 0.103322 0.086584 0.068160 0.051428 0.037664 0.046455 0.041749 0.035259 0.055358 0.064365 0.059567 0.055358 0.066899 0.079014 0.091057 0.098693 0.077175 0.051099 0.044781 0.048452 0.031096 0.031096 0.045786 0.045786 0.052743 0.079014 0.093716 0.088976 0.087482 0.069102 0.054052 0.046455 0.046455 0.046455 0.046455 0.038348 0.038348 0.029346
0.013538 0.023685 0.043773 0.006089 0.003820 0.013906 0.024042 0.026882 0.016834 0.001916 0.003820 0.006466 0.003440 0.010951 0.007593 0.001534 0.000768 0.000768 0.004956 0.004956 0.000768 0.001534 0.003440 0.004956 0.019375 0.044781 0.075636 0.110734 0.117740 0.121062 0.113270 0.088976 0.110734 0.126542 0.118850 0.112426 0.201947 0.210003 0.100725 0.088976 0.077175 0.068160 0.084479 0.082968 0.059567 0.052743 0.055358 0.056333 0.072849 0.098693 0.107330 0.087482 0.068160 0.069102 0.060532 0.044781 0.039372 0.026882 0.018651 0.009463 0.009463 0.015007 0.018651 0.025110 0.032837 0.051757 0.075636 0.091057 0.078095 0.068160 0.088976 0.100725 0.103322 0.110734 0.098693 0.081756 0.052414 0.056333 0.072849 0.056333 0.052414 0.051099 0.044781 0.043773 0.051428 0.059567 0.043773 0.060532 0.088976 0.079625 0.060532 0.056333 0.056333 0.048784 0.055358 0.059567 0.066899 0.082968 0.084479 0.076867 0.052743 0.032489 0.035259 0.032837 0.029346 0.029346 0.029346 0.029346 0.021537 0.036292 0.042087 0.036292 0.032489 0.031096 0.031096 0.048452 0.062773 0.057630 0.040732 0.045786 0.046455 0.063092 0.063092 0.076867 0.084479 0.084479 0.087781 0.084479 0.062773 0.048452 0.059567 0.059567 0.064365 0.084479 0.091649 0.070668 0.052414 0.060532 0.051099 0.062134 0.067215 0.066899 0.062773 0.048452 0.040732 0.042087 0.035604 0.040732 0.040732 0.027235 0.022613 0.022613 0.022613 0.022613 0.022613 0.015373 0.012062 0.006842 0.006466 0.003440 0.003820 0.001916 0.006842 0.004956 0.004956 0.006466 0.001916 0.003059 0.007593 0.012801 0.007593 0.000384 0.000768 0.000768 0.000768 0.001916 0.000384 0.010951 0.026882 0.024042 0.025110 0.043437 0.043437 0.023685 0.013906 0.006842 0.012801 0.024042 0.007593 0.006466 0.010951 0.007593 0.003820 0.018651 0.052743 0.048784 0.046455 0.012801 0.003440 0.001916 0.001916 0.000384 0.000384 0.001916 0.000768 0.000384 0.000000 0.001534 0.003440 0.000768 0.024042 0.051428 0.019375 0.024042 0.036292 0.057630 0.082059 0.096359 0.103034 0.079319 0.075636 0.072849 0.081756 0.091057 0.093716 0.096944 0.087781 0.070668 0.064365 0.070668 0.072849 0.074709 0.087482 0.091649 0.100725 0.093716 0.078095 0.051428 0.041749 0.029346 0.026882 0.027235 0.019375 0.019375 0.042087 0.048452 0.055358 0.055358 0.067215 0.054052 0.056333 0.044781 0.016834 0.009463 0.024042 0.027235 0.022613 0.040732 0.046455 0.048784 0.062134 0.072849 0.054052 0.056333 0.038348 0.029346 0.035259 0.026882 0.025110 0.029346 0.031096 0.026528 0.022613
0.023685 0.018651 0.018289 0.019736 0.007593 0.016834 0.035259 0.021537 0.007593 0.003059 0.004956 0.003440 0.006089 0.009835 0.006466 0.000384 0.003440 0.003820 0.001916 0.000384 0.000000 0.001916 0.006466 0.013906 0.025110 0.044781 0.070668 0.087482 0.108752 0.121062 0.086584 0.086284 0.116905 0.127358 0.127630 0.113270 0.115231 0.096066 0.106188 0.097236 0.086584 0.097236 0.088976 0.060532 0.054052 0.039372 0.041749 0.070668 0.087482 0.079014 0.097236 0.096066 0.078095 0.070668 0.054052 0.052414 0.039372 0.026882 0.015373 0.004956 0.006842 0.006466 0.009463 0.019736 0.025110 0.044781 0.086284 0.096066 0.086584 0.076867 0.068160 0.079625 0.097236 0.098693 0.087781 0.091649 0.059245 0.048784 0.070668 0.074709 0.079014 0.087781 0.072849 0.056333 0.056333 0.059245 0.054052 0.077175 0.087482 0.062134 0.069102 0.068160 0.043437 0.051428 0.064365 0.051757 0.059567 0.070668 0.067215 0.048784 0.039372 0.032837 0.026882 0.032837 0.032837 0.029346 0.029346 0.019375 0.029346 0.051757 0.035259 0.021537 0.025110 0.032837 0.029346 0.038348 0.051757 0.048784 0.042087 0.045786 0.063092 0.075636 0.075636 0.088976 0.076867 0.064365 0.066899 0.075636 0.064365 0.062773 0.059567 0.066899 0.079319 0.071604 0.074709 0.048784 0.039372 0.043773 0.029697 0.037664 0.048784 0.056333 0.067215 0.042087 0.032489 0.035604 0.038348 0.035604 0.036292 0.042087 0.042087 0.042087 0.038348 0.029346 0.035259 0.038348 0.036292 0.016834 0.009835 0.009835 0.004956 0.003820 0.009835 0.012062 0.009835 0.007593 0.001916 0.001534 0.003820 0.010951 0.012801 0.001916 0.000384 0.000768 0.000384 0.000768 0.003059 0.003820 0.024042 0.025110 0.029697 0.036292 0.036635 0.031096 0.009835 0.006089 0.019375 0.012801 0.003440 0.003440 0.009835 0.004956 0.001916 0.027235 0.035259 0.026882 0.035259 0.013906 0.000768 0.000384 0.000000 0.000000 0.000384 0.000384 0.000384 0.001534 0.000768 0.001534 0.000000 0.001534 0.003440 0.026528 0.029346 0.019736 0.042087 0.051428 0.069102 0.075636 0.082666 0.087482 0.084479 0.079625 0.079625 0.081756 0.084479 0.087781 0.091649 0.082968 0.072849 0.062134 0.067215 0.066899 0.082968 0.079014 0.079014 0.079014 0.059245 0.035259 0.032489 0.029346 0.035259 0.048452 0.032489 0.009463 0.019375 0.032489 0.032489 0.038348 0.038348 0.018651 0.018651 0.031096 0.026528 0.012062 0.012801 0.022613 0.012062 0.032489 0.032489 0.032837 0.039372 0.036292 0.018651 0.027235 0.031096 0.021537 0.016834 0.024042 0.012801 0.012062 0.024042 0.024042 0.016834
0.024042 0.025110 0.024042 0.015007 0.013538 0.029346 0.021537 0.019375 0.015373 0.007593 0.001916 0.001534 0.006089 0.006089 0.003820 0.001916 0.004956 0.001916 0.001916 0.000384 0.001916 0.000768 0.003820 0.013538 0.019736 0.044781 0.069102 0.107330 0.139420 0.096066 0.068160 0.086284 0.106474 0.117740 0.128444 0.128444 0.106474 0.096359 0.119127 0.100725 0.084479 0.091057 0.078095 0.069102 0.054052 0.048784 0.075636 0.096944 0.079014 0.059567 0.062773 0.087482 0.098693 0.078095 0.054052 0.046455 0.044781 0.035259 0.012801 0.007593 0.007593 0.006842 0.009463 0.016834 0.032837 0.064365 0.093716 0.100725 0.078095 0.051099 0.059567 0.086584 0.098693 0.072849 0.067215 0.093716 0.084479 0.046455 0.048784 0.056333 0.064365 0.075636 0.074709 0.051757 0.059567 0.087482 0.087781 0.075636 0.079014 0.084479 0.081756 0.075636 0.072849 0.078095 0.077175 0.068160 0.067215 0.062773 0.048784 0.039372 0.032837 0.026882 0.032837 0.032837 0.035259 0.042087 0.036292 0.032489 0.040732 0.032489 0.019736 0.013906 0.024042 0.029697 0.029697 0.043773 0.043773 0.043437 0.052414 0.048784 0.059567 0.055358 0.059567 0.059567 0.048452 0.055358 0.066899 0.059245 0.064365 0.067215 0.059245 0.059245 0.059245 0.059245 0.046455 0.029697 0.030047 0.036635 0.030047 0.029697 0.044781 0.044781 0.048452 0.035604 0.031096 0.042087 0.040732 0.032489 0.038348 0.035259 0.044781 0.055358 0.055358 0.051757 0.041749 0.038348 0.046455 0.036292 0.015007 0.010951 0.006842 0.009463 0.004956 0.015007 0.006466 0.009463 0.006466 0.001534 0.001534 0.003820 0.012801 0.006842 0.000768 0.001916 0.000768 0.000000 0.001916 0.001916 0.018651 0.025110 0.036292 0.036635 0.030047 0.025110 0.009463 0.015007 0.015373 0.000768 0.004956 0.003820 0.004956 0.004956 0.004956 0.024042 0.025110 0.055358 0.038348 0.001916 0.000000 0.000000 0.000000 0.000000 0.000768 0.000384 0.000768 0.000000 0.001534 0.000768 0.000384 0.000384 0.000384 0.003820 0.026882 0.016834 0.024042 0.046455 0.069102 0.082059 0.071604 0.084479 0.091057 0.091057 0.081756 0.072849 0.067215 0.070668 0.074709 0.074709 0.059245 0.048784 0.051757 0.055358 0.062773 0.066899 0.059567 0.052743 0.059567 0.051757 0.051757 0.054052 0.036635 0.055358 0.082666 0.042087 0.007593 0.015373 0.018651 0.012801 0.031096 0.018289 0.003820 0.006466 0.010951 0.026528 0.027235 0.022613 0.004956 0.021537 0.019375 0.015007 0.024042 0.035259 0.029346 0.019736 0.022613 0.022613 0.015373 0.012062 0.012801 0.009835 0.013906 0.027235 0.040732
0.036292 0.018651 0.018651 0.013906 0.015007 0.030047 0.031096 0.029346 0.012062 0.006089 0.003820 0.000768 0.006466 0.006466 0.001916 0.003820 0.001916 0.001916 0.000768 0.000768 0.000768 0.000768 0.004956 0.018651 0.041749 0.051757 0.075636 0.091057 0.086584 0.086584 0.086284 0.086584 0.096359 0.116905 0.127630 0.116905 0.117740 0.138361 0.138626 0.116905 0.091057 0.082968 0.082968 0.082968 0.082968 0.076867 0.071604 0.072849 0.079625 0.072849 0.056333 0.072849 0.079625 0.068160 0.059567 0.046455 0.046455 0.032837 0.012801 0.009463 0.010951 0.012801 0.015373 0.027235 0.038348 0.064365 0.086584 0.068160 0.056333 0.059245 0.060532 0.060532 0.075636 0.084479 0.070668 0.079625 0.079014 0.059245 0.056333 0.062134 0.062134 0.052414 0.072849 0.052414 0.032837 0.064365 0.081756 0.081756 0.087482 0.079625 0.069102 0.069102 0.070668 0.079625 0.088976 0.100725 0.086284 0.052414 0.039372 0.037664 0.037664 0.032837 0.029346 0.044781 0.062773 0.044781 0.035604 0.040732 0.045786 0.019375 0.012801 0.016834 0.024042 0.023685 0.031096 0.037664 0.039372 0.051428 0.059567 0.059567 0.051428 0.043773 0.054052 0.046455 0.046455 0.056333 0.046455 0.044781 0.062134 0.060532 0.044781 0.052414 0.062134 0.037664 0.023685 0.029697 0.029697 0.029697 0.036635 0.030047 0.032837 0.029346 0.036292 0.040732 0.026528 0.036292 0.059567 0.048452 0.038348 0.032489 0.024042 0.027235 0.032489 0.038348 0.042087 0.026528 0.031096 0.031096 0.019375 0.012062 0.010951 0.009835 0.006466 0.015007 0.007593 0.006089 0.009835 0.003440 0.001534 0.001534 0.003820 0.006466 0.001534 0.000384 0.001534 0.000384 0.000768 0.000384 0.010951 0.029697 0.036635 0.031096 0.032837 0.024042 0.018651 0.019736 0.006466 0.000000 0.001534 0.003440 0.001916 0.003059 0.009463 0.019375 0.048784 0.055358 0.006089 0.000768 0.000384 0.000384 0.000384 0.000384 0.000768 0.000768 0.000000 0.000384 0.000384 0.001916 0.000768 0.000768 0.000384 0.003059 0.006466 0.016834 0.016834 0.032489 0.057630 0.092536 0.087781 0.081756 0.091057 0.081756 0.084479 0.079014 0.062773 0.070668 0.074709 0.079319 0.048452 0.029346 0.032489 0.042087 0.048452 0.052743 0.057630 0.042087 0.035259 0.035259 0.035259 0.044781 0.027235 0.019375 0.046455 0.075636 0.032489 0.006466 0.018651 0.026882 0.026882 0.015007 0.006466 0.016834 0.000768 0.003820 0.031096 0.048452 0.010951 0.009463 0.019375 0.013538 0.015373 0.012801 0.031096 0.035604 0.027235 0.009463 0.015373 0.019375 0.019375 0.022613 0.003820 0.000768 0.010951
0.036292 0.030047 0.024042 0.018289 0.015007 0.024042 0.036635 0.023685 0.009835 0.001916 0.003059 0.000384 0.001916 0.001916 0.001916 0.003820 0.000384 0.001916 0.000384 0.000384 0.003820 0.003059 0.003820 0.024042 0.048784 0.054052 0.064365 0.068160 0.086584 0.086584 0.087482 0.078095 0.087482 0.117740 0.127630 0.116905 0.116627 0.127358 0.128444 0.128444 0.138626 0.117740 0.087781 0.092536 0.087482 0.071604 0.056982 0.059567 0.079014 0.054052 0.052414 0.078095 0.068160 0.060532 0.070668 0.062134 0.046455 0.032837 0.019375 0.012062 0.012801 0.010951 0.015373 0.024042 0.029346 0.031096 0.043773 0.054052 0.051757 0.070668 0.087482 0.062134 0.069102 0.088976 0.078095 0.062134 0.074709 0.070668 0.064365 0.067215 0.075636 0.059567 0.059567 0.056333 0.031096 0.059567 0.076867 0.086284 0.077175 0.077175 0.086284 0.059567 0.060532 0.077175 0.069102 0.097236 0.116905 0.076867 0.043773 0.030047 0.037664 0.037664 0.048784 0.051757 0.038348 0.041749 0.048784 0.046455 0.019375 0.003440 0.015007 0.019736 0.010951 0.003440 0.018651 0.037664 0.056333 0.062134 0.069102 0.060532 0.044781 0.059567 0.062134 0.044781 0.046455 0.044781 0.036635 0.051428 0.059245 0.051099 0.051099 0.059567 0.051428 0.029697 0.030047 0.030047 0.030047 0.030047 0.024042 0.019736 0.029346 0.032489 0.031096 0.046455 0.032489 0.029346 0.032489 0.040732 0.027235 0.022613 0.022613 0.015373 0.015373 0.019375 0.035604 0.032489 0.022613 0.022613 0.012801 0.009463 0.007593 0.009463 0.009835 0.009835 0.015007 0.009835 0.006466 0.003820 0.001916 0.001916 0.006466 0.006466 0.001916 0.004956 0.003820 0.003820 0.004956 0.000768 0.018289 0.031096 0.024042 0.026882 0.024042 0.019375 0.018651 0.003820 0.003820 0.003820 0.006842 0.001916 0.000768 0.001534 0.012062 0.024042 0.048452 0.019736 0.001916 0.000768 0.000384 0.001534 0.000768 0.001534 0.001534 0.000384 0.001916 0.000768 0.000000 0.000384 0.000768 0.000384 0.001916 0.001916 0.000768 0.003820 0.007593 0.012801 0.024042 0.055358 0.082968 0.072849 0.064365 0.067215 0.059245 0.066899 0.062773 0.067215 0.074709 0.098111 0.090166 0.036292 0.035259 0.041749 0.044781 0.046455 0.045786 0.040732 0.024042 0.012801 0.009463 0.012801 0.015373 0.009463 0.013906 0.048452 0.046455 0.025110 0.031096 0.030047 0.006466 0.009463 0.003059 0.019375 0.032489 0.006089 0.001916 0.032489 0.015373 0.009463 0.024042 0.007593 0.018651 0.012062 0.001534 0.015007 0.046455 0.026528 0.012801 0.012062 0.009463 0.044781 0.051099 0.003820 0.015373
0.025110 0.023685 0.023685 0.018651 0.018289 0.023685 0.024042 0.024042 0.013906 0.000768 0.003059 0.000384 0.001916 0.000768 0.001534 0.001916 0.001534 0.000384 0.000000 0.003059 0.003820 0.001916 0.001916 0.036292 0.052414 0.046455 0.051428 0.060532 0.087482 0.100725 0.098693 0.086284 0.096359 0.106474 0.116905 0.106474 0.107330 0.116627 0.116905 0.127630 0.127630 0.142582 0.138626 0.100725 0.074709 0.070668 0.055358 0.064365 0.055358 0.041749 0.051757 0.064365 0.079625 0.093716 0.079014 0.051757 0.048784 0.039372 0.016834 0.012062 0.012801 0.016834 0.019375 0.019375 0.021537 0.029346 0.048784 0.037664 0.051428 0.078095 0.059245 0.059567 0.068160 0.078095 0.069102 0.039372 0.051757 0.087781 0.067215 0.059245 0.103322 0.091057 0.043773 0.048784 0.052414 0.076867 0.086284 0.068160 0.076867 0.086584 0.067845 0.051099 0.068160 0.077175 0.077175 0.108752 0.106474 0.070668 0.046455 0.043773 0.043773 0.043773 0.043773 0.043437 0.043773 0.032837 0.036635 0.031096 0.001916 0.001916 0.018289 0.013538 0.009835 0.009463 0.019736 0.018289 0.029697 0.069102 0.069102 0.064365 0.077175 0.086584 0.060532 0.044781 0.044781 0.036292 0.036292 0.036635 0.051428 0.059567 0.051099 0.059245 0.051428 0.036292 0.029697 0.029697 0.029697 0.019736 0.024042 0.026528 0.022613 0.036292 0.035259 0.048452 0.046455 0.036292 0.027235 0.032837 0.025110 0.010951 0.012801 0.012801 0.009463 0.012801 0.027235 0.032489 0.024042 0.029346 0.012801 0.006842 0.004956 0.007593 0.016834 0.010951 0.013906 0.018651 0.012801 0.006842 0.003059 0.001916 0.004956 0.006466 0.007593 0.009463 0.007593 0.009835 0.003820 0.006089 0.024042 0.023685 0.009835 0.016834 0.019375 0.015373 0.012062 0.006466 0.010951 0.006466 0.000384 0.000768 0.001916 0.003820 0.015373 0.032489 0.042087 0.006466 0.000384 0.000768 0.001916 0.000384 0.001534 0.001916 0.001916 0.000000 0.001534 0.000000 0.001916 0.001534 0.000768 0.000768 0.000768 0.001534 0.000768 0.000384 0.001916 0.004956 0.007593 0.007593 0.021537 0.038348 0.032489 0.038348 0.042087 0.042087 0.051757 0.044781 0.055358 0.064365 0.082666 0.045786 0.021537 0.018651 0.024042 0.035259 0.037664 0.036635 0.024042 0.009835 0.006466 0.006466 0.010951 0.030047 0.088976 0.059567 0.001534 0.030047 0.036635 0.022613 0.021537 0.015373 0.003059 0.000000 0.012801 0.036292 0.009835 0.018289 0.009463 0.006089 0.027235 0.013538 0.009835 0.015373 0.006466 0.001534 0.009463 0.031096 0.021537 0.026882 0.015373 0.032837 0.048784 0.015007 0.013906
0.013906 0.018651 0.018651 0.018651 0.018289 0.018651 0.030047 0.024042 0.012801 0.003440 0.004956 0.001916 0.001916 0.001916 0.001534 0.001916 0.001916 0.001534 0.001916 0.004956 0.003820 0.003059 0.001916 0.030047 0.070668 0.051757 0.056333 0.051757 0.037664 0.077175 0.131685 0.134100 0.079625 0.106474 0.162114 0.158831 0.107330 0.097236 0.117740 0.127358 0.106474 0.139420 0.197052 0.128444 0.070668 0.055358 0.051757 0.055358 0.044781 0.055358 0.062773 0.070668 0.087781 0.096944 0.075636 0.055358 0.042087 0.025110 0.018651 0.015007 0.018651 0.021537 0.015007 0.019375 0.029346 0.044781 0.035259 0.031096 0.044781 0.059567 0.076867 0.051428 0.043773 0.079625 0.070668 0.037664 0.036292 0.060532 0.072849 0.062134 0.078095 0.100725 0.062134 0.043773 0.059567 0.077175 0.086584 0.086584 0.078095 0.076867 0.077175 0.052414 0.070668 0.098693 0.087482 0.077175 0.070668 0.074709 0.074709 0.064365 0.054052 0.037664 0.037664 0.043773 0.052414 0.037664 0.036635 0.037664 0.000768 0.009835 0.019736 0.013906 0.010951 0.015007 0.018651 0.024042 0.036292 0.043773 0.051428 0.067845 0.087482 0.086584 0.068160 0.043773 0.030047 0.031096 0.046455 0.043773 0.043773 0.059245 0.059567 0.052414 0.056333 0.041749 0.035259 0.032837 0.027235 0.022613 0.024042 0.042087 0.031096 0.029346 0.032489 0.031096 0.035604 0.040732 0.041749 0.039372 0.026882 0.010951 0.010951 0.009463 0.004956 0.006842 0.019736 0.031096 0.018651 0.019736 0.016834 0.007593 0.006842 0.004956 0.010951 0.019736 0.029697 0.030047 0.013906 0.001916 0.000000 0.001534 0.006466 0.007593 0.012801 0.009463 0.004956 0.001534 0.003440 0.009835 0.018289 0.021537 0.012801 0.010951 0.012801 0.012062 0.012801 0.018651 0.009463 0.001916 0.001916 0.001916 0.003820 0.015007 0.031096 0.046455 0.016834 0.000768 0.000384 0.001916 0.001534 0.001534 0.004956 0.004956 0.001916 0.000384 0.001534 0.000768 0.001916 0.000384 0.001534 0.000768 0.000768 0.000384 0.001534 0.003059 0.001534 0.003820 0.006842 0.006842 0.003059 0.006842 0.015373 0.015373 0.022613 0.022613 0.027235 0.022613 0.026528 0.048784 0.062134 0.031096 0.018651 0.019736 0.013906 0.030047 0.043773 0.032837 0.018651 0.009463 0.006089 0.006089 0.009463 0.029697 0.110734 0.030047 0.003820 0.018289 0.009463 0.043773 0.036292 0.040732 0.031096 0.000768 0.009463 0.022613 0.041749 0.006089 0.030047 0.018289 0.040732 0.026882 0.010951 0.019375 0.012801 0.000768 0.031096 0.021537 0.018289 0.046455 0.044781 0.019736 0.035604 0.031096 0.010951
0.024042 0.025110 0.013906 0.013538 0.018651 0.018651 0.024042 0.016834 0.009463 0.009835 0.003820 0.003059 0.001916 0.000384 0.003440 0.001916 0.001534 0.001916 0.001916 0.003820 0.001916 0.001534 0.000768 0.046455 0.093716 0.059245 0.066899 0.055358 0.066899 0.059567 0.026882 0.103322 0.134100 0.070668 0.123537 0.173305 0.202643 0.161359 0.097236 0.100725 0.107330 0.140741 0.185681 0.161359 0.097236 0.056333 0.055358 0.055358 0.064365 0.069729 0.059567 0.067215 0.087781 0.091649 0.075636 0.059245 0.019736 0.009835 0.013906 0.023685 0.023685 0.007593 0.009463 0.015373 0.019375 0.025110 0.025110 0.025110 0.030047 0.059567 0.081756 0.062773 0.044781 0.064365 0.084479 0.064365 0.044781 0.043773 0.054052 0.069102 0.086584 0.079625 0.070668 0.059245 0.068160 0.078095 0.086584 0.096359 0.067845 0.078095 0.088976 0.072849 0.084479 0.068160 0.043773 0.039372 0.056333 0.070668 0.082968 0.096066 0.079319 0.062773 0.059245 0.048784 0.044781 0.052743 0.048452 0.051428 0.036292 0.009463 0.003440 0.013906 0.013538 0.007593 0.006466 0.013906 0.043437 0.060532 0.062134 0.088976 0.088976 0.059245 0.044781 0.044781 0.037664 0.025110 0.044781 0.069102 0.059567 0.043773 0.039372 0.041749 0.052743 0.057630 0.052743 0.045786 0.036292 0.027235 0.019375 0.019375 0.027235 0.018651 0.022613 0.024042 0.022613 0.035259 0.048784 0.039372 0.032837 0.013906 0.006466 0.007593 0.003820 0.006089 0.025110 0.030047 0.018289 0.013538 0.010951 0.006842 0.006842 0.009835 0.013538 0.018651 0.030047 0.024042 0.010951 0.003059 0.000384 0.003820 0.010951 0.013906 0.010951 0.006842 0.000768 0.001916 0.007593 0.006466 0.006466 0.012801 0.019375 0.016834 0.012062 0.015373 0.021537 0.018651 0.010951 0.003059 0.003820 0.007593 0.012801 0.027235 0.042087 0.019375 0.000768 0.000384 0.001534 0.000384 0.000768 0.007593 0.009463 0.004956 0.000384 0.001534 0.000768 0.001916 0.000384 0.000384 0.000768 0.000384 0.000384 0.000768 0.001534 0.003059 0.007593 0.000768 0.003059 0.006842 0.004956 0.003059 0.006842 0.009463 0.012801 0.012801 0.010951 0.016834 0.023685 0.043773 0.068160 0.051099 0.018651 0.009463 0.013538 0.030047 0.051428 0.037664 0.009835 0.006089 0.006466 0.006466 0.009835 0.009835 0.081756 0.098111 0.000768 0.009463 0.024042 0.009463 0.019736 0.015007 0.025110 0.012801 0.006466 0.026528 0.036635 0.001534 0.003440 0.003059 0.035259 0.040732 0.006466 0.056333 0.018289 0.029346 0.024042 0.009463 0.003820 0.004956 0.084479 0.018651 0.003820 0.025110 0.052743
0.024042 0.018289 0.009835 0.009835 0.015007 0.019736 0.019736 0.019375 0.006842 0.006089 0.003820 0.004956 0.004956 0.001916 0.003820 0.004956 0.003820 0.001534 0.003059 0.000768 0.000384 0.001916 0.006466 0.074709 0.093716 0.067215 0.067215 0.055358 0.055358 0.048784 0.040732 0.040732 0.097236 0.137034 0.113270 0.149617 0.175023 0.188310 0.173797 0.129797 0.098693 0.144939 0.178926 0.128444 0.086284 0.077175 0.064365 0.070668 0.074709 0.048452 0.036292 0.062773 0.110169 0.091649 0.059245 0.025110 0.010951 0.009835 0.013906 0.018651 0.018651 0.018651 0.009835 0.007593 0.012801 0.024042 0.030047 0.025110 0.024042 0.023685 0.041749 0.059567 0.079319 0.096066 0.092536 0.074709 0.070668 0.056333 0.062134 0.078095 0.070668 0.079625 0.088976 0.077175 0.076867 0.076867 0.077175 0.076867 0.086584 0.107330 0.097236 0.070668 0.044781 0.043437 0.051099 0.051099 0.036292 0.037664 0.046455 0.066899 0.082968 0.070668 0.062773 0.051757 0.042087 0.046455 0.051428 0.063092 0.051428 0.046455 0.032489 0.015007 0.019375 0.019736 0.013538 0.021537 0.051757 0.072849 0.067215 0.070668 0.059245 0.043773 0.051428 0.043437 0.030047 0.030047 0.043773 0.052414 0.056333 0.046455 0.041749 0.029346 0.032489 0.048452 0.042087 0.040732 0.036292 0.027235 0.021537 0.018651 0.010951 0.009463 0.016834 0.024042 0.021537 0.031096 0.046455 0.046455 0.039372 0.019736 0.006089 0.006466 0.007593 0.016834 0.029346 0.019736 0.013906 0.009463 0.004956 0.004956 0.009835 0.013538 0.018289 0.024042 0.018651 0.013906 0.009835 0.006089 0.003820 0.009463 0.009463 0.007593 0.018651 0.003820 0.001916 0.004956 0.003820 0.001916 0.006842 0.012062 0.012801 0.015373 0.016834 0.015373 0.035259 0.026882 0.007593 0.003820 0.003820 0.012801 0.015373 0.026528 0.027235 0.006466 0.000768 0.001534 0.000000 0.001534 0.004956 0.009463 0.009463 0.001916 0.001916 0.000384 0.000000 0.000384 0.000000 0.000384 0.000384 0.000384 0.000384 0.001534 0.001916 0.003059 0.010951 0.003440 0.001916 0.004956 0.004956 0.001916 0.003820 0.007593 0.010951 0.013906 0.009835 0.018651 0.036635 0.036635 0.052414 0.055358 0.027235 0.015007 0.018289 0.036635 0.051428 0.029697 0.009463 0.009463 0.009463 0.006089 0.009463 0.006466 0.018289 0.082666 0.018651 0.006089 0.006842 0.021537 0.042087 0.040732 0.012801 0.001916 0.036292 0.055358 0.015373 0.003820 0.036635 0.056333 0.021537 0.059567 0.067215 0.015373 0.015373 0.009463 0.031096 0.015007 0.010951 0.012801 0.018651 0.048452 0.015007 0.000384 0.024042
0.015007 0.016834 0.012801 0.010951 0.019375 0.019736 0.015007 0.012801 0.009463 0.001916 0.001916 0.004956 0.003059 0.003820 0.001916 0.003820 0.001916 0.001534 0.001534 0.000000 0.000384 0.000384 0.029697 0.110169 0.070668 0.054052 0.062134 0.054052 0.039372 0.056333 0.055358 0.051428 0.036292 0.043773 0.184962 0.190688 0.106188 0.181591 0.227077 0.158831 0.128444 0.165124 0.149875 0.106474 0.087482 0.086284 0.086284 0.070668 0.048784 0.039372 0.051757 0.079014 0.093716 0.060532 0.031096 0.009835 0.006089 0.013906 0.013906 0.023685 0.024042 0.013906 0.013538 0.013538 0.012801 0.016834 0.030047 0.025110 0.019736 0.024042 0.024042 0.025110 0.035259 0.071604 0.109886 0.100725 0.075636 0.079014 0.072849 0.072849 0.079625 0.078095 0.087482 0.088976 0.078095 0.087482 0.087482 0.097236 0.086284 0.086284 0.096359 0.068160 0.051099 0.051428 0.043437 0.036635 0.037664 0.036292 0.032837 0.044781 0.069102 0.060532 0.060532 0.046455 0.026882 0.026882 0.026882 0.032837 0.032489 0.026882 0.037664 0.021537 0.016834 0.026882 0.032837 0.043773 0.052414 0.060532 0.052414 0.043773 0.054052 0.051428 0.051428 0.043773 0.029697 0.024042 0.036292 0.043773 0.051428 0.046455 0.032837 0.032837 0.025110 0.035259 0.035259 0.026882 0.026882 0.026882 0.026882 0.024042 0.015373 0.009463 0.010951 0.021537 0.025110 0.030047 0.037664 0.039372 0.039372 0.035259 0.018651 0.013906 0.010951 0.016834 0.019736 0.013906 0.009463 0.003820 0.003820 0.006466 0.009835 0.013906 0.019736 0.025110 0.018651 0.015007 0.016834 0.007593 0.007593 0.015373 0.007593 0.012062 0.009463 0.003440 0.001534 0.009463 0.000768 0.000384 0.003820 0.018651 0.016834 0.006842 0.009463 0.015007 0.025110 0.035259 0.015373 0.006466 0.009463 0.015373 0.019375 0.035604 0.012062 0.003059 0.003820 0.000768 0.001534 0.003059 0.009463 0.012801 0.006842 0.000384 0.001916 0.003820 0.000384 0.000768 0.000000 0.000384 0.001916 0.000384 0.001916 0.003440 0.001916 0.001916 0.013906 0.009835 0.001534 0.003820 0.007593 0.003820 0.001916 0.004956 0.016834 0.026882 0.019736 0.013906 0.026882 0.029346 0.031096 0.063092 0.064365 0.041749 0.029697 0.037664 0.043437 0.030047 0.009463 0.006089 0.006466 0.006466 0.013906 0.010951 0.006466 0.035259 0.021537 0.012801 0.022613 0.035259 0.046455 0.010951 0.021537 0.007593 0.009463 0.009835 0.010951 0.018289 0.026882 0.030047 0.031096 0.026528 0.018289 0.004956 0.003820 0.006842 0.015373 0.024042 0.036292 0.003440 0.003440 0.022613 0.019375 0.030047 0.041749
0.019375 0.019375 0.022613 0.009463 0.019375 0.031096 0.015007 0.009835 0.007593 0.003820 0.001916 0.004956 0.003059 0.001916 0.001916 0.001916 0.001916 0.000384 0.000000 0.000000 0.000768 0.000768 0.036635 0.086584 0.051428 0.059567 0.059245 0.044781 0.051428 0.068160 0.060532 0.052743 0.069729 0.125724 0.185442 0.139420 0.067215 0.130067 0.173059 0.167369 0.210003 0.173797 0.116905 0.138626 0.097236 0.059567 0.086584 0.098693 0.059245 0.043773 0.043437 0.051428 0.062134 0.056333 0.030047 0.013906 0.009835 0.013538 0.018651 0.019736 0.023685 0.013906 0.006089 0.018289 0.025110 0.016834 0.026882 0.032837 0.024042 0.010951 0.018651 0.023685 0.018651 0.037664 0.081756 0.103322 0.072849 0.064365 0.079625 0.087482 0.087482 0.088976 0.078095 0.079625 0.087482 0.078095 0.078095 0.098693 0.108752 0.097236 0.088976 0.079625 0.060532 0.044781 0.036292 0.036635 0.043437 0.029697 0.030047 0.060532 0.069102 0.059567 0.044781 0.041749 0.032837 0.031096 0.030047 0.023685 0.029697 0.036635 0.025110 0.009835 0.015007 0.019736 0.036635 0.052414 0.054052 0.070668 0.054052 0.030047 0.044781 0.062134 0.052414 0.051428 0.043773 0.029697 0.029697 0.044781 0.039372 0.035259 0.037664 0.032837 0.021537 0.025110 0.039372 0.032837 0.026882 0.024042 0.022613 0.026528 0.026528 0.019375 0.015007 0.019736 0.031096 0.030047 0.030047 0.036635 0.030047 0.031096 0.030047 0.018289 0.013538 0.013538 0.013906 0.010951 0.007593 0.007593 0.009463 0.009463 0.010951 0.021537 0.029346 0.024042 0.024042 0.029346 0.012801 0.006842 0.015373 0.009463 0.009463 0.015373 0.006842 0.000384 0.012801 0.007593 0.000768 0.001534 0.000768 0.007593 0.024042 0.010951 0.006089 0.013538 0.018289 0.016834 0.015373 0.009835 0.010951 0.018651 0.031096 0.024042 0.003440 0.001916 0.001916 0.001916 0.003820 0.009463 0.012062 0.012062 0.003059 0.000768 0.001534 0.000768 0.001534 0.000768 0.000768 0.000384 0.001916 0.001916 0.001916 0.006089 0.000000 0.007593 0.015373 0.007593 0.000768 0.003820 0.004956 0.006842 0.004956 0.004956 0.012062 0.031096 0.035604 0.031096 0.035604 0.046455 0.042087 0.051428 0.070668 0.072849 0.059567 0.036292 0.029697 0.030047 0.013906 0.006466 0.006466 0.006466 0.006089 0.009463 0.009835 0.037664 0.051428 0.025110 0.006466 0.009463 0.006842 0.025110 0.046455 0.063092 0.046455 0.009835 0.010951 0.025110 0.024042 0.004956 0.001534 0.007593 0.009835 0.013538 0.006089 0.001534 0.022613 0.012062 0.019736 0.051428 0.009835 0.003820 0.036635 0.026882 0.001534
0.022613 0.018651 0.019375 0.016834 0.018651 0.029697 0.018651 0.009463 0.001916 0.001916 0.003059 0.004956 0.003059 0.001916 0.001534 0.001916 0.001916 0.000768 0.000384 0.000384 0.000384 0.000000 0.029697 0.100725 0.070668 0.043773 0.039372 0.046455 0.060532 0.078095 0.096359 0.096359 0.087482 0.110734 0.088976 0.108752 0.163371 0.133832 0.100725 0.144939 0.212736 0.173797 0.138626 0.138361 0.088976 0.060532 0.054052 0.087781 0.091649 0.041749 0.035259 0.048784 0.070668 0.087781 0.059245 0.019736 0.009835 0.006089 0.024042 0.030047 0.018289 0.013538 0.009835 0.026882 0.025110 0.021537 0.038348 0.035259 0.015007 0.009835 0.013538 0.024042 0.019736 0.018289 0.059245 0.087482 0.078095 0.077175 0.087482 0.078095 0.069102 0.079625 0.088976 0.087482 0.087482 0.088976 0.077175 0.086584 0.097236 0.087482 0.086584 0.077175 0.059567 0.069102 0.072849 0.044781 0.035259 0.031096 0.046455 0.068160 0.043437 0.031096 0.039372 0.041749 0.041749 0.036635 0.036635 0.037664 0.031096 0.036635 0.037664 0.003440 0.003440 0.029697 0.031096 0.030047 0.044781 0.064365 0.075636 0.052414 0.036292 0.051428 0.068160 0.051428 0.036635 0.031096 0.026882 0.029346 0.048452 0.056333 0.041749 0.032489 0.035259 0.032837 0.029346 0.036292 0.035604 0.036292 0.031096 0.026528 0.031096 0.029346 0.018651 0.018651 0.030047 0.036635 0.037664 0.036292 0.030047 0.029697 0.030047 0.018651 0.009835 0.010951 0.015373 0.018651 0.018651 0.018651 0.018651 0.019375 0.025110 0.023685 0.023685 0.023685 0.018651 0.009835 0.009463 0.010951 0.009463 0.007593 0.012801 0.009463 0.001916 0.003440 0.012801 0.001534 0.000384 0.001534 0.000384 0.001534 0.015007 0.019736 0.013538 0.013906 0.009463 0.007593 0.009463 0.006466 0.012801 0.026528 0.026528 0.012801 0.004956 0.007593 0.001916 0.001916 0.004956 0.006842 0.009463 0.006842 0.000384 0.001916 0.001916 0.000768 0.000384 0.000384 0.001534 0.001916 0.001534 0.001534 0.000384 0.006089 0.000384 0.013538 0.016834 0.003059 0.000768 0.003059 0.003059 0.004956 0.007593 0.007593 0.009463 0.018651 0.026528 0.031096 0.031096 0.036292 0.036292 0.056333 0.079625 0.078095 0.060532 0.044781 0.036635 0.023685 0.009835 0.006466 0.006466 0.009835 0.006466 0.006466 0.009835 0.030047 0.048784 0.027235 0.015373 0.021537 0.009463 0.003820 0.003059 0.023685 0.070668 0.037664 0.013906 0.025110 0.009463 0.025110 0.009463 0.003440 0.009835 0.009463 0.012801 0.029346 0.019736 0.018651 0.006842 0.004956 0.006466 0.056333 0.013906 0.036292 0.006466
0.022613 0.024042 0.024042 0.018651 0.029697 0.030047 0.013538 0.009835 0.003059 0.001534 0.001916 0.003820 0.001916 0.000768 0.000384 0.001916 0.001916 0.001534 0.000384 0.000000 0.001916 0.000768 0.013538 0.084479 0.112426 0.079319 0.046455 0.052414 0.060532 0.079625 0.088976 0.121062 0.149617 0.096944 0.064365 0.074709 0.131685 0.163371 0.130067 0.140477 0.131685 0.117740 0.139420 0.126542 0.087781 0.067215 0.056333 0.067215 0.091649 0.082968 0.048784 0.041749 0.051757 0.070668 0.084479 0.048452 0.021537 0.013906 0.016834 0.024042 0.031096 0.021537 0.024042 0.036292 0.032489 0.038348 0.038348 0.016834 0.006466 0.003820 0.009835 0.036635 0.024042 0.025110 0.059567 0.077175 0.077175 0.059567 0.068160 0.087482 0.078095 0.078095 0.087482 0.087482 0.078095 0.087482 0.097236 0.086284 0.096066 0.106474 0.097236 0.097236 0.086584 0.072849 0.062134 0.039372 0.026882 0.025110 0.025110 0.036635 0.046455 0.036635 0.030047 0.029697 0.051428 0.052414 0.024042 0.021537 0.041749 0.037664 0.032837 0.024042 0.013538 0.029697 0.030047 0.024042 0.029697 0.043773 0.069102 0.070668 0.051428 0.051099 0.051428 0.052414 0.037664 0.019736 0.019736 0.026882 0.041749 0.051757 0.046455 0.046455 0.046455 0.045786 0.046455 0.042087 0.048452 0.046455 0.045786 0.035604 0.029346 0.044781 0.043437 0.032837 0.032837 0.037664 0.024042 0.018289 0.031096 0.031096 0.029346 0.027235 0.027235 0.021537 0.032837 0.035259 0.041749 0.048784 0.055358 0.057630 0.056982 0.051428 0.040732 0.040732 0.040732 0.031096 0.022613 0.016834 0.009835 0.006466 0.010951 0.007593 0.000384 0.010951 0.010951 0.000768 0.000384 0.001534 0.000384 0.001534 0.009463 0.018651 0.018651 0.013906 0.006466 0.001916 0.003059 0.003440 0.019375 0.026528 0.022613 0.003820 0.004956 0.007593 0.004956 0.003820 0.004956 0.006842 0.007593 0.003059 0.000384 0.000768 0.003059 0.001916 0.000384 0.001534 0.003440 0.003440 0.006089 0.003440 0.001916 0.003440 0.000384 0.015007 0.021537 0.004956 0.001916 0.001916 0.003059 0.001916 0.003820 0.004956 0.006842 0.012801 0.015373 0.015373 0.022613 0.029346 0.037664 0.052414 0.077175 0.078095 0.060532 0.059245 0.043773 0.018289 0.009463 0.006466 0.006466 0.006466 0.007593 0.006089 0.009463 0.019736 0.026528 0.046455 0.025110 0.019375 0.022613 0.000000 0.012062 0.016834 0.018651 0.054052 0.029697 0.004956 0.015007 0.010951 0.029346 0.021537 0.001916 0.012062 0.003820 0.013906 0.009463 0.032837 0.059245 0.082968 0.038348 0.000384 0.001534 0.025110 0.091057
0.026882 0.031096 0.031096 0.018651 0.029697 0.030047 0.010951 0.006842 0.003820 0.003820 0.004956 0.006466 0.001916 0.000768 0.000000 0.001534 0.001534 0.001534 0.000384 0.000768 0.000384 0.001916 0.000768 0.026528 0.106474 0.126542 0.087482 0.054052 0.054052 0.075636 0.093716 0.127358 0.173059 0.128444 0.060532 0.070668 0.123537 0.140741 0.129797 0.110734 0.106474 0.106474 0.100725 0.110169 0.106474 0.081756 0.056333 0.059245 0.070668 0.079319 0.062773 0.048452 0.055358 0.051757 0.071604 0.079319 0.066899 0.039372 0.024042 0.024042 0.030047 0.025110 0.032489 0.042087 0.035604 0.035604 0.027235 0.015373 0.012062 0.015373 0.026528 0.032489 0.026882 0.027235 0.037664 0.067845 0.077175 0.077175 0.077175 0.068160 0.069102 0.077175 0.086584 0.086284 0.086284 0.086284 0.096359 0.106474 0.106188 0.106188 0.096359 0.068160 0.078095 0.087482 0.060532 0.036635 0.023685 0.024042 0.024042 0.030047 0.044781 0.044781 0.043437 0.037664 0.024042 0.037664 0.032837 0.018651 0.036292 0.044781 0.025110 0.015007 0.018651 0.026882 0.032489 0.041749 0.046455 0.046455 0.054052 0.064365 0.067215 0.059245 0.059245 0.051757 0.048452 0.038348 0.031096 0.026528 0.036292 0.056982 0.057630 0.057630 0.071604 0.059567 0.059567 0.052743 0.046455 0.045786 0.040732 0.044781 0.052414 0.051099 0.051099 0.036292 0.024042 0.024042 0.025110 0.019736 0.021537 0.027235 0.031096 0.041749 0.054052 0.062134 0.062134 0.064365 0.070668 0.064365 0.070668 0.079319 0.082666 0.075636 0.063092 0.057630 0.057630 0.052743 0.051428 0.051428 0.036292 0.019736 0.013906 0.003820 0.003820 0.019375 0.007593 0.001534 0.001916 0.001916 0.000768 0.001534 0.009463 0.013538 0.013906 0.013906 0.010951 0.003820 0.000768 0.012801 0.031096 0.031096 0.012801 0.001916 0.004956 0.006842 0.009835 0.009835 0.010951 0.007593 0.006842 0.003059 0.003820 0.001916 0.003820 0.004956 0.001534 0.003059 0.003820 0.003440 0.003440 0.003820 0.007593 0.007593 0.004956 0.032489 0.024042 0.003820 0.003820 0.001916 0.001916 0.001916 0.000768 0.001916 0.003820 0.007593 0.010951 0.010951 0.015007 0.030047 0.037664 0.060532 0.077175 0.069102 0.077175 0.069102 0.037664 0.018289 0.007593 0.004956 0.007593 0.007593 0.010951 0.013906 0.003820 0.006842 0.015373 0.042087 0.056982 0.032837 0.046455 0.035604 0.010951 0.015373 0.021537 0.030047 0.019736 0.007593 0.001534 0.006466 0.009463 0.019375 0.009463 0.016834 0.016834 0.004956 0.006089 0.006089 0.012801 0.064365 0.051757 0.009463 0.009463 0.001916 0.006089
0.025110 0.025110 0.032837 0.031096 0.029697 0.019736 0.009463 0.009463 0.003059 0.001916 0.004956 0.007593 0.004956 0.001534 0.000768 0.001534 0.001534 0.001534 0.001534 0.001916 0.000768 0.000768 0.000768 0.006089 0.077175 0.138361 0.069102 0.043773 0.043773 0.060532 0.138626 0.163371 0.127358 0.119127 0.091057 0.086284 0.127630 0.138626 0.127358 0.107330 0.077175 0.068160 0.079625 0.098693 0.110734 0.084479 0.059567 0.055358 0.076867 0.098111 0.090166 0.048452 0.059245 0.051757 0.041749 0.055358 0.066899 0.071604 0.052743 0.044781 0.039372 0.048784 0.044781 0.037664 0.030047 0.018289 0.013906 0.009835 0.006089 0.009463 0.013538 0.018289 0.023685 0.024042 0.029346 0.052414 0.067845 0.076867 0.068160 0.059567 0.076867 0.086284 0.096359 0.098693 0.078095 0.077175 0.086584 0.097236 0.108752 0.100725 0.096944 0.093716 0.079625 0.072849 0.070668 0.054052 0.025110 0.019736 0.025110 0.031096 0.037664 0.054052 0.060532 0.037664 0.023685 0.023685 0.030047 0.036292 0.030047 0.026882 0.035259 0.026882 0.010951 0.012801 0.029346 0.044781 0.048452 0.048784 0.067215 0.062773 0.064365 0.076867 0.082666 0.082059 0.082666 0.091649 0.079014 0.071604 0.059567 0.066899 0.064365 0.066899 0.064365 0.069729 0.051428 0.045786 0.036292 0.042087 0.048784 0.052414 0.059567 0.059567 0.043437 0.037664 0.026882 0.021537 0.024042 0.022613 0.026528 0.032489 0.032837 0.052414 0.060532 0.069102 0.079625 0.079625 0.081756 0.067215 0.062773 0.069729 0.088976 0.082059 0.063092 0.051428 0.051428 0.045786 0.045786 0.051428 0.055358 0.046455 0.024042 0.001916 0.010951 0.016834 0.004956 0.001534 0.003059 0.006466 0.001534 0.003440 0.009463 0.013538 0.013906 0.010951 0.007593 0.006842 0.010951 0.036292 0.036292 0.019375 0.003440 0.003059 0.004956 0.006466 0.009463 0.009835 0.009835 0.006466 0.007593 0.007593 0.006089 0.009835 0.006466 0.007593 0.003820 0.001916 0.001916 0.001534 0.003440 0.003820 0.006842 0.010951 0.021537 0.035604 0.015373 0.001916 0.004956 0.003820 0.001916 0.003059 0.001916 0.001916 0.001916 0.006466 0.009835 0.009835 0.018289 0.024042 0.029697 0.059567 0.076867 0.076867 0.097236 0.087482 0.031096 0.009463 0.009463 0.009463 0.007593 0.007593 0.010951 0.012801 0.009463 0.006842 0.012801 0.006842 0.032489 0.031096 0.035604 0.075636 0.040732 0.052743 0.056333 0.018651 0.012062 0.012801 0.004956 0.009463 0.003820 0.006466 0.003820 0.003820 0.029346 0.019736 0.042087 0.013906 0.003440 0.013906 0.064365 0.032837 0.036635 0.009835 0.042087
0.025110 0.026882 0.031096 0.037664 0.030047 0.019375 0.012062 0.009463 0.004956 0.000768 0.004956 0.004956 0.003059 0.000768 0.001916 0.003820 0.001534 0.001916 0.003820 0.001916 0.001916 0.001916 0.001534 0.026882 0.084479 0.086584 0.077175 0.062134 0.087781 0.109886 0.110169 0.116905 0.107330 0.093716 0.096944 0.123537 0.131685 0.134100 0.147804 0.126542 0.081756 0.070668 0.076867 0.086284 0.078095 0.062773 0.059567 0.052743 0.051428 0.071604 0.115231 0.101014 0.071604 0.066899 0.048784 0.044781 0.044781 0.048452 0.055358 0.062773 0.044781 0.038348 0.048452 0.052743 0.051428 0.035604 0.026528 0.026528 0.022613 0.022613 0.031096 0.036292 0.056333 0.044781 0.024042 0.037664 0.059245 0.068160 0.068160 0.077175 0.076867 0.070668 0.064365 0.087781 0.116348 0.098693 0.088976 0.088976 0.093716 0.087781 0.096944 0.106474 0.093716 0.093716 0.072849 0.048784 0.035259 0.029346 0.025110 0.031096 0.037664 0.044781 0.056333 0.059245 0.039372 0.032837 0.035259 0.027235 0.027235 0.036292 0.040732 0.051428 0.035604 0.019375 0.019375 0.032489 0.071604 0.071604 0.052743 0.057630 0.057630 0.063092 0.057630 0.063092 0.062773 0.074709 0.090166 0.084479 0.079319 0.063092 0.057630 0.057630 0.051428 0.051428 0.052743 0.044781 0.032837 0.037664 0.051428 0.059567 0.077175 0.059567 0.031096 0.021537 0.024042 0.024042 0.022613 0.022613 0.029346 0.041749 0.044781 0.051099 0.068160 0.077175 0.078095 0.081756 0.075636 0.074709 0.064365 0.057630 0.069102 0.082666 0.075636 0.051428 0.046455 0.036292 0.032489 0.051757 0.067215 0.056333 0.026882 0.003059 0.010951 0.015007 0.004956 0.000384 0.003440 0.006466 0.001534 0.001916 0.009835 0.009463 0.006466 0.012801 0.012062 0.009463 0.029346 0.036292 0.024042 0.006466 0.001916 0.001916 0.003820 0.003820 0.003440 0.006466 0.003820 0.006466 0.009463 0.010951 0.006089 0.009835 0.007593 0.006842 0.003059 0.000768 0.000768 0.001916 0.003820 0.003820 0.004956 0.003440 0.012062 0.027235 0.007593 0.001916 0.004956 0.004956 0.003059 0.003059 0.003059 0.003059 0.003820 0.006089 0.009463 0.013906 0.025110 0.031096 0.039372 0.062134 0.069102 0.086584 0.096359 0.048452 0.029346 0.022613 0.015373 0.012801 0.012801 0.007593 0.007593 0.012062 0.009463 0.010951 0.012062 0.015007 0.010951 0.007593 0.009463 0.022613 0.044781 0.051428 0.105044 0.030047 0.004956 0.012062 0.032489 0.027235 0.000384 0.006089 0.001534 0.003820 0.009463 0.010951 0.009835 0.038348 0.019736 0.015373 0.018289 0.116905 0.066899 0.018651 0.064365
0.016834 0.026882 0.039372 0.039372 0.021537 0.019375 0.015373 0.012801 0.009463 0.001916 0.001534 0.006089 0.003820 0.000384 0.000768 0.003440 0.006466 0.004956 0.003059 0.001916 0.001916 0.003820 0.009835 0.029697 0.059245 0.077175 0.087482 0.113270 0.106474 0.069102 0.059567 0.070668 0.075636 0.087781 0.096944 0.116348 0.144417 0.149100 0.155014 0.177709 0.145461 0.128715 0.119957 0.081756 0.062773 0.052743 0.044781 0.048452 0.048784 0.054052 0.059245 0.071604 0.098111 0.106474 0.071604 0.057630 0.059567 0.059567 0.052743 0.059567 0.055358 0.041749 0.038348 0.036292 0.042087 0.042087 0.027235 0.022613 0.019375 0.015373 0.022613 0.041749 0.052414 0.054052 0.052414 0.043437 0.043437 0.068160 0.069102 0.072849 0.062134 0.056333 0.075636 0.079625 0.110734 0.113270 0.093716 0.084479 0.087781 0.096944 0.093716 0.103322 0.093716 0.087781 0.091649 0.062773 0.032489 0.035259 0.039372 0.031096 0.037664 0.039372 0.041749 0.055358 0.048452 0.035604 0.046455 0.063092 0.051428 0.026528 0.031096 0.036292 0.048452 0.036292 0.027235 0.016834 0.024042 0.066899 0.074709 0.059567 0.052743 0.062773 0.055358 0.031096 0.035604 0.031096 0.042087 0.051428 0.057630 0.057630 0.045786 0.051428 0.052743 0.048452 0.051757 0.056333 0.046455 0.043437 0.051099 0.051099 0.060532 0.056333 0.035259 0.029346 0.024042 0.022613 0.018651 0.021537 0.025110 0.044781 0.059567 0.059567 0.068160 0.077175 0.070668 0.072849 0.070668 0.071604 0.076867 0.075636 0.069729 0.069729 0.064365 0.064365 0.048452 0.048452 0.035259 0.038348 0.062773 0.070668 0.044781 0.006842 0.010951 0.013906 0.001916 0.001534 0.006466 0.006466 0.000384 0.009463 0.007593 0.006089 0.003820 0.004956 0.015007 0.018651 0.027235 0.022613 0.010951 0.006466 0.003059 0.001916 0.001916 0.003820 0.003820 0.003820 0.001916 0.003059 0.006842 0.003059 0.003440 0.001916 0.004956 0.007593 0.004956 0.001534 0.001916 0.003059 0.001916 0.001916 0.004956 0.001916 0.031096 0.035604 0.006089 0.004956 0.003059 0.003059 0.003059 0.003059 0.003059 0.003820 0.006466 0.009463 0.015007 0.021537 0.029346 0.035259 0.044781 0.059245 0.062134 0.052414 0.037664 0.046455 0.038348 0.021537 0.019375 0.015373 0.018651 0.015373 0.009463 0.009463 0.010951 0.009463 0.015007 0.010951 0.012801 0.010951 0.006466 0.006466 0.006466 0.029697 0.116627 0.059567 0.000768 0.000384 0.003059 0.042087 0.029346 0.007593 0.001534 0.003059 0.009835 0.043773 0.013906 0.021537 0.036635 0.012062 0.056982 0.127358 0.018289 0.032489 0.110734
0.023685 0.024042 0.029697 0.036635 0.013906 0.009835 0.018289 0.009835 0.006089 0.006089 0.007593 0.006466 0.003059 0.000768 0.003059 0.006842 0.009463 0.006842 0.003059 0.004956 0.001916 0.006842 0.006842 0.032837 0.088976 0.106474 0.116905 0.096066 0.052414 0.046455 0.056333 0.067215 0.084479 0.081756 0.096944 0.110169 0.101014 0.127358 0.151938 0.175268 0.192109 0.161359 0.171088 0.136236 0.082666 0.074709 0.056333 0.048784 0.054052 0.048784 0.048784 0.044781 0.052743 0.098111 0.096359 0.075636 0.069729 0.075636 0.082059 0.090166 0.084479 0.052743 0.036292 0.038348 0.038348 0.032489 0.026528 0.027235 0.026528 0.019375 0.018651 0.043437 0.059567 0.043437 0.043773 0.051099 0.051099 0.051428 0.046455 0.070668 0.087781 0.054052 0.069102 0.086584 0.086284 0.088976 0.093716 0.084479 0.087781 0.096944 0.110169 0.110169 0.101014 0.082968 0.082968 0.074709 0.059567 0.041749 0.041749 0.041749 0.035259 0.038348 0.035259 0.039372 0.042087 0.026528 0.026528 0.031096 0.059567 0.052743 0.032489 0.031096 0.021537 0.024042 0.032837 0.032837 0.023685 0.031096 0.044781 0.052743 0.064365 0.064365 0.063092 0.045786 0.027235 0.027235 0.032489 0.039372 0.032837 0.038348 0.036292 0.042087 0.059567 0.051757 0.054052 0.056333 0.064365 0.064365 0.054052 0.046455 0.046455 0.051757 0.046455 0.035604 0.031096 0.031096 0.029346 0.037664 0.036292 0.051428 0.059245 0.068160 0.059567 0.068160 0.079625 0.075636 0.066899 0.071604 0.069729 0.088976 0.082666 0.090166 0.071604 0.069729 0.064365 0.052743 0.046455 0.042087 0.062773 0.070668 0.055358 0.018651 0.003820 0.009835 0.001916 0.001534 0.006089 0.001916 0.007593 0.006842 0.001916 0.001916 0.003820 0.006089 0.009463 0.018651 0.016834 0.012062 0.007593 0.007593 0.006842 0.003820 0.001534 0.006089 0.006089 0.006089 0.006089 0.003059 0.004956 0.001916 0.000384 0.001534 0.001534 0.003820 0.004956 0.006089 0.003820 0.004956 0.001916 0.001916 0.004956 0.024042 0.076867 0.021537 0.004956 0.006842 0.004956 0.003059 0.003059 0.001916 0.003820 0.003440 0.006089 0.021537 0.029346 0.036292 0.046455 0.057630 0.069729 0.075636 0.064365 0.055358 0.025110 0.019736 0.026882 0.022613 0.019375 0.019375 0.018651 0.022613 0.019375 0.009463 0.004956 0.009463 0.013538 0.009835 0.009463 0.013906 0.018289 0.015007 0.012062 0.041749 0.079625 0.044781 0.012801 0.003820 0.003820 0.012801 0.009835 0.015007 0.001534 0.001534 0.012801 0.009835 0.031096 0.038348 0.026882 0.069102 0.096066 0.082666 0.045786 0.110169 0.115231
0.026882 0.026882 0.026882 0.032837 0.018289 0.012801 0.010951 0.010951 0.010951 0.007593 0.004956 0.009463 0.004956 0.003820 0.006842 0.009463 0.012062 0.003059 0.004956 0.004956 0.001916 0.004956 0.012801 0.032837 0.084479 0.121062 0.106474 0.096066 0.087482 0.062773 0.046455 0.062134 0.079625 0.072849 0.070668 0.101014 0.106474 0.101014 0.127358 0.136236 0.177709 0.194469 0.168115 0.173797 0.165124 0.148841 0.110169 0.069729 0.055358 0.048784 0.046455 0.042087 0.038348 0.059567 0.088976 0.082666 0.075636 0.063092 0.082059 0.096359 0.117740 0.103034 0.075636 0.056982 0.056982 0.040732 0.032489 0.027235 0.031096 0.035259 0.036635 0.036635 0.052414 0.072849 0.052414 0.037664 0.039372 0.048784 0.056333 0.046455 0.070668 0.091057 0.088976 0.098693 0.091057 0.062134 0.075636 0.072849 0.075636 0.087781 0.091649 0.101014 0.115231 0.119127 0.091649 0.076867 0.064365 0.066899 0.048452 0.042087 0.042087 0.044781 0.059245 0.035259 0.031096 0.027235 0.024042 0.029346 0.021537 0.040732 0.055358 0.048452 0.029346 0.026882 0.025110 0.032837 0.026882 0.024042 0.032489 0.036292 0.051428 0.069729 0.069729 0.056982 0.040732 0.029346 0.037664 0.039372 0.026882 0.021537 0.027235 0.029346 0.055358 0.072849 0.054052 0.046455 0.051757 0.066899 0.079319 0.066899 0.059567 0.051428 0.059567 0.064365 0.052743 0.044781 0.052414 0.051428 0.059245 0.051428 0.051428 0.059567 0.059567 0.059567 0.070668 0.082968 0.087482 0.092536 0.092536 0.096359 0.103034 0.096359 0.088976 0.075636 0.082666 0.075636 0.063092 0.052743 0.062773 0.074709 0.055358 0.032489 0.000384 0.009463 0.006842 0.000768 0.003440 0.003440 0.004956 0.001916 0.000000 0.001534 0.003440 0.003440 0.006466 0.007593 0.007593 0.009463 0.004956 0.004956 0.009463 0.004956 0.003440 0.006466 0.006466 0.006466 0.003820 0.006089 0.003059 0.000768 0.000384 0.001916 0.003059 0.000768 0.001534 0.003440 0.009835 0.006466 0.006089 0.003440 0.010951 0.064365 0.052743 0.010951 0.009463 0.004956 0.004956 0.001916 0.003440 0.003440 0.003820 0.006466 0.024042 0.042087 0.051428 0.069102 0.082666 0.088976 0.103034 0.096359 0.063092 0.019375 0.013906 0.009463 0.007593 0.009463 0.009835 0.013538 0.009463 0.007593 0.009835 0.018289 0.015007 0.010951 0.010951 0.009835 0.009835 0.009835 0.018289 0.023685 0.015007 0.029346 0.041749 0.046455 0.042087 0.013906 0.001916 0.009835 0.019736 0.015373 0.000384 0.003820 0.009463 0.026528 0.037664 0.051428 0.018651 0.032837 0.121062 0.096944 0.064365 0.066899 0.040732
0.026882 0.026882 0.032837 0.021537 0.013538 0.021537 0.016834 0.015373 0.009463 0.009463 0.015373 0.015373 0.004956 0.004956 0.004956 0.009463 0.006842 0.003059 0.006842 0.001916 0.001916 0.003059 0.004956 0.024042 0.079625 0.110169 0.101014 0.112426 0.110734 0.115231 0.091649 0.079319 0.070668 0.066899 0.059567 0.079319 0.101014 0.092536 0.101014 0.124358 0.157308 0.198923 0.190688 0.194469 0.234977 0.232137 0.257179 0.198923 0.149875 0.104184 0.056982 0.045786 0.051428 0.045786 0.063092 0.082059 0.096359 0.075636 0.069102 0.082059 0.095773 0.110169 0.096359 0.090166 0.075636 0.063092 0.042087 0.035604 0.046455 0.055358 0.039372 0.041749 0.041749 0.051757 0.084479 0.064365 0.048452 0.051757 0.059245 0.056333 0.069102 0.079625 0.081756 0.084479 0.105044 0.091649 0.091649 0.096066 0.070668 0.079014 0.079014 0.082968 0.091649 0.110169 0.092536 0.076867 0.079319 0.071604 0.064365 0.048452 0.048452 0.039372 0.052743 0.056982 0.040732 0.040732 0.031096 0.036292 0.032489 0.024042 0.042087 0.064365 0.048452 0.035259 0.035259 0.026882 0.024042 0.021537 0.032489 0.027235 0.032489 0.052743 0.057630 0.057630 0.052743 0.048452 0.042087 0.046455 0.046455 0.027235 0.024042 0.026882 0.046455 0.072849 0.064365 0.039372 0.038348 0.048452 0.071604 0.076867 0.069729 0.066899 0.066899 0.071604 0.074709 0.064365 0.060532 0.059567 0.067845 0.059245 0.068160 0.060532 0.059567 0.051099 0.044781 0.067215 0.091649 0.096066 0.106474 0.103034 0.110734 0.104184 0.096359 0.076867 0.069729 0.075636 0.076867 0.071604 0.062773 0.074709 0.070668 0.048784 0.009835 0.007593 0.012062 0.001916 0.000384 0.001916 0.001916 0.001534 0.001916 0.000384 0.000384 0.001916 0.003820 0.001916 0.004956 0.006842 0.003820 0.003820 0.006842 0.007593 0.009835 0.006466 0.009463 0.001916 0.000384 0.001916 0.000384 0.000000 0.001534 0.006466 0.003059 0.000768 0.001916 0.004956 0.004956 0.003820 0.006089 0.009463 0.036292 0.063092 0.021537 0.015373 0.018651 0.009463 0.007593 0.006089 0.003440 0.003440 0.006466 0.015007 0.038348 0.055358 0.076867 0.076867 0.064365 0.064365 0.062773 0.026882 0.001534 0.013538 0.018651 0.029346 0.026882 0.029697 0.019736 0.009835 0.004956 0.009463 0.019375 0.019375 0.012801 0.012801 0.010951 0.009463 0.010951 0.012801 0.016834 0.040732 0.045786 0.056333 0.015007 0.024042 0.062134 0.032489 0.013906 0.019375 0.039372 0.012801 0.001916 0.015007 0.029346 0.029346 0.031096 0.024042 0.052414 0.098693 0.108752 0.096359 0.070668 0.038348 0.055358
0.032489 0.029346 0.026882 0.013906 0.021537 0.026882 0.016834 0.012801 0.012062 0.015373 0.018651 0.006842 0.003820 0.001916 0.006842 0.012062 0.004956 0.004956 0.003059 0.001916 0.001916 0.003059 0.004956 0.023685 0.051099 0.074709 0.084479 0.076867 0.106474 0.142845 0.134100 0.181832 0.115231 0.069102 0.076867 0.079319 0.087482 0.101014 0.096066 0.104184 0.127358 0.198923 0.192109 0.181107 0.240827 0.260518 0.289529 0.309963 0.275305 0.232137 0.187595 0.106474 0.084479 0.069102 0.063092 0.071604 0.090166 0.103034 0.082059 0.082059 0.076867 0.082666 0.075636 0.076867 0.076867 0.056982 0.045786 0.035604 0.036292 0.070668 0.059245 0.035259 0.051757 0.035259 0.038348 0.070668 0.067215 0.054052 0.062134 0.069102 0.069102 0.072849 0.072849 0.070668 0.075636 0.087482 0.074709 0.101014 0.105044 0.091649 0.079014 0.079014 0.093716 0.087781 0.079319 0.074709 0.066899 0.071604 0.076867 0.075636 0.082666 0.051428 0.042087 0.056982 0.056982 0.045786 0.045786 0.042087 0.046455 0.031096 0.027235 0.052743 0.071604 0.052743 0.042087 0.038348 0.032489 0.019375 0.031096 0.045786 0.031096 0.032489 0.048452 0.048452 0.052743 0.051428 0.051428 0.046455 0.048452 0.048452 0.035259 0.032837 0.037664 0.062134 0.064365 0.044781 0.029346 0.038348 0.052743 0.063092 0.064365 0.066899 0.059567 0.066899 0.079014 0.075636 0.069102 0.067845 0.067845 0.077175 0.077175 0.067845 0.059245 0.051428 0.044781 0.054052 0.070668 0.076867 0.082666 0.098111 0.098111 0.092536 0.092536 0.079319 0.064365 0.069729 0.076867 0.079319 0.074709 0.070668 0.075636 0.062134 0.030047 0.003820 0.015373 0.009463 0.000384 0.000384 0.003059 0.001534 0.003059 0.003059 0.001534 0.001916 0.000768 0.001916 0.006842 0.009463 0.004956 0.004956 0.004956 0.009463 0.009463 0.006466 0.009835 0.006842 0.001916 0.000384 0.000384 0.000384 0.001534 0.006089 0.001916 0.001534 0.003820 0.003059 0.001916 0.003059 0.003059 0.015373 0.027235 0.021537 0.003059 0.012062 0.026528 0.026528 0.022613 0.007593 0.004956 0.006466 0.009463 0.025110 0.046455 0.062134 0.052414 0.030047 0.031096 0.042087 0.052743 0.067215 0.076867 0.036635 0.009463 0.025110 0.037664 0.030047 0.015007 0.013906 0.019736 0.019375 0.019375 0.019375 0.018651 0.019375 0.022613 0.022613 0.027235 0.031096 0.082059 0.096359 0.088976 0.062773 0.088976 0.060532 0.015373 0.003820 0.003820 0.026882 0.026882 0.036292 0.035259 0.006842 0.019375 0.055358 0.051428 0.006466 0.055358 0.079014 0.078095 0.087482 0.072849 0.077175 0.148841
0.026528 0.022613 0.016834 0.019736 0.029346 0.019736 0.016834 0.015007 0.012801 0.012801 0.007593 0.003059 0.001916 0.004956 0.012062 0.006842 0.004956 0.004956 0.003059 0.001916 0.000768 0.003059 0.010951 0.030047 0.024042 0.032489 0.084479 0.087482 0.057630 0.069102 0.069102 0.138626 0.204493 0.103034 0.096359 0.104184 0.110734 0.104184 0.090166 0.101014 0.110169 0.140741 0.197755 0.159338 0.143631 0.252134 0.229063 0.252978 0.293671 0.296808 0.289529 0.253610 0.168115 0.112426 0.064365 0.064365 0.082666 0.103034 0.088976 0.090166 0.079319 0.071604 0.066899 0.064365 0.075636 0.063092 0.051428 0.042087 0.039372 0.052414 0.062773 0.041749 0.041749 0.048784 0.044781 0.044781 0.060532 0.060532 0.062134 0.064365 0.059245 0.074709 0.079319 0.087482 0.079014 0.079319 0.082968 0.079014 0.087781 0.100725 0.087781 0.084479 0.084479 0.082968 0.074709 0.074709 0.066899 0.063092 0.063092 0.069729 0.095773 0.096359 0.056982 0.056982 0.056982 0.056982 0.051428 0.056982 0.057630 0.069729 0.057630 0.045786 0.063092 0.075636 0.059567 0.046455 0.040732 0.027235 0.024042 0.040732 0.059567 0.044781 0.035259 0.038348 0.036292 0.042087 0.041749 0.051757 0.041749 0.035259 0.041749 0.039372 0.044781 0.054052 0.051757 0.048452 0.042087 0.031096 0.040732 0.057630 0.059567 0.066899 0.066899 0.075636 0.075636 0.081756 0.078095 0.077175 0.068160 0.068160 0.059245 0.059245 0.059567 0.052414 0.052414 0.039372 0.046455 0.069729 0.076867 0.090166 0.106474 0.106474 0.098111 0.090166 0.063092 0.069102 0.090166 0.092536 0.087482 0.091649 0.093716 0.079625 0.043773 0.004956 0.007593 0.012801 0.003820 0.003820 0.004956 0.001534 0.003059 0.003820 0.003820 0.001534 0.001534 0.003820 0.009463 0.009463 0.003820 0.003820 0.006466 0.006089 0.006089 0.009835 0.006466 0.012062 0.004956 0.001534 0.001534 0.000768 0.003820 0.003820 0.003059 0.000768 0.006089 0.003820 0.003059 0.003059 0.006842 0.006842 0.006466 0.016834 0.009463 0.000384 0.012801 0.018651 0.032489 0.024042 0.009463 0.010951 0.018289 0.030047 0.036292 0.037664 0.044781 0.045786 0.041749 0.062134 0.103322 0.070668 0.044781 0.051099 0.074709 0.051428 0.018651 0.010951 0.018651 0.031096 0.025110 0.016834 0.019375 0.024042 0.027235 0.026528 0.022613 0.022613 0.036292 0.051428 0.063092 0.038348 0.042087 0.024042 0.003820 0.015373 0.013906 0.012801 0.051757 0.052743 0.046455 0.031096 0.015373 0.010951 0.064365 0.056333 0.003440 0.015007 0.079014 0.074709 0.044781 0.044781 0.077175 0.150650 0.200554
0.026528 0.015373 0.015373 0.021537 0.021537 0.019736 0.015007 0.012801 0.010951 0.009463 0.006466 0.004956 0.003059 0.006842 0.009463 0.004956 0.006842 0.003820 0.003820 0.001534 0.000768 0.001916 0.013906 0.029697 0.013906 0.012801 0.048452 0.090166 0.079319 0.081756 0.069102 0.051428 0.074709 0.092536 0.103034 0.103034 0.104184 0.117740 0.121062 0.112426 0.103034 0.115231 0.164123 0.145461 0.105044 0.151938 0.243408 0.190214 0.208173 0.236065 0.264664 0.296808 0.293671 0.267753 0.191399 0.059567 0.045786 0.079319 0.104184 0.104184 0.117740 0.110169 0.075636 0.069729 0.075636 0.063092 0.064365 0.067215 0.056333 0.039372 0.044781 0.055358 0.051757 0.048784 0.051757 0.064365 0.064365 0.051757 0.055358 0.066899 0.064365 0.069729 0.090166 0.091649 0.087482 0.074709 0.087781 0.096944 0.084479 0.087781 0.093716 0.087781 0.082968 0.074709 0.079319 0.079319 0.069102 0.063092 0.069102 0.056982 0.063092 0.095773 0.075636 0.076867 0.076867 0.076867 0.079319 0.082968 0.082968 0.074709 0.098111 0.088976 0.090166 0.095773 0.095773 0.069729 0.057630 0.048452 0.036292 0.036292 0.042087 0.055358 0.044781 0.032489 0.035259 0.048784 0.041749 0.035259 0.051757 0.041749 0.041749 0.046455 0.039372 0.041749 0.044781 0.042087 0.040732 0.040732 0.036292 0.048452 0.055358 0.062773 0.075636 0.084479 0.093716 0.100725 0.087482 0.077175 0.059567 0.051099 0.043437 0.051099 0.043773 0.044781 0.041749 0.036292 0.040732 0.051428 0.075636 0.096359 0.104184 0.110734 0.110734 0.110734 0.082059 0.069102 0.084479 0.101014 0.096066 0.100725 0.116348 0.100725 0.070668 0.006089 0.006089 0.009835 0.009835 0.009463 0.004956 0.001534 0.003820 0.003440 0.003440 0.003440 0.001534 0.006466 0.016834 0.009463 0.003820 0.003820 0.003820 0.006089 0.006466 0.006466 0.004956 0.009463 0.009463 0.003820 0.001916 0.000768 0.001916 0.006842 0.003059 0.001534 0.003820 0.006089 0.004956 0.006842 0.009463 0.003440 0.000768 0.009835 0.016834 0.006466 0.004956 0.013906 0.018651 0.019375 0.012801 0.019736 0.024042 0.025110 0.026882 0.032489 0.036292 0.048784 0.056333 0.031096 0.026528 0.051099 0.087482 0.115231 0.066899 0.016834 0.007593 0.012801 0.013906 0.018651 0.024042 0.024042 0.019736 0.019736 0.018651 0.010951 0.010951 0.021537 0.021537 0.027235 0.029346 0.044781 0.021537 0.001916 0.018651 0.010951 0.022613 0.064365 0.084479 0.055358 0.032489 0.031096 0.027235 0.036292 0.038348 0.026528 0.009463 0.064365 0.095773 0.067215 0.044781 0.103034 0.092536 0.106474 0.173797
0.015007 0.015373 0.018651 0.019375 0.019736 0.015007 0.018651 0.016834 0.010951 0.009463 0.006842 0.004956 0.004956 0.009463 0.006842 0.004956 0.004956 0.003059 0.006466 0.000768 0.001916 0.001916 0.018289 0.030047 0.009835 0.004956 0.016834 0.066899 0.093716 0.091057 0.081756 0.070668 0.051428 0.025110 0.042087 0.101014 0.104184 0.076867 0.087482 0.110734 0.127358 0.119957 0.118850 0.125179 0.098111 0.063092 0.136236 0.173305 0.134100 0.166124 0.214776 0.232137 0.275913 0.287347 0.350005 0.289726 0.096359 0.035259 0.051428 0.075636 0.104184 0.140741 0.110734 0.082059 0.084479 0.082666 0.062773 0.067215 0.059245 0.051757 0.035259 0.048452 0.059245 0.048784 0.051757 0.062773 0.062773 0.059567 0.059567 0.059567 0.057630 0.064365 0.096066 0.100725 0.079014 0.081756 0.084479 0.084479 0.084479 0.091057 0.084479 0.074709 0.082968 0.079319 0.076867 0.069729 0.063092 0.063092 0.069102 0.075636 0.063092 0.084479 0.101014 0.096066 0.109886 0.105044 0.091649 0.087482 0.092536 0.076867 0.069729 0.076867 0.090166 0.103034 0.110734 0.104184 0.084479 0.074709 0.057630 0.057630 0.055358 0.055358 0.052743 0.044781 0.035259 0.038348 0.048452 0.048452 0.048452 0.048452 0.055358 0.055358 0.048452 0.048452 0.042087 0.045786 0.046455 0.048452 0.044781 0.051757 0.059245 0.064365 0.072849 0.070668 0.088976 0.100725 0.100725 0.072849 0.052414 0.043773 0.043437 0.043437 0.037664 0.032837 0.032489 0.038348 0.052743 0.069729 0.069729 0.082666 0.104184 0.104184 0.104184 0.110734 0.088976 0.071604 0.082968 0.087781 0.096944 0.103322 0.123537 0.110734 0.079625 0.013906 0.003440 0.013906 0.019736 0.009463 0.003059 0.000768 0.006466 0.006466 0.003440 0.001916 0.003440 0.016834 0.016834 0.004956 0.000768 0.000768 0.001534 0.001916 0.001534 0.000384 0.001916 0.004956 0.004956 0.004956 0.004956 0.004956 0.003820 0.007593 0.006842 0.001534 0.003059 0.009463 0.012801 0.012062 0.009463 0.006089 0.010951 0.004956 0.009463 0.019375 0.003820 0.018289 0.009835 0.012801 0.016834 0.021537 0.021537 0.024042 0.027235 0.027235 0.019375 0.007593 0.013538 0.035259 0.098111 0.142845 0.118850 0.059567 0.013906 0.006466 0.009835 0.006466 0.010951 0.019736 0.025110 0.030047 0.018651 0.013538 0.018651 0.018289 0.015007 0.016834 0.026882 0.039372 0.039372 0.029346 0.013906 0.003059 0.006466 0.035259 0.062773 0.076867 0.038348 0.059245 0.012801 0.031096 0.022613 0.026528 0.042087 0.035604 0.046455 0.090166 0.070668 0.022613 0.119957 0.112426 0.039372 0.081756 0.223528
0.029346 0.029346 0.019375 0.024042 0.018651 0.016834 0.019736 0.013906 0.012801 0.010951 0.009463 0.009463 0.009463 0.009463 0.004956 0.007593 0.004956 0.006842 0.003440 0.001916 0.001916 0.003440 0.013906 0.025110 0.010951 0.004956 0.010951 0.046455 0.100725 0.105044 0.084479 0.079625 0.069102 0.029697 0.013906 0.019736 0.075636 0.064365 0.042087 0.042087 0.051428 0.075636 0.092536 0.096359 0.084479 0.079625 0.070668 0.098111 0.103034 0.087482 0.124358 0.168115 0.175268 0.173797 0.181832 0.308430 0.315299 0.134100 0.032489 0.032489 0.038348 0.087781 0.112426 0.082666 0.088976 0.090166 0.096944 0.075636 0.056333 0.048784 0.035259 0.039372 0.062134 0.046455 0.031096 0.059245 0.056333 0.041749 0.051757 0.055358 0.048452 0.051757 0.072849 0.106474 0.103322 0.070668 0.072849 0.088976 0.091057 0.081756 0.074709 0.070668 0.070668 0.064365 0.076867 0.090166 0.069102 0.064365 0.071604 0.084479 0.087482 0.082968 0.096066 0.087482 0.079319 0.098111 0.090166 0.064365 0.069729 0.069102 0.069102 0.063092 0.056982 0.082059 0.088976 0.098111 0.092536 0.084479 0.082059 0.076867 0.069729 0.069102 0.064365 0.059567 0.051428 0.046455 0.051428 0.056982 0.064365 0.052743 0.057630 0.069729 0.069102 0.063092 0.057630 0.048452 0.062773 0.062773 0.067215 0.056333 0.064365 0.064365 0.072849 0.070668 0.069102 0.070668 0.075636 0.070668 0.064365 0.043773 0.043437 0.030047 0.026882 0.029346 0.035259 0.048784 0.051757 0.071604 0.088976 0.084479 0.084479 0.082968 0.074709 0.087482 0.096066 0.075636 0.081756 0.088976 0.087482 0.097236 0.121062 0.121062 0.097236 0.019736 0.006089 0.019736 0.019736 0.006466 0.001916 0.000768 0.004956 0.007593 0.004956 0.003820 0.013906 0.021537 0.010951 0.001916 0.000000 0.000000 0.000384 0.000384 0.000384 0.000384 0.000384 0.001916 0.003059 0.003820 0.009835 0.009835 0.013906 0.012801 0.019375 0.013906 0.019375 0.027235 0.019375 0.012062 0.006842 0.006466 0.009463 0.004956 0.040732 0.019736 0.013906 0.013906 0.006466 0.007593 0.012801 0.021537 0.024042 0.022613 0.022613 0.021537 0.043773 0.044781 0.057630 0.088976 0.125724 0.092536 0.029346 0.009835 0.009463 0.009463 0.012062 0.012062 0.010951 0.021537 0.031096 0.032837 0.025110 0.018651 0.018289 0.023685 0.023685 0.024042 0.019736 0.018651 0.030047 0.015007 0.010951 0.007593 0.021537 0.040732 0.048452 0.046455 0.030047 0.001916 0.007593 0.035604 0.026528 0.042087 0.036292 0.056982 0.056982 0.040732 0.019375 0.027235 0.091057 0.079625 0.018651 0.051757 0.156035
0.025110 0.019736 0.024042 0.022613 0.021537 0.016834 0.015373 0.019736 0.015007 0.010951 0.012801 0.009463 0.007593 0.007593 0.006842 0.006842 0.004956 0.007593 0.001916 0.003059 0.003059 0.009463 0.009463 0.016834 0.015373 0.003820 0.010951 0.018651 0.055358 0.116348 0.134100 0.097236 0.078095 0.043437 0.018651 0.006466 0.024042 0.060532 0.036292 0.030047 0.023685 0.018289 0.044781 0.075636 0.116348 0.087482 0.039372 0.029346 0.046455 0.052743 0.041749 0.079014 0.103322 0.103322 0.113270 0.134100 0.208173 0.246829 0.136236 0.048784 0.036292 0.031096 0.039372 0.046455 0.074709 0.110169 0.103322 0.081756 0.064365 0.048784 0.039372 0.044781 0.054052 0.056333 0.031096 0.039372 0.067215 0.041749 0.038348 0.048452 0.055358 0.067215 0.072849 0.084479 0.103322 0.093716 0.078095 0.079625 0.072849 0.070668 0.070668 0.079014 0.071604 0.069102 0.075636 0.106474 0.109886 0.087482 0.087482 0.087482 0.096066 0.105044 0.109886 0.106474 0.084479 0.064365 0.090166 0.075636 0.063092 0.063092 0.063092 0.075636 0.056982 0.063092 0.076867 0.084479 0.090166 0.098111 0.088976 0.082666 0.075636 0.088976 0.090166 0.063092 0.056982 0.056982 0.057630 0.082666 0.088976 0.082666 0.069729 0.069729 0.090166 0.082666 0.071604 0.055358 0.051757 0.059245 0.067215 0.067215 0.064365 0.070668 0.070668 0.070668 0.062134 0.056333 0.059245 0.067215 0.064365 0.046455 0.031096 0.026882 0.026882 0.037664 0.052414 0.054052 0.055358 0.051428 0.066899 0.079014 0.091057 0.087482 0.059567 0.059245 0.076867 0.086584 0.086584 0.096359 0.097236 0.077175 0.097236 0.131685 0.098693 0.029346 0.003440 0.026882 0.015007 0.006089 0.001534 0.000384 0.003440 0.006466 0.006466 0.009835 0.021537 0.021537 0.007593 0.000768 0.000000 0.000000 0.000768 0.000768 0.000384 0.000768 0.001916 0.001916 0.003440 0.009835 0.009463 0.013906 0.013906 0.019736 0.031096 0.051099 0.046455 0.029346 0.010951 0.006466 0.006842 0.004956 0.006089 0.015373 0.051428 0.009835 0.031096 0.019736 0.006466 0.004956 0.009835 0.016834 0.022613 0.015373 0.032837 0.051099 0.051428 0.043773 0.054052 0.070668 0.054052 0.026882 0.018651 0.015373 0.015373 0.012801 0.012062 0.019375 0.015007 0.019736 0.025110 0.032837 0.032837 0.025110 0.024042 0.018651 0.018651 0.025110 0.025110 0.018651 0.018651 0.021537 0.013538 0.018289 0.042087 0.036292 0.031096 0.027235 0.003820 0.009463 0.032837 0.026882 0.024042 0.029346 0.042087 0.045786 0.027235 0.031096 0.015373 0.019375 0.086584 0.051099 0.010951 0.121062 0.229503
0.015007 0.021537 0.021537 0.019375 0.018651 0.021537 0.021537 0.015373 0.010951 0.016834 0.010951 0.007593 0.006842 0.004956 0.004956 0.003059 0.006842 0.004956 0.003059 0.003059 0.004956 0.009463 0.003820 0.009463 0.027235 0.010951 0.009835 0.018651 0.044781 0.097236 0.117740 0.107330 0.087482 0.051099 0.018289 0.009835 0.025110 0.051428 0.036635 0.029697 0.029697 0.031096 0.031096 0.029697 0.087482 0.116348 0.054052 0.036292 0.039372 0.051757 0.055358 0.074709 0.087482 0.087482 0.098693 0.096066 0.091057 0.124085 0.174778 0.140477 0.084479 0.051099 0.036635 0.023685 0.025110 0.081756 0.123537 0.084479 0.059245 0.059245 0.046455 0.036635 0.046455 0.056333 0.044781 0.032837 0.055358 0.063092 0.056982 0.063092 0.064365 0.074709 0.082968 0.105044 0.114392 0.119127 0.093716 0.075636 0.070668 0.074709 0.074709 0.064365 0.076867 0.079319 0.082968 0.096066 0.130067 0.106474 0.105044 0.096066 0.087781 0.096944 0.119127 0.121062 0.118850 0.098111 0.098111 0.110734 0.082059 0.076867 0.064365 0.082666 0.090166 0.096066 0.087482 0.076867 0.071604 0.088976 0.106474 0.082666 0.063092 0.059567 0.079319 0.071604 0.046455 0.045786 0.036292 0.051428 0.088976 0.082666 0.088976 0.076867 0.076867 0.096359 0.076867 0.074709 0.059245 0.056333 0.064365 0.072849 0.070668 0.079625 0.072849 0.072849 0.064365 0.064365 0.064365 0.067215 0.062773 0.044781 0.026882 0.031096 0.043773 0.051099 0.044781 0.038348 0.042087 0.056333 0.068160 0.086584 0.098693 0.098693 0.081756 0.087781 0.100725 0.087781 0.084479 0.103322 0.088976 0.059567 0.068160 0.107330 0.100725 0.041749 0.004956 0.030047 0.006089 0.001534 0.000768 0.001916 0.003059 0.003820 0.009835 0.021537 0.029346 0.016834 0.003820 0.000384 0.000768 0.000384 0.000768 0.000000 0.000000 0.000384 0.001534 0.006089 0.009835 0.009835 0.006089 0.009463 0.009463 0.013538 0.018651 0.024042 0.018289 0.009835 0.003440 0.004956 0.004956 0.004956 0.006466 0.021537 0.032489 0.024042 0.032837 0.019736 0.007593 0.006466 0.006466 0.010951 0.022613 0.032837 0.030047 0.046455 0.056333 0.056333 0.052414 0.054052 0.038348 0.036292 0.036292 0.032489 0.019375 0.018651 0.012801 0.016834 0.019736 0.018651 0.024042 0.025110 0.031096 0.031096 0.025110 0.025110 0.019736 0.019736 0.025110 0.025110 0.019736 0.021537 0.025110 0.036635 0.031096 0.018651 0.032837 0.015007 0.000384 0.009463 0.031096 0.024042 0.018651 0.024042 0.036635 0.036635 0.031096 0.019375 0.015373 0.006842 0.048452 0.051099 0.046455 0.130067 0.197052
0.024042 0.026882 0.021537 0.026882 0.015373 0.018651 0.016834 0.015007 0.015373 0.015373 0.009463 0.009463 0.004956 0.003059 0.003059 0.006842 0.006842 0.001916 0.004956 0.003059 0.006466 0.013538 0.001916 0.003059 0.016834 0.019736 0.013538 0.013906 0.036292 0.107330 0.127630 0.097236 0.098693 0.062134 0.023685 0.013538 0.013906 0.039372 0.046455 0.036635 0.036635 0.030047 0.030047 0.036292 0.051428 0.084479 0.091057 0.068160 0.072849 0.067215 0.066899 0.063092 0.062773 0.108752 0.088976 0.059567 0.077175 0.106474 0.106188 0.091057 0.103322 0.091649 0.044781 0.040732 0.031096 0.072849 0.105044 0.096066 0.074709 0.070668 0.079014 0.051757 0.035259 0.041749 0.044781 0.035259 0.027235 0.035604 0.051428 0.069729 0.084479 0.092536 0.090166 0.104184 0.141268 0.175268 0.182798 0.104184 0.082666 0.076867 0.082666 0.076867 0.082968 0.087482 0.079319 0.066899 0.092536 0.109886 0.105044 0.109886 0.091649 0.070668 0.076867 0.110734 0.104184 0.092536 0.098111 0.125724 0.127358 0.115231 0.084479 0.071604 0.079014 0.087482 0.103034 0.082059 0.069102 0.071604 0.087482 0.084479 0.079319 0.067215 0.056333 0.051757 0.038348 0.029346 0.024042 0.015007 0.042087 0.057630 0.056982 0.063092 0.051428 0.075636 0.071604 0.070668 0.070668 0.064365 0.062134 0.064365 0.070668 0.070668 0.072849 0.064365 0.056333 0.056333 0.059245 0.048452 0.052743 0.046455 0.032837 0.043437 0.051099 0.037664 0.027235 0.032489 0.044781 0.068160 0.097236 0.108752 0.113270 0.100725 0.093716 0.096944 0.084479 0.072849 0.081756 0.079625 0.059245 0.059245 0.068160 0.076867 0.079625 0.041749 0.003440 0.015007 0.010951 0.004956 0.001534 0.003059 0.003059 0.006842 0.016834 0.026882 0.021537 0.006466 0.001534 0.000384 0.000384 0.000000 0.000768 0.000384 0.000384 0.000768 0.001916 0.003059 0.003820 0.001534 0.003440 0.003440 0.001534 0.001534 0.001534 0.001534 0.000384 0.000384 0.003440 0.003820 0.006842 0.006842 0.001534 0.019375 0.062134 0.032837 0.075636 0.025110 0.012801 0.007593 0.009835 0.004956 0.018651 0.032837 0.031096 0.032837 0.046455 0.064365 0.062134 0.048784 0.031096 0.032489 0.038348 0.036292 0.031096 0.022613 0.019375 0.019736 0.026882 0.024042 0.018289 0.023685 0.029697 0.025110 0.026882 0.019736 0.019736 0.025110 0.025110 0.021537 0.016834 0.021537 0.029346 0.048784 0.046455 0.032837 0.026882 0.022613 0.012062 0.007593 0.009835 0.018651 0.018651 0.013906 0.044781 0.079625 0.026882 0.015007 0.003820 0.015373 0.067215 0.032837 0.054052 0.077175 0.059245
0.024042 0.021537 0.026882 0.019736 0.019736 0.015373 0.012062 0.012801 0.016834 0.012062 0.012062 0.006842 0.003059 0.003059 0.004956 0.006842 0.003059 0.003059 0.004956 0.009463 0.010951 0.010951 0.003820 0.003059 0.021537 0.024042 0.013906 0.018651 0.039372 0.087482 0.117740 0.088976 0.079625 0.091649 0.044781 0.019375 0.009463 0.025110 0.056333 0.044781 0.046455 0.046455 0.024042 0.030047 0.044781 0.067215 0.110734 0.108752 0.068160 0.069102 0.078095 0.056333 0.052743 0.067215 0.077175 0.079625 0.091057 0.097236 0.096066 0.077175 0.052414 0.062773 0.048452 0.059567 0.051757 0.051428 0.096066 0.109886 0.087482 0.079319 0.076867 0.082666 0.076867 0.064365 0.057630 0.051428 0.045786 0.031096 0.031096 0.046455 0.059567 0.076867 0.082666 0.095773 0.117740 0.133028 0.207943 0.216358 0.148841 0.103034 0.075636 0.091649 0.074709 0.076867 0.076867 0.052743 0.046455 0.071604 0.071604 0.084479 0.084479 0.076867 0.057630 0.069729 0.095773 0.082666 0.069729 0.090166 0.106474 0.118850 0.103034 0.069729 0.064365 0.051428 0.075636 0.082666 0.064365 0.070668 0.082968 0.066899 0.082968 0.091649 0.070668 0.055358 0.044781 0.035259 0.029346 0.016834 0.015373 0.035604 0.051428 0.063092 0.051428 0.052743 0.066899 0.070668 0.067215 0.064365 0.048784 0.054052 0.060532 0.062134 0.059245 0.055358 0.038348 0.029346 0.031096 0.040732 0.035604 0.042087 0.051428 0.051428 0.037664 0.027235 0.027235 0.039372 0.059567 0.087482 0.108752 0.119127 0.107330 0.097236 0.097236 0.078095 0.068160 0.068160 0.068160 0.059245 0.059567 0.067845 0.068160 0.068160 0.062134 0.041749 0.004956 0.006466 0.009463 0.007593 0.006466 0.003820 0.006842 0.012062 0.015373 0.019736 0.013538 0.003440 0.001534 0.000384 0.000768 0.000384 0.001534 0.000768 0.001534 0.001916 0.000768 0.000384 0.000768 0.000384 0.000768 0.000768 0.000768 0.000384 0.000768 0.000384 0.000768 0.000768 0.003059 0.004956 0.004956 0.001916 0.003059 0.036292 0.067215 0.015007 0.091057 0.035259 0.015373 0.031096 0.026882 0.015007 0.013538 0.023685 0.030047 0.036292 0.043437 0.052414 0.056333 0.038348 0.027235 0.026882 0.036292 0.032489 0.027235 0.024042 0.026882 0.021537 0.026882 0.037664 0.030047 0.023685 0.018651 0.015007 0.026882 0.030047 0.018651 0.021537 0.024042 0.024042 0.021537 0.016834 0.024042 0.048784 0.048452 0.031096 0.036292 0.032489 0.036292 0.032837 0.025110 0.024042 0.018651 0.009835 0.013906 0.079625 0.054052 0.007593 0.016834 0.035259 0.032837 0.036635 0.030047 0.048784 0.082968
0.019375 0.019375 0.016834 0.015007 0.019736 0.015007 0.009463 0.012062 0.009463 0.006842 0.006842 0.004956 0.003059 0.003059 0.004956 0.004956 0.003059 0.004956 0.001916 0.006842 0.015373 0.015373 0.007593 0.004956 0.021537 0.035259 0.024042 0.039372 0.046455 0.060532 0.078095 0.091057 0.067215 0.069729 0.088976 0.064365 0.029346 0.013906 0.044781 0.046455 0.032837 0.048784 0.048784 0.032837 0.029346 0.067215 0.110734 0.126542 0.117740 0.069102 0.067845 0.076867 0.060532 0.037664 0.068160 0.106188 0.068160 0.069102 0.084479 0.079014 0.062773 0.046455 0.032837 0.030047 0.032489 0.051757 0.084479 0.112426 0.133028 0.095773 0.082666 0.075636 0.082059 0.088976 0.075636 0.069729 0.069729 0.063092 0.051428 0.063092 0.069729 0.069729 0.069102 0.082666 0.098111 0.112426 0.125179 0.201715 0.225527 0.199855 0.101014 0.082968 0.082666 0.069729 0.069102 0.069102 0.046455 0.048452 0.059567 0.064365 0.064365 0.069729 0.075636 0.057630 0.063092 0.069102 0.063092 0.069729 0.075636 0.088976 0.110169 0.075636 0.063092 0.056982 0.063092 0.090166 0.110734 0.084479 0.074709 0.079319 0.074709 0.087482 0.090166 0.071604 0.055358 0.038348 0.036292 0.026528 0.018651 0.031096 0.040732 0.064365 0.079319 0.066899 0.067215 0.067215 0.062773 0.048452 0.041749 0.037664 0.037664 0.035259 0.036292 0.040732 0.040732 0.031096 0.022613 0.031096 0.036292 0.052414 0.067845 0.037664 0.027235 0.024042 0.032837 0.051428 0.087482 0.108752 0.107330 0.096359 0.096066 0.096066 0.087482 0.078095 0.068160 0.068160 0.068160 0.059245 0.059245 0.059567 0.059567 0.060532 0.054052 0.046455 0.010951 0.000384 0.004956 0.007593 0.006466 0.006466 0.009463 0.012062 0.009463 0.006466 0.009835 0.006466 0.000768 0.000384 0.000768 0.000768 0.000768 0.001916 0.003440 0.001916 0.000384 0.000384 0.000384 0.001916 0.000384 0.000384 0.001534 0.001534 0.001534 0.000384 0.001534 0.001916 0.003059 0.003059 0.003059 0.003059 0.012062 0.042087 0.070668 0.012062 0.088976 0.031096 0.043437 0.036635 0.026882 0.036292 0.030047 0.026882 0.030047 0.036635 0.030047 0.031096 0.044781 0.036292 0.024042 0.024042 0.029346 0.032837 0.029346 0.025110 0.019736 0.024042 0.032837 0.037664 0.031096 0.024042 0.019736 0.015007 0.031096 0.030047 0.012801 0.012801 0.027235 0.032489 0.027235 0.022613 0.027235 0.038348 0.056982 0.040732 0.036292 0.031096 0.042087 0.040732 0.035604 0.044781 0.032837 0.016834 0.018651 0.043773 0.031096 0.019375 0.044781 0.044781 0.026882 0.018651 0.046455 0.035259 0.026528
0.019375 0.012801 0.012801 0.016834 0.015007 0.013906 0.010951 0.009463 0.004956 0.009463 0.009463 0.004956 0.001916 0.003059 0.004956 0.004956 0.006842 0.010951 0.003059 0.004956 0.012062 0.018651 0.007593 0.009463 0.016834 0.041749 0.059245 0.043773 0.031096 0.043773 0.059567 0.062134 0.048452 0.040732 0.075636 0.104184 0.076867 0.041749 0.036635 0.041749 0.037664 0.037664 0.035259 0.035259 0.038348 0.062134 0.098693 0.129797 0.153735 0.088976 0.059567 0.072849 0.052414 0.037664 0.059245 0.081756 0.072849 0.064365 0.074709 0.087482 0.096066 0.101014 0.076867 0.042087 0.024042 0.029697 0.032837 0.036292 0.110169 0.158831 0.117740 0.096359 0.082666 0.096359 0.096359 0.076867 0.084479 0.084479 0.071604 0.092536 0.121062 0.112426 0.101014 0.103034 0.117740 0.096359 0.098111 0.134100 0.182798 0.244693 0.192109 0.098111 0.098111 0.104184 0.082666 0.071604 0.066899 0.055358 0.059567 0.076867 0.069729 0.069729 0.075636 0.069729 0.063092 0.056982 0.051428 0.063092 0.075636 0.075636 0.095773 0.110734 0.082666 0.075636 0.069102 0.084479 0.110734 0.158831 0.125724 0.082666 0.082968 0.071604 0.084479 0.096066 0.070668 0.035259 0.024042 0.027235 0.012062 0.024042 0.044781 0.059245 0.074709 0.082968 0.079014 0.059567 0.057630 0.042087 0.029346 0.016834 0.012801 0.015373 0.022613 0.022613 0.031096 0.036292 0.036292 0.027235 0.044781 0.059245 0.046455 0.031096 0.029346 0.031096 0.037664 0.077175 0.098693 0.086584 0.086584 0.098693 0.098693 0.084479 0.096066 0.109886 0.096066 0.082968 0.087781 0.072849 0.054052 0.067215 0.067215 0.056333 0.051428 0.043773 0.015007 0.000384 0.001534 0.001916 0.003820 0.003820 0.009463 0.006842 0.001916 0.003440 0.006089 0.003820 0.001916 0.000000 0.000384 0.000000 0.000000 0.001534 0.006466 0.003440 0.000768 0.000384 0.000768 0.000384 0.000384 0.000768 0.001534 0.001534 0.001534 0.001534 0.001534 0.003820 0.004956 0.003059 0.003059 0.004956 0.019375 0.048452 0.055358 0.010951 0.087482 0.043773 0.023685 0.036635 0.062134 0.037664 0.030047 0.023685 0.018651 0.025110 0.026882 0.026882 0.029346 0.031096 0.019375 0.016834 0.036635 0.024042 0.025110 0.032837 0.019375 0.016834 0.039372 0.046455 0.039372 0.025110 0.015007 0.013906 0.030047 0.029346 0.015373 0.015373 0.018651 0.035604 0.035604 0.026528 0.035604 0.040732 0.046455 0.057630 0.045786 0.035604 0.035604 0.051428 0.052743 0.066899 0.051428 0.031096 0.041749 0.039372 0.024042 0.019375 0.032489 0.026882 0.042087 0.022613 0.037664 0.066899 0.041749
0.019736 0.016834 0.019375 0.012801 0.015007 0.009835 0.018651 0.010951 0.012801 0.012801 0.004956 0.001916 0.003820 0.007593 0.009463 0.009463 0.015373 0.006466 0.004956 0.003820 0.009463 0.022613 0.009463 0.006842 0.021537 0.054052 0.059567 0.051428 0.044781 0.036292 0.043773 0.046455 0.035259 0.024042 0.024042 0.066899 0.101014 0.079014 0.046455 0.037664 0.044781 0.031096 0.031096 0.025110 0.035259 0.079625 0.110734 0.107330 0.123537 0.134100 0.074709 0.059245 0.078095 0.051428 0.051428 0.067845 0.067845 0.043773 0.043773 0.062134 0.048784 0.063092 0.076867 0.087482 0.104184 0.071604 0.046455 0.032489 0.036292 0.076867 0.096359 0.095773 0.088976 0.090166 0.104184 0.101014 0.079319 0.098111 0.046455 0.036292 0.063092 0.088976 0.103034 0.103034 0.141268 0.141268 0.121062 0.104184 0.136236 0.156799 0.198923 0.142845 0.124358 0.139420 0.127358 0.098111 0.079319 0.052743 0.042087 0.057630 0.063092 0.069102 0.088976 0.082059 0.075636 0.075636 0.051428 0.040732 0.056982 0.075636 0.069102 0.090166 0.103034 0.096359 0.105044 0.092536 0.103034 0.125179 0.157308 0.138626 0.106474 0.076867 0.070668 0.091649 0.091649 0.055358 0.024042 0.019375 0.016834 0.009463 0.019736 0.027235 0.031096 0.042087 0.057630 0.063092 0.057630 0.057630 0.035604 0.018651 0.012062 0.012062 0.018651 0.018651 0.015373 0.027235 0.042087 0.039372 0.051099 0.037664 0.026528 0.038348 0.039372 0.031096 0.052414 0.096359 0.086584 0.067845 0.070668 0.087781 0.101014 0.088976 0.095773 0.133028 0.134100 0.115231 0.114392 0.100725 0.056333 0.048784 0.079014 0.100725 0.079625 0.039372 0.016834 0.003820 0.003440 0.000768 0.000384 0.003059 0.006842 0.001916 0.000768 0.003440 0.006089 0.003440 0.001916 0.000384 0.000768 0.000768 0.001916 0.004956 0.003820 0.001916 0.000768 0.000384 0.000384 0.000768 0.001534 0.001534 0.000768 0.000384 0.001534 0.003440 0.003820 0.004956 0.003820 0.003820 0.003059 0.007593 0.026882 0.048784 0.038348 0.004956 0.066899 0.059567 0.052414 0.059245 0.031096 0.025110 0.019736 0.016834 0.024042 0.029346 0.029346 0.029346 0.024042 0.026528 0.027235 0.030047 0.036292 0.023685 0.015007 0.019375 0.024042 0.025110 0.031096 0.041749 0.044781 0.038348 0.026882 0.019736 0.013906 0.022613 0.012801 0.012062 0.019375 0.031096 0.045786 0.036292 0.032489 0.046455 0.040732 0.045786 0.046455 0.040732 0.027235 0.032489 0.038348 0.051428 0.075636 0.063092 0.052743 0.059567 0.026528 0.015373 0.056333 0.027235 0.026528 0.056333 0.027235 0.021537 0.059245
0.019736 0.019736 0.019736 0.016834 0.019736 0.015007 0.019736 0.013906 0.015007 0.009835 0.006466 0.004956 0.009463 0.012801 0.010951 0.009463 0.009463 0.000384 0.003820 0.003440 0.003820 0.018651 0.012801 0.009463 0.016834 0.056333 0.081756 0.072849 0.037664 0.025110 0.039372 0.044781 0.042087 0.029346 0.025110 0.031096 0.067215 0.096944 0.082968 0.055358 0.044781 0.037664 0.030047 0.021537 0.026882 0.064365 0.116348 0.123537 0.096944 0.087482 0.109886 0.126542 0.093716 0.067215 0.067845 0.069102 0.060532 0.051099 0.046455 0.043773 0.031096 0.039372 0.059567 0.018651 0.021537 0.048784 0.032837 0.051428 0.056333 0.074709 0.075636 0.090166 0.092536 0.076867 0.063092 0.069102 0.057630 0.074709 0.082968 0.032837 0.023685 0.018651 0.019736 0.035259 0.055358 0.075636 0.095773 0.088976 0.110734 0.142845 0.140741 0.127358 0.119127 0.110734 0.141268 0.112426 0.096359 0.075636 0.046455 0.040732 0.051428 0.045786 0.063092 0.075636 0.069102 0.075636 0.075636 0.051428 0.045786 0.056982 0.063092 0.056982 0.075636 0.082968 0.092536 0.103034 0.088976 0.118850 0.148841 0.119127 0.098111 0.115231 0.118850 0.079014 0.082968 0.071604 0.042087 0.027235 0.016834 0.006842 0.003820 0.009835 0.010951 0.012062 0.018651 0.040732 0.051428 0.056982 0.051428 0.026528 0.015373 0.019375 0.022613 0.026528 0.019375 0.019736 0.032837 0.037664 0.025110 0.022613 0.029346 0.035259 0.048784 0.039372 0.062134 0.108752 0.091057 0.056333 0.052743 0.069729 0.095773 0.103034 0.082666 0.096066 0.130067 0.123537 0.113270 0.113270 0.081756 0.043773 0.059567 0.079625 0.070668 0.059567 0.048452 0.019736 0.003440 0.004956 0.000384 0.003820 0.003820 0.000768 0.000384 0.001916 0.006089 0.006089 0.001916 0.000384 0.001534 0.003820 0.003820 0.003820 0.004956 0.004956 0.001916 0.001534 0.001916 0.000384 0.001534 0.001534 0.000768 0.000768 0.001916 0.001916 0.003440 0.001916 0.003059 0.006466 0.003820 0.009463 0.025110 0.052414 0.037664 0.003059 0.031096 0.081756 0.086284 0.036635 0.016834 0.019375 0.032489 0.019375 0.019375 0.032489 0.032489 0.032489 0.019375 0.022613 0.035259 0.046455 0.046455 0.019375 0.012062 0.024042 0.025110 0.025110 0.025110 0.026882 0.038348 0.044781 0.038348 0.029346 0.016834 0.016834 0.016834 0.004956 0.007593 0.018651 0.031096 0.048452 0.036292 0.031096 0.036292 0.035259 0.046455 0.042087 0.038348 0.026882 0.021537 0.019375 0.036292 0.064365 0.062773 0.059567 0.052743 0.029346 0.018651 0.042087 0.021537 0.021537 0.059567 0.051428 0.019375
0.019736 0.021537 0.021537 0.026882 0.025110 0.024042 0.009835 0.013906 0.015007 0.009835 0.009463 0.006466 0.009463 0.009463 0.007593 0.007593 0.004956 0.000384 0.003820 0.006466 0.001916 0.012801 0.012801 0.009463 0.019375 0.051757 0.070668 0.082968 0.079319 0.035259 0.032489 0.036292 0.052743 0.055358 0.032837 0.030047 0.043773 0.056333 0.069729 0.082666 0.101014 0.067215 0.026882 0.015007 0.025110 0.052414 0.103322 0.119957 0.093716 0.093716 0.079625 0.093716 0.093716 0.103322 0.119127 0.087482 0.051428 0.051428 0.051099 0.023685 0.021537 0.043437 0.068160 0.051428 0.059567 0.062773 0.016834 0.015373 0.031096 0.015007 0.027235 0.032489 0.071604 0.087482 0.090166 0.055358 0.055358 0.046455 0.055358 0.067215 0.070668 0.036635 0.021537 0.026882 0.023685 0.024042 0.037664 0.048784 0.039372 0.070668 0.096066 0.075636 0.071604 0.066899 0.059567 0.079319 0.066899 0.064365 0.052743 0.035259 0.032489 0.035259 0.039372 0.039372 0.039372 0.041749 0.048452 0.046455 0.040732 0.042087 0.044781 0.042087 0.052743 0.045786 0.048452 0.066899 0.079319 0.100725 0.140477 0.133832 0.087482 0.069102 0.136236 0.153735 0.084479 0.088976 0.064365 0.031096 0.031096 0.018651 0.007593 0.009463 0.012801 0.012801 0.015373 0.022613 0.035604 0.042087 0.052743 0.040732 0.015373 0.009463 0.018651 0.022613 0.016834 0.015007 0.012801 0.012062 0.010951 0.015007 0.021537 0.032837 0.055358 0.052743 0.062773 0.100725 0.096066 0.069729 0.051428 0.057630 0.082059 0.098111 0.106474 0.106474 0.117740 0.110734 0.103322 0.103322 0.096944 0.072849 0.054052 0.059245 0.055358 0.052743 0.087781 0.051428 0.000384 0.004956 0.001916 0.001916 0.003440 0.000384 0.000768 0.001916 0.003440 0.006089 0.003440 0.003059 0.003820 0.006089 0.003820 0.004956 0.004956 0.003059 0.000768 0.000384 0.000768 0.001916 0.000768 0.000384 0.001534 0.003059 0.003820 0.001534 0.000768 0.001916 0.004956 0.004956 0.006466 0.006842 0.019736 0.043437 0.030047 0.003440 0.009835 0.069102 0.087781 0.046455 0.031096 0.022613 0.027235 0.031096 0.022613 0.031096 0.040732 0.042087 0.031096 0.026528 0.042087 0.048452 0.046455 0.040732 0.022613 0.026882 0.031096 0.025110 0.024042 0.019736 0.026882 0.035259 0.042087 0.042087 0.027235 0.016834 0.018651 0.012801 0.004956 0.004956 0.009463 0.022613 0.038348 0.032837 0.035259 0.021537 0.031096 0.048452 0.048452 0.048452 0.032489 0.016834 0.015007 0.041749 0.055358 0.052743 0.042087 0.064365 0.027235 0.018651 0.054052 0.029346 0.043773 0.048452 0.001916
0.025110 0.025110 0.021537 0.029346 0.019736 0.013906 0.009463 0.010951 0.006466 0.003440 0.006089 0.006466 0.009463 0.006842 0.007593 0.007593 0.001534 0.001534 0.009835 0.003820 0.004956 0.007593 0.012062 0.006842 0.012801 0.041749 0.074709 0.062773 0.084479 0.075636 0.045786 0.040732 0.046455 0.066899 0.067215 0.044781 0.037664 0.025110 0.032489 0.051757 0.087781 0.093716 0.054052 0.024042 0.024042 0.036292 0.059567 0.123537 0.113270 0.088976 0.088976 0.097236 0.088976 0.078095 0.103322 0.093716 0.091057 0.059245 0.036292 0.024042 0.031096 0.052414 0.067845 0.077175 0.051428 0.057630 0.023685 0.032489 0.018651 0.026528 0.040732 0.031096 0.016834 0.021537 0.055358 0.098111 0.079319 0.079319 0.066899 0.066899 0.066899 0.067215 0.048784 0.016834 0.019736 0.030047 0.030047 0.043773 0.051099 0.051428 0.043773 0.052414 0.051099 0.059567 0.059567 0.044781 0.043773 0.037664 0.044781 0.036635 0.029697 0.036635 0.043437 0.043773 0.032837 0.032489 0.032489 0.029346 0.030047 0.044781 0.046455 0.024042 0.040732 0.046455 0.036635 0.048784 0.059245 0.093716 0.119127 0.127358 0.110734 0.076867 0.087781 0.136236 0.090166 0.069102 0.110169 0.069102 0.027235 0.046455 0.059245 0.025110 0.021537 0.019375 0.015373 0.015373 0.029346 0.042087 0.036292 0.045786 0.040732 0.015373 0.012801 0.022613 0.019375 0.009463 0.010951 0.009835 0.006466 0.010951 0.019736 0.016834 0.027235 0.052743 0.064365 0.093716 0.075636 0.059245 0.044781 0.024042 0.037664 0.100725 0.140741 0.116627 0.087482 0.100725 0.106474 0.103322 0.088976 0.075636 0.059245 0.062773 0.051757 0.048784 0.106188 0.068160 0.000768 0.001916 0.000768 0.000768 0.001534 0.001534 0.000768 0.000384 0.003440 0.006466 0.006089 0.004956 0.004956 0.006466 0.003440 0.000768 0.001916 0.000768 0.000000 0.000384 0.000384 0.001534 0.000384 0.001916 0.003820 0.003059 0.007593 0.003820 0.001534 0.003059 0.004956 0.004956 0.003820 0.004956 0.010951 0.031096 0.037664 0.006466 0.006089 0.041749 0.075636 0.069729 0.051428 0.040732 0.031096 0.022613 0.022613 0.022613 0.032489 0.038348 0.036292 0.031096 0.051428 0.063092 0.063092 0.045786 0.042087 0.039372 0.032837 0.031096 0.025110 0.015007 0.019736 0.024042 0.027235 0.046455 0.046455 0.026528 0.019375 0.015373 0.012801 0.007593 0.004956 0.010951 0.031096 0.032489 0.029346 0.021537 0.016834 0.035259 0.038348 0.038348 0.044781 0.035259 0.021537 0.018651 0.046455 0.055358 0.051428 0.046455 0.069102 0.032489 0.032489 0.064365 0.042087 0.082666 0.134100
0.019736 0.019736 0.026882 0.016834 0.006089 0.009835 0.013538 0.006089 0.003440 0.003820 0.006466 0.009835 0.007593 0.006842 0.009463 0.003440 0.003440 0.007593 0.003440 0.003820 0.004956 0.007593 0.009463 0.009463 0.010951 0.021537 0.055358 0.066899 0.046455 0.069102 0.075636 0.056982 0.057630 0.084479 0.092536 0.071604 0.055358 0.042087 0.032489 0.048784 0.079625 0.093716 0.056333 0.039372 0.030047 0.039372 0.056333 0.069102 0.108752 0.106188 0.088976 0.087482 0.100725 0.081756 0.093716 0.103322 0.106474 0.093716 0.059245 0.036292 0.025110 0.031096 0.060532 0.044781 0.010951 0.062134 0.116627 0.031096 0.024042 0.026882 0.024042 0.007593 0.004956 0.009463 0.013538 0.038348 0.084479 0.076867 0.066899 0.079319 0.109886 0.084479 0.069729 0.063092 0.044781 0.032837 0.041749 0.062773 0.071604 0.082666 0.076867 0.059245 0.070668 0.064365 0.048452 0.055358 0.062773 0.057630 0.055358 0.051757 0.041749 0.042087 0.036292 0.040732 0.062773 0.057630 0.059567 0.062134 0.063092 0.021537 0.027235 0.038348 0.046455 0.079014 0.035259 0.032489 0.059245 0.062773 0.079319 0.112426 0.130067 0.100725 0.079014 0.115231 0.101014 0.051428 0.057630 0.118850 0.071604 0.023685 0.051757 0.069729 0.032489 0.018651 0.019375 0.019375 0.018651 0.027235 0.045786 0.042087 0.059567 0.062773 0.035259 0.024042 0.027235 0.019375 0.016834 0.015373 0.009463 0.010951 0.015007 0.019375 0.018651 0.044781 0.068160 0.076867 0.076867 0.069102 0.064365 0.048452 0.057630 0.074709 0.140741 0.119127 0.052414 0.067845 0.116627 0.127630 0.086584 0.054052 0.043773 0.051099 0.059567 0.078095 0.106474 0.069729 0.031096 0.001916 0.000768 0.000768 0.001534 0.001534 0.000384 0.000768 0.001534 0.006466 0.013538 0.009835 0.006842 0.003440 0.003059 0.000384 0.001916 0.000384 0.000768 0.000768 0.000384 0.001916 0.003440 0.004956 0.001534 0.003820 0.006089 0.006089 0.006466 0.004956 0.004956 0.003820 0.001916 0.003059 0.003059 0.018289 0.037664 0.012801 0.000384 0.015373 0.064365 0.082666 0.082666 0.051428 0.046455 0.032489 0.019375 0.027235 0.029346 0.026528 0.032489 0.036292 0.046455 0.057630 0.063092 0.064365 0.055358 0.051757 0.041749 0.032837 0.029346 0.021537 0.016834 0.019375 0.019375 0.027235 0.040732 0.040732 0.026528 0.026528 0.015373 0.009463 0.012801 0.026528 0.022613 0.040732 0.048784 0.029346 0.016834 0.026882 0.032837 0.041749 0.038348 0.032489 0.038348 0.019375 0.022613 0.046455 0.051428 0.051428 0.051428 0.057630 0.042087 0.027235 0.069729 0.064365 0.118850
0.015007 0.016834 0.010951 0.006089 0.003820 0.009835 0.013906 0.009835 0.009463 0.009835 0.010951 0.013906 0.009835 0.012801 0.004956 0.003820 0.009835 0.006089 0.003440 0.006466 0.006842 0.007593 0.006842 0.009463 0.012801 0.019375 0.035259 0.055358 0.052743 0.036292 0.051428 0.057630 0.038348 0.059567 0.082968 0.082968 0.062773 0.038348 0.041749 0.064365 0.082968 0.091649 0.079014 0.062134 0.068160 0.062134 0.056333 0.062773 0.096944 0.086584 0.067845 0.059245 0.069102 0.110169 0.093716 0.101014 0.100725 0.143631 0.096066 0.039372 0.043773 0.051428 0.036635 0.024042 0.043773 0.076867 0.060532 0.030047 0.013906 0.013906 0.019736 0.009835 0.006089 0.009835 0.013538 0.009835 0.032837 0.084479 0.064365 0.039372 0.051757 0.059567 0.051757 0.059245 0.062134 0.037664 0.019375 0.021537 0.036292 0.064365 0.100725 0.096066 0.074709 0.079319 0.069729 0.055358 0.046455 0.063092 0.104184 0.088976 0.071604 0.087482 0.084479 0.067215 0.052743 0.074709 0.081756 0.026528 0.044781 0.090166 0.048784 0.026882 0.024042 0.069102 0.088976 0.057630 0.055358 0.084479 0.059245 0.067215 0.113270 0.103322 0.066899 0.098111 0.096066 0.046455 0.036292 0.051428 0.110734 0.071604 0.037664 0.044781 0.051428 0.040732 0.018651 0.015373 0.035604 0.036292 0.029346 0.038348 0.041749 0.055358 0.064365 0.040732 0.027235 0.027235 0.018651 0.018651 0.016834 0.013906 0.009835 0.019736 0.030047 0.051099 0.077175 0.077175 0.086584 0.087482 0.081756 0.072849 0.069729 0.082666 0.124358 0.113270 0.067215 0.082968 0.093716 0.086584 0.070668 0.069102 0.077175 0.052414 0.029697 0.046455 0.069729 0.079014 0.071604 0.036292 0.003059 0.001534 0.000768 0.001534 0.001534 0.000768 0.000768 0.006466 0.013906 0.015007 0.007593 0.000384 0.001916 0.001534 0.000768 0.000384 0.000768 0.000000 0.000384 0.000768 0.007593 0.006842 0.001534 0.006466 0.009835 0.007593 0.007593 0.003820 0.001534 0.001916 0.001916 0.003820 0.003820 0.010951 0.018651 0.018651 0.012062 0.001916 0.015373 0.057630 0.103034 0.090166 0.052743 0.046455 0.026528 0.022613 0.031096 0.027235 0.024042 0.038348 0.040732 0.057630 0.059567 0.059567 0.062773 0.059245 0.048784 0.035259 0.029346 0.024042 0.019375 0.016834 0.016834 0.019375 0.022613 0.035604 0.019375 0.019375 0.031096 0.012801 0.023685 0.018651 0.024042 0.035259 0.062773 0.036292 0.024042 0.035259 0.029346 0.031096 0.046455 0.042087 0.040732 0.040732 0.026528 0.031096 0.032489 0.057630 0.057630 0.052743 0.064365 0.031096 0.022613 0.040732 0.048452
0.015007 0.013906 0.006466 0.006466 0.009835 0.010951 0.009463 0.013906 0.013538 0.013906 0.015007 0.009835 0.013906 0.009835 0.006466 0.007593 0.006466 0.006089 0.006089 0.006466 0.009463 0.007593 0.006842 0.009463 0.012062 0.016834 0.032837 0.035259 0.046455 0.042087 0.038348 0.059245 0.046455 0.044781 0.069102 0.060532 0.062134 0.046455 0.030047 0.025110 0.059245 0.106474 0.096944 0.081756 0.081756 0.078095 0.077175 0.086584 0.064365 0.051428 0.077175 0.067845 0.031096 0.056333 0.079014 0.096066 0.100725 0.091649 0.159085 0.130067 0.054052 0.030047 0.046455 0.030047 0.003820 0.088976 0.116348 0.057630 0.040732 0.019736 0.021537 0.016834 0.012801 0.009835 0.013906 0.013906 0.018651 0.044781 0.075636 0.052414 0.051428 0.060532 0.043437 0.051428 0.062134 0.025110 0.031096 0.041749 0.027235 0.044781 0.054052 0.051428 0.060532 0.043437 0.051428 0.060532 0.038348 0.022613 0.046455 0.075636 0.059567 0.051428 0.069729 0.069102 0.056333 0.075636 0.054052 0.052743 0.026528 0.056982 0.082666 0.042087 0.019375 0.031096 0.082059 0.098111 0.051757 0.064365 0.098693 0.078095 0.096066 0.072849 0.042087 0.101014 0.151938 0.063092 0.036292 0.026528 0.044781 0.064365 0.040732 0.069729 0.036292 0.051428 0.045786 0.015373 0.007593 0.042087 0.052743 0.035259 0.032489 0.027235 0.046455 0.057630 0.032489 0.022613 0.019375 0.021537 0.026882 0.018651 0.009835 0.013538 0.031096 0.059567 0.076867 0.076867 0.086584 0.096066 0.077175 0.078095 0.088976 0.082968 0.082968 0.069102 0.069102 0.070668 0.060532 0.051428 0.062134 0.070668 0.091649 0.067215 0.025110 0.022613 0.046455 0.051428 0.048452 0.084479 0.019736 0.001534 0.001534 0.000768 0.001916 0.001916 0.003059 0.009463 0.021537 0.016834 0.001916 0.000384 0.000768 0.000384 0.000000 0.000768 0.000384 0.000000 0.000384 0.000384 0.003820 0.009463 0.010951 0.004956 0.009835 0.009835 0.003820 0.000384 0.000768 0.001916 0.001916 0.006089 0.009463 0.010951 0.003820 0.004956 0.022613 0.012801 0.000768 0.010951 0.063092 0.133028 0.088976 0.069729 0.051428 0.031096 0.026528 0.027235 0.021537 0.022613 0.036292 0.038348 0.055358 0.062773 0.067215 0.064365 0.051757 0.038348 0.032489 0.027235 0.024042 0.021537 0.010951 0.010951 0.010951 0.026882 0.042087 0.015373 0.015373 0.013906 0.012801 0.037664 0.018651 0.010951 0.042087 0.048452 0.032489 0.032489 0.027235 0.027235 0.042087 0.040732 0.040732 0.040732 0.040732 0.048452 0.026528 0.031096 0.048452 0.057630 0.063092 0.069102 0.042087 0.026528 0.031096
0.010951 0.013906 0.013538 0.009835 0.015007 0.013906 0.009463 0.013538 0.013538 0.018651 0.009835 0.006466 0.009835 0.009835 0.009835 0.006466 0.006466 0.006089 0.006089 0.007593 0.015373 0.009463 0.004956 0.006842 0.015373 0.021537 0.025110 0.027235 0.032489 0.052743 0.044781 0.056333 0.059245 0.054052 0.069102 0.062134 0.046455 0.048784 0.044781 0.032837 0.036635 0.072849 0.091057 0.084479 0.091057 0.088976 0.078095 0.098693 0.087482 0.043437 0.062134 0.091057 0.037664 0.030047 0.059245 0.075636 0.110169 0.087781 0.096066 0.139420 0.136236 0.062773 0.041749 0.056333 0.001916 0.040732 0.093716 0.035604 0.071604 0.064365 0.026528 0.059245 0.048452 0.024042 0.016834 0.019736 0.025110 0.029697 0.060532 0.075636 0.046455 0.056333 0.054052 0.032837 0.052414 0.079625 0.051099 0.036292 0.016834 0.029697 0.077175 0.068160 0.051428 0.037664 0.031096 0.024042 0.022613 0.036292 0.029346 0.051428 0.063092 0.057630 0.045786 0.059245 0.059245 0.072849 0.052743 0.054052 0.087781 0.076867 0.098111 0.103034 0.048452 0.018651 0.045786 0.093716 0.100725 0.076867 0.067845 0.087482 0.086584 0.051757 0.024042 0.021537 0.104184 0.141268 0.098111 0.087781 0.044781 0.063092 0.022613 0.040732 0.035259 0.031096 0.076867 0.064365 0.026882 0.018289 0.041749 0.046455 0.036292 0.032489 0.035604 0.064365 0.052743 0.032489 0.021537 0.015007 0.029346 0.026882 0.013906 0.013538 0.036635 0.067845 0.068160 0.086284 0.087482 0.087482 0.097236 0.087482 0.086584 0.069102 0.051428 0.059567 0.067845 0.070668 0.056333 0.051757 0.059245 0.041749 0.067215 0.106474 0.042087 0.015373 0.031096 0.042087 0.036292 0.066899 0.074709 0.006466 0.001534 0.001916 0.003059 0.003059 0.009463 0.018651 0.022613 0.007593 0.000384 0.000384 0.001916 0.000768 0.000768 0.000768 0.000000 0.000000 0.000384 0.001534 0.000384 0.003820 0.006466 0.006089 0.004956 0.006089 0.003820 0.000384 0.000768 0.001534 0.003820 0.007593 0.009835 0.013906 0.001916 0.000768 0.007593 0.016834 0.009463 0.001534 0.004956 0.082059 0.125724 0.096359 0.082059 0.056982 0.031096 0.029346 0.027235 0.019375 0.032489 0.044781 0.044781 0.059245 0.072849 0.059245 0.052743 0.051428 0.045786 0.045786 0.036292 0.036292 0.027235 0.015007 0.010951 0.004956 0.019375 0.035604 0.022613 0.012801 0.024042 0.031096 0.012801 0.019375 0.026882 0.038348 0.032489 0.038348 0.029346 0.016834 0.031096 0.035604 0.035604 0.040732 0.032489 0.032489 0.046455 0.041749 0.030047 0.026528 0.051428 0.052743 0.063092 0.024042 0.029346
0.019375 0.015007 0.013538 0.018651 0.015007 0.013906 0.018289 0.013538 0.013906 0.013538 0.009835 0.013906 0.010951 0.009835 0.009463 0.006466 0.006466 0.006089 0.009463 0.009835 0.018651 0.015373 0.009463 0.006842 0.009463 0.029346 0.021537 0.022613 0.024042 0.046455 0.062773 0.056333 0.059245 0.069102 0.072849 0.059245 0.059245 0.056333 0.037664 0.031096 0.043773 0.070668 0.081756 0.079625 0.098693 0.100725 0.078095 0.093716 0.088976 0.044781 0.043773 0.087781 0.072849 0.029697 0.025110 0.070668 0.118850 0.104184 0.101014 0.118850 0.130067 0.136236 0.084479 0.064365 0.018289 0.032837 0.113270 0.024042 0.019375 0.051428 0.021537 0.015007 0.064365 0.056333 0.029346 0.019736 0.029697 0.043773 0.029697 0.044781 0.060532 0.059245 0.059245 0.062134 0.059245 0.044781 0.062773 0.060532 0.018651 0.032837 0.059245 0.037664 0.041749 0.041749 0.041749 0.044781 0.024042 0.024042 0.022613 0.038348 0.062773 0.056982 0.072849 0.070668 0.067215 0.059245 0.072849 0.077175 0.106474 0.125179 0.088976 0.119127 0.110734 0.064365 0.055358 0.110734 0.096944 0.100725 0.079625 0.087482 0.070668 0.032837 0.051757 0.026882 0.032489 0.070668 0.082968 0.082666 0.082059 0.051428 0.051428 0.066899 0.042087 0.009463 0.029346 0.071604 0.079014 0.056333 0.044781 0.048452 0.036292 0.031096 0.031096 0.052743 0.064365 0.052743 0.035259 0.016834 0.021537 0.044781 0.025110 0.013906 0.030047 0.059567 0.077175 0.106474 0.108752 0.100725 0.078095 0.067845 0.087482 0.069102 0.059567 0.059245 0.041749 0.052743 0.064365 0.055358 0.079014 0.075636 0.060532 0.059245 0.056982 0.031096 0.031096 0.040732 0.051428 0.062773 0.079319 0.038348 0.003440 0.001916 0.003059 0.009463 0.015373 0.015373 0.009463 0.000384 0.000768 0.001916 0.000768 0.000768 0.000384 0.000000 0.000384 0.000384 0.000768 0.001916 0.001916 0.001534 0.001916 0.003440 0.001916 0.001916 0.003440 0.003440 0.000768 0.001534 0.006466 0.006466 0.006089 0.009835 0.004956 0.000768 0.001534 0.007593 0.009463 0.006842 0.003820 0.003059 0.075636 0.110169 0.103034 0.082059 0.059567 0.032489 0.035604 0.031096 0.027235 0.042087 0.051757 0.064365 0.067215 0.057630 0.051428 0.064365 0.071604 0.076867 0.063092 0.051428 0.051428 0.040732 0.022613 0.019375 0.015373 0.015373 0.019375 0.015373 0.019375 0.042087 0.016834 0.027235 0.039372 0.029346 0.029346 0.035259 0.038348 0.012801 0.015373 0.031096 0.031096 0.038348 0.041749 0.019375 0.031096 0.070668 0.040732 0.012801 0.040732 0.046455 0.076867 0.052743 0.019736
0.019736 0.013906 0.013906 0.018651 0.018651 0.015007 0.009463 0.009835 0.013538 0.009463 0.018651 0.018651 0.013538 0.009835 0.009463 0.009463 0.006466 0.009835 0.009835 0.010951 0.019375 0.018651 0.009463 0.012062 0.009463 0.021537 0.024042 0.016834 0.022613 0.029346 0.067215 0.064365 0.072849 0.060532 0.051757 0.056333 0.056333 0.070668 0.064365 0.036292 0.030047 0.044781 0.091057 0.088976 0.081756 0.106474 0.075636 0.088976 0.126542 0.064365 0.031096 0.064365 0.100725 0.059567 0.019375 0.009463 0.076867 0.139420 0.092536 0.115231 0.124358 0.104184 0.110734 0.110734 0.082666 0.036635 0.046455 0.036292 0.040732 0.026882 0.029346 0.025110 0.025110 0.019736 0.025110 0.043773 0.046455 0.032837 0.037664 0.054052 0.060532 0.030047 0.032837 0.068160 0.041749 0.031096 0.076867 0.078095 0.048784 0.037664 0.036635 0.039372 0.037664 0.041749 0.036292 0.035604 0.046455 0.066899 0.032837 0.018651 0.057630 0.091057 0.048784 0.048784 0.074709 0.051757 0.116627 0.127358 0.100725 0.133028 0.112426 0.075636 0.095773 0.090166 0.087781 0.105044 0.114392 0.116348 0.096944 0.087482 0.091649 0.031096 0.024042 0.035259 0.041749 0.045786 0.082059 0.046455 0.046455 0.071604 0.027235 0.048452 0.088976 0.019375 0.007593 0.019736 0.032837 0.041749 0.048452 0.063092 0.051428 0.035604 0.027235 0.042087 0.057630 0.066899 0.051757 0.024042 0.015007 0.035259 0.044781 0.021537 0.037664 0.069102 0.068160 0.127630 0.138626 0.077175 0.060532 0.052414 0.069102 0.079625 0.072849 0.048452 0.040732 0.048452 0.067215 0.062134 0.060532 0.075636 0.070668 0.052743 0.046455 0.055358 0.046455 0.045786 0.046455 0.066899 0.092536 0.076867 0.019736 0.003440 0.003820 0.007593 0.006466 0.006466 0.001916 0.001916 0.003820 0.000384 0.001916 0.000384 0.000000 0.000768 0.000768 0.000384 0.001916 0.001916 0.000384 0.000000 0.001534 0.001534 0.001916 0.003059 0.001916 0.001534 0.000768 0.001916 0.007593 0.006842 0.006842 0.009463 0.007593 0.001916 0.003440 0.003820 0.003820 0.010951 0.010951 0.004956 0.010951 0.069729 0.110169 0.096359 0.084479 0.051428 0.040732 0.040732 0.036292 0.048452 0.059245 0.062773 0.052743 0.057630 0.059567 0.062773 0.066899 0.082666 0.088976 0.075636 0.056982 0.057630 0.036292 0.029346 0.036292 0.032489 0.019375 0.006842 0.012801 0.031096 0.019736 0.019736 0.035259 0.032489 0.032489 0.029346 0.038348 0.027235 0.012062 0.022613 0.036292 0.048452 0.042087 0.031096 0.036292 0.051428 0.066899 0.042087 0.040732 0.045786 0.059567 0.092536 0.048452
0.019736 0.013906 0.018651 0.015007 0.013906 0.009835 0.009835 0.013906 0.013906 0.018651 0.013906 0.009463 0.009463 0.009463 0.006089 0.009463 0.006466 0.009835 0.006089 0.004956 0.015373 0.022613 0.015373 0.012062 0.015373 0.021537 0.024042 0.015373 0.019375 0.031096 0.056333 0.067215 0.072849 0.074709 0.059245 0.062134 0.064365 0.056333 0.067215 0.051428 0.030047 0.043773 0.069102 0.084479 0.079014 0.100725 0.119957 0.081756 0.087781 0.096066 0.059567 0.044781 0.075636 0.095773 0.076867 0.032489 0.018289 0.087482 0.105044 0.087482 0.115231 0.112426 0.088976 0.096359 0.096359 0.095773 0.088976 0.035604 0.038348 0.054052 0.051428 0.035259 0.046455 0.054052 0.031096 0.052414 0.018651 0.026528 0.078095 0.077175 0.043773 0.045786 0.036635 0.059245 0.059245 0.069102 0.056333 0.046455 0.069729 0.066899 0.026882 0.046455 0.042087 0.036292 0.110169 0.046455 0.185681 0.046455 0.088976 0.036292 0.035259 0.067215 0.087482 0.048452 0.062773 0.086284 0.103322 0.087482 0.104184 0.118850 0.133028 0.082666 0.090166 0.087482 0.074709 0.100725 0.119957 0.130067 0.123537 0.081756 0.082968 0.076867 0.009463 0.010951 0.016834 0.018651 0.045786 0.092536 0.041749 0.075636 0.052743 0.022613 0.076867 0.079319 0.026882 0.032837 0.026882 0.021537 0.022613 0.040732 0.046455 0.042087 0.032489 0.027235 0.048452 0.067215 0.062773 0.035259 0.021537 0.021537 0.038348 0.035259 0.036635 0.069102 0.088976 0.127630 0.129797 0.070668 0.056333 0.072849 0.079625 0.059245 0.057630 0.056982 0.044781 0.062134 0.069102 0.070668 0.059245 0.063092 0.082059 0.084479 0.067215 0.062773 0.063092 0.063092 0.048452 0.041749 0.051757 0.096944 0.056333 0.029346 0.035259 0.019375 0.009463 0.003820 0.001916 0.003820 0.003820 0.000384 0.001534 0.000384 0.000768 0.000768 0.000000 0.000384 0.000768 0.000000 0.000384 0.001534 0.000768 0.000384 0.001916 0.000768 0.000384 0.000768 0.001534 0.001916 0.007593 0.012801 0.012062 0.009463 0.012062 0.004956 0.003820 0.003820 0.001534 0.009835 0.015373 0.029346 0.006842 0.015373 0.063092 0.088976 0.082059 0.075636 0.046455 0.046455 0.040732 0.048452 0.059567 0.064365 0.056982 0.042087 0.048452 0.052743 0.051428 0.051428 0.069102 0.082059 0.075636 0.063092 0.046455 0.029346 0.031096 0.042087 0.036292 0.015373 0.004956 0.032837 0.031096 0.010951 0.027235 0.035604 0.042087 0.038348 0.029346 0.031096 0.015373 0.018651 0.027235 0.046455 0.051428 0.036292 0.036292 0.057630 0.046455 0.052743 0.056982 0.055358 0.042087 0.066899 0.079014
0.018289 0.018651 0.013906 0.013538 0.013538 0.018651 0.024042 0.018289 0.013906 0.018289 0.009835 0.006089 0.006089 0.009463 0.006089 0.006089 0.009835 0.006466 0.006466 0.004956 0.009463 0.015373 0.018651 0.015373 0.015373 0.024042 0.022613 0.022613 0.026882 0.025110 0.039372 0.067215 0.056333 0.062773 0.079625 0.070668 0.051757 0.074709 0.093716 0.082968 0.032837 0.039372 0.056333 0.062773 0.070668 0.100725 0.110169 0.119127 0.096066 0.076867 0.082666 0.069102 0.063092 0.088976 0.090166 0.096359 0.046455 0.052743 0.098111 0.110734 0.104184 0.110169 0.110734 0.098111 0.055358 0.035259 0.082968 0.091649 0.056333 0.006466 0.001534 0.041749 0.068160 0.086284 0.060532 0.036635 0.004956 0.039372 0.096359 0.042087 0.041749 0.051757 0.056333 0.036292 0.079319 0.082666 0.098111 0.090166 0.082059 0.127358 0.069102 0.031096 0.076867 0.024042 0.074709 0.184962 0.151165 0.140477 0.035259 0.056982 0.070668 0.066899 0.063092 0.059567 0.070668 0.096066 0.076867 0.070668 0.082059 0.104184 0.084479 0.087482 0.087482 0.105044 0.096944 0.093716 0.106474 0.131685 0.130067 0.079014 0.048452 0.084479 0.059567 0.012062 0.006466 0.006842 0.019736 0.070668 0.040732 0.046455 0.096359 0.059245 0.056333 0.105044 0.087781 0.060532 0.075636 0.042087 0.031096 0.032489 0.044781 0.038348 0.036292 0.025110 0.041749 0.059245 0.059245 0.041749 0.024042 0.024042 0.035259 0.046455 0.051099 0.051428 0.079625 0.131685 0.130067 0.082968 0.066899 0.074709 0.079319 0.057630 0.048452 0.067215 0.060532 0.060532 0.064365 0.052743 0.052743 0.064365 0.076867 0.087482 0.079319 0.063092 0.052743 0.056333 0.069102 0.059567 0.054052 0.059567 0.038348 0.078095 0.084479 0.082666 0.051428 0.019375 0.006466 0.006089 0.001534 0.000768 0.000768 0.000384 0.000384 0.000000 0.000000 0.000384 0.000384 0.000384 0.000768 0.000768 0.000384 0.000384 0.000768 0.000000 0.000000 0.001534 0.001534 0.001534 0.001916 0.003820 0.009835 0.007593 0.009463 0.012062 0.007593 0.004956 0.001916 0.000384 0.003440 0.044781 0.016834 0.003440 0.015373 0.056982 0.075636 0.088976 0.069729 0.045786 0.051428 0.052743 0.063092 0.063092 0.069729 0.052743 0.042087 0.035604 0.051428 0.051428 0.045786 0.051428 0.069102 0.063092 0.051428 0.035604 0.032489 0.040732 0.040732 0.046455 0.022613 0.021537 0.057630 0.036292 0.024042 0.031096 0.044781 0.044781 0.031096 0.031096 0.022613 0.012801 0.016834 0.031096 0.045786 0.036292 0.031096 0.045786 0.040732 0.031096 0.042087 0.064365 0.055358 0.062773 0.071604
0.015007 0.018289 0.013538 0.019736 0.019736 0.024042 0.018651 0.018651 0.013906 0.013538 0.019736 0.009835 0.009835 0.009463 0.009835 0.009835 0.009835 0.006089 0.006466 0.007593 0.012801 0.012062 0.012801 0.015373 0.015373 0.019375 0.022613 0.021537 0.032837 0.032837 0.031096 0.054052 0.067215 0.069102 0.051428 0.051757 0.054052 0.056333 0.070668 0.098111 0.074709 0.039372 0.048784 0.064365 0.067215 0.084479 0.100725 0.098111 0.133028 0.096359 0.063092 0.069102 0.063092 0.071604 0.071604 0.059567 0.082059 0.059567 0.075636 0.079319 0.101014 0.079014 0.084479 0.117740 0.117740 0.051757 0.032489 0.037664 0.119127 0.093716 0.032837 0.032837 0.074709 0.079625 0.037664 0.026882 0.032837 0.031096 0.036292 0.035259 0.095773 0.110734 0.092536 0.057630 0.042087 0.071604 0.139420 0.118850 0.095773 0.096359 0.133028 0.046455 0.052743 0.067215 0.044781 0.068160 0.127630 0.155014 0.056982 0.035259 0.069729 0.069102 0.063092 0.075636 0.076867 0.086584 0.078095 0.070668 0.092536 0.136236 0.124085 0.090166 0.084479 0.127358 0.109886 0.100725 0.123537 0.108752 0.110169 0.096944 0.048784 0.048784 0.051428 0.040732 0.027235 0.015373 0.012801 0.035259 0.038348 0.022613 0.032489 0.048452 0.051757 0.051757 0.079014 0.041749 0.046455 0.063092 0.046455 0.039372 0.035259 0.032489 0.051757 0.031096 0.021537 0.059245 0.067215 0.041749 0.024042 0.024042 0.039372 0.060532 0.052414 0.046455 0.060532 0.096944 0.136236 0.110734 0.088976 0.084479 0.092536 0.082968 0.064365 0.064365 0.067215 0.055358 0.051428 0.051428 0.051428 0.045786 0.040732 0.036292 0.031096 0.052414 0.081756 0.081756 0.077175 0.078095 0.043773 0.015373 0.048784 0.060532 0.052743 0.069729 0.071604 0.048452 0.016834 0.007593 0.001916 0.000384 0.000384 0.000384 0.000000 0.000000 0.000384 0.000768 0.000384 0.000384 0.001534 0.000384 0.000000 0.000384 0.000768 0.000384 0.000768 0.001916 0.001534 0.000768 0.003440 0.006466 0.003440 0.003820 0.007593 0.012801 0.009463 0.006842 0.003820 0.001916 0.007593 0.012801 0.012801 0.001916 0.001916 0.015373 0.063092 0.088976 0.088976 0.057630 0.046455 0.056982 0.063092 0.076867 0.079319 0.071604 0.069729 0.051428 0.040732 0.063092 0.069102 0.046455 0.051428 0.069102 0.063092 0.040732 0.040732 0.042087 0.055358 0.055358 0.059245 0.044781 0.045786 0.057630 0.040732 0.042087 0.048452 0.040732 0.036292 0.035604 0.040732 0.031096 0.019375 0.024042 0.035604 0.040732 0.026528 0.035604 0.045786 0.042087 0.032489 0.042087 0.059567 0.063092 0.063092
0.015007 0.013906 0.024042 0.018651 0.018651 0.018651 0.013538 0.018651 0.018289 0.009835 0.015007 0.015007 0.009463 0.006089 0.009463 0.009463 0.006089 0.006089 0.006466 0.006466 0.012801 0.022613 0.015373 0.012062 0.015373 0.019375 0.024042 0.026882 0.029346 0.035259 0.039372 0.039372 0.062134 0.088976 0.056333 0.046455 0.059245 0.044781 0.052743 0.074709 0.105044 0.067215 0.046455 0.046455 0.059245 0.072849 0.062773 0.069102 0.104184 0.142845 0.084479 0.052743 0.051757 0.074709 0.087482 0.039372 0.038348 0.046455 0.060532 0.079625 0.086584 0.096066 0.116348 0.155014 0.108752 0.051428 0.048784 0.006466 0.022613 0.149875 0.086584 0.029346 0.029346 0.019736 0.031096 0.056982 0.057630 0.059245 0.062773 0.038348 0.024042 0.101014 0.168115 0.142845 0.088976 0.018651 0.052743 0.141268 0.166124 0.103034 0.118850 0.110734 0.038348 0.064365 0.042087 0.004956 0.029697 0.082666 0.076867 0.035259 0.035604 0.088976 0.079014 0.068160 0.086584 0.076867 0.079625 0.069729 0.076867 0.101014 0.125724 0.117740 0.110734 0.156799 0.194469 0.159085 0.164123 0.110734 0.088976 0.100725 0.054052 0.035259 0.032489 0.027235 0.022613 0.015373 0.025110 0.043437 0.016834 0.022613 0.035604 0.007593 0.021537 0.032489 0.035604 0.031096 0.016834 0.032489 0.059245 0.048784 0.032489 0.032489 0.048784 0.048452 0.019736 0.041749 0.067215 0.048784 0.024042 0.032489 0.046455 0.054052 0.051757 0.066899 0.066899 0.048452 0.084479 0.106474 0.106474 0.091649 0.091649 0.091649 0.079319 0.071604 0.069729 0.057630 0.048452 0.032837 0.023685 0.037664 0.048784 0.079319 0.109886 0.096066 0.088976 0.056982 0.054052 0.048784 0.051757 0.054052 0.039372 0.024042 0.046455 0.066899 0.066899 0.051757 0.029346 0.015007 0.003820 0.000768 0.000768 0.000768 0.000384 0.000768 0.000768 0.000384 0.000000 0.000768 0.000384 0.000768 0.000768 0.000384 0.001534 0.001534 0.003820 0.001916 0.001916 0.003059 0.003820 0.003820 0.001916 0.006089 0.006842 0.012801 0.009463 0.007593 0.007593 0.006089 0.007593 0.009463 0.007593 0.001916 0.000768 0.001916 0.012062 0.075636 0.098111 0.076867 0.045786 0.046455 0.052743 0.059567 0.069729 0.063092 0.046455 0.063092 0.045786 0.040732 0.075636 0.075636 0.046455 0.057630 0.075636 0.056982 0.042087 0.038348 0.044781 0.048452 0.048452 0.046455 0.045786 0.045786 0.045786 0.051428 0.056982 0.057630 0.046455 0.040732 0.046455 0.048452 0.044781 0.036292 0.035604 0.040732 0.040732 0.031096 0.038348 0.055358 0.051428 0.042087 0.045786 0.057630 0.071604
0.015007 0.015007 0.018651 0.018651 0.031096 0.023685 0.018651 0.018289 0.018651 0.009835 0.009835 0.015007 0.013906 0.009463 0.009463 0.009463 0.009463 0.006089 0.006466 0.006466 0.004956 0.018651 0.022613 0.015373 0.015373 0.019375 0.024042 0.024042 0.029346 0.039372 0.039372 0.054052 0.060532 0.064365 0.066899 0.048452 0.057630 0.052743 0.051757 0.062134 0.081756 0.084479 0.064365 0.048784 0.054052 0.075636 0.052743 0.046455 0.056333 0.091649 0.100725 0.079014 0.048452 0.042087 0.093716 0.070668 0.043437 0.072849 0.114392 0.105044 0.062773 0.116905 0.165124 0.086284 0.059245 0.062773 0.048784 0.076867 0.054052 0.138626 0.029346 0.032489 0.031096 0.032489 0.032837 0.064365 0.106474 0.119957 0.084479 0.114392 0.055358 0.012801 0.059567 0.133028 0.127358 0.063092 0.006089 0.019375 0.110734 0.165124 0.110734 0.096359 0.087482 0.059245 0.038348 0.064365 0.036292 0.057630 0.081756 0.075636 0.029346 0.039372 0.066899 0.054052 0.059567 0.067845 0.052414 0.095773 0.121062 0.090166 0.117740 0.095773 0.088976 0.106474 0.181107 0.181107 0.234977 0.218160 0.098693 0.087482 0.059567 0.035259 0.024042 0.023685 0.026882 0.018651 0.031096 0.025110 0.015373 0.003820 0.042087 0.036292 0.013906 0.027235 0.040732 0.036292 0.029346 0.024042 0.039372 0.044781 0.032489 0.038348 0.044781 0.064365 0.038348 0.035259 0.067215 0.051757 0.019375 0.029346 0.062773 0.055358 0.036292 0.042087 0.087482 0.075636 0.060532 0.062134 0.078095 0.088976 0.072849 0.070668 0.066899 0.062773 0.064365 0.068160 0.082968 0.087482 0.103034 0.118850 0.141268 0.134100 0.084479 0.092536 0.100725 0.046455 0.001916 0.051428 0.062134 0.067215 0.051099 0.018651 0.040732 0.064365 0.087482 0.067215 0.032837 0.021537 0.004956 0.000384 0.000000 0.000768 0.001916 0.000768 0.000000 0.000000 0.000384 0.000768 0.000000 0.000000 0.000384 0.000384 0.001534 0.001916 0.003820 0.001534 0.000384 0.003059 0.007593 0.004956 0.003440 0.003440 0.004956 0.010951 0.009835 0.007593 0.010951 0.009835 0.009463 0.009835 0.003440 0.000384 0.000000 0.000768 0.000768 0.019375 0.090166 0.082666 0.056982 0.040732 0.046455 0.051428 0.051428 0.066899 0.044781 0.027235 0.040732 0.035604 0.045786 0.082666 0.069729 0.046455 0.052743 0.056982 0.040732 0.038348 0.032489 0.036292 0.036292 0.035604 0.046455 0.040732 0.031096 0.040732 0.051428 0.051428 0.051428 0.040732 0.042087 0.036292 0.036292 0.040732 0.046455 0.036292 0.052743 0.036292 0.024042 0.027235 0.048452 0.046455 0.051428 0.048452 0.063092
0.015007 0.015007 0.015007 0.021537 0.025110 0.018651 0.018651 0.018651 0.010951 0.013906 0.013906 0.013906 0.013906 0.009835 0.009463 0.009463 0.013906 0.009835 0.006466 0.010951 0.004956 0.012062 0.016834 0.015373 0.015373 0.016834 0.019736 0.026882 0.031096 0.039372 0.041749 0.048784 0.062773 0.051757 0.048452 0.048452 0.051757 0.070668 0.070668 0.070668 0.070668 0.067215 0.062773 0.062773 0.048784 0.048452 0.052743 0.062134 0.069102 0.067845 0.068160 0.043773 0.046455 0.069102 0.098693 0.077175 0.088976 0.123537 0.110169 0.060532 0.042087 0.077175 0.119127 0.103034 0.088976 0.103034 0.031096 0.025110 0.116905 0.151165 0.062773 0.026528 0.032489 0.035259 0.031096 0.024042 0.032837 0.076867 0.082968 0.046455 0.084479 0.046455 0.015373 0.071604 0.121062 0.090166 0.063092 0.007593 0.006466 0.088976 0.119957 0.062773 0.035259 0.076867 0.066899 0.048452 0.088976 0.082968 0.057630 0.051757 0.059567 0.045786 0.056333 0.096066 0.051428 0.043773 0.032489 0.063092 0.117740 0.103034 0.110169 0.118850 0.098111 0.091649 0.116348 0.153735 0.179896 0.269599 0.219731 0.064365 0.057630 0.081756 0.056333 0.009835 0.015373 0.019375 0.035604 0.045786 0.038348 0.019736 0.004956 0.032489 0.024042 0.019375 0.032489 0.041749 0.048784 0.031096 0.025110 0.038348 0.032489 0.029346 0.036292 0.052743 0.059567 0.044781 0.062773 0.062773 0.029346 0.015007 0.038348 0.059245 0.051757 0.039372 0.062134 0.087482 0.078095 0.079625 0.084479 0.064365 0.052414 0.051428 0.062134 0.087781 0.145461 0.201715 0.142845 0.087482 0.084479 0.082968 0.071604 0.041749 0.051428 0.042087 0.062773 0.036635 0.084479 0.059567 0.048784 0.056333 0.046455 0.019375 0.036292 0.059567 0.087781 0.096944 0.039372 0.021537 0.009463 0.000384 0.000768 0.003059 0.000768 0.000384 0.000384 0.000000 0.000384 0.000768 0.000384 0.000384 0.000384 0.000768 0.001916 0.001916 0.000768 0.001916 0.000768 0.000384 0.004956 0.004956 0.003440 0.001916 0.007593 0.013906 0.007593 0.004956 0.009835 0.013538 0.013538 0.006466 0.003820 0.001916 0.000000 0.000000 0.000768 0.001534 0.036292 0.090166 0.063092 0.052743 0.048452 0.064365 0.069729 0.076867 0.069729 0.036292 0.022613 0.026528 0.031096 0.051428 0.082666 0.066899 0.046455 0.051428 0.042087 0.044781 0.036292 0.031096 0.031096 0.032489 0.032489 0.038348 0.029346 0.026528 0.035604 0.032489 0.036292 0.040732 0.027235 0.024042 0.015373 0.018651 0.040732 0.042087 0.027235 0.051428 0.036292 0.024042 0.027235 0.035604 0.046455 0.051428 0.042087
0.010951 0.010951 0.015007 0.016834 0.010951 0.009835 0.013906 0.015007 0.010951 0.013538 0.009835 0.010951 0.007593 0.009835 0.006089 0.006466 0.009463 0.010951 0.006466 0.010951 0.009463 0.012801 0.016834 0.009463 0.015007 0.024042 0.018651 0.021537 0.026882 0.029346 0.035259 0.041749 0.059245 0.062134 0.044781 0.044781 0.036635 0.052414 0.070668 0.064365 0.067215 0.062773 0.059245 0.067215 0.056333 0.046455 0.059567 0.067845 0.076867 0.087482 0.078095 0.056333 0.064365 0.081756 0.081756 0.072849 0.078095 0.108752 0.041749 0.091649 0.101014 0.024042 0.101014 0.092536 0.090166 0.087482 0.087781 0.032489 0.079319 0.100725 0.046455 0.026528 0.024042 0.024042 0.024042 0.012062 0.004956 0.007593 0.076867 0.062134 0.029346 0.036292 0.019375 0.026882 0.098111 0.082666 0.066899 0.054052 0.006466 0.041749 0.108752 0.048784 0.010951 0.010951 0.059567 0.063092 0.082059 0.090166 0.096359 0.064365 0.074709 0.069102 0.078095 0.098693 0.059245 0.072849 0.081756 0.052743 0.103034 0.117740 0.110734 0.112426 0.115231 0.130067 0.119957 0.109886 0.164123 0.219731 0.263630 0.139420 0.051757 0.074709 0.069729 0.057630 0.015373 0.015373 0.015373 0.026528 0.038348 0.052743 0.022613 0.007593 0.012801 0.024042 0.039372 0.031096 0.039372 0.041749 0.021537 0.024042 0.038348 0.029346 0.024042 0.041749 0.051757 0.041749 0.056333 0.070668 0.041749 0.018651 0.029697 0.043773 0.037664 0.046455 0.077175 0.117740 0.108752 0.093716 0.093716 0.074709 0.069729 0.092536 0.130067 0.175023 0.244693 0.157308 0.022613 0.015007 0.062773 0.101014 0.055358 0.084479 0.104184 0.106188 0.138361 0.161106 0.086584 0.026882 0.029346 0.032489 0.031096 0.019375 0.021537 0.048784 0.079625 0.093716 0.056333 0.037664 0.013906 0.000384 0.001916 0.000768 0.000768 0.001916 0.001916 0.001916 0.000384 0.000384 0.000384 0.000384 0.000384 0.001916 0.000768 0.000384 0.000768 0.000384 0.001916 0.000768 0.000768 0.004956 0.001916 0.000768 0.007593 0.010951 0.009463 0.010951 0.018289 0.013906 0.006089 0.006466 0.003820 0.001916 0.000768 0.000000 0.000384 0.000384 0.003820 0.046455 0.069729 0.048452 0.048452 0.056982 0.069729 0.082666 0.090166 0.069729 0.040732 0.022613 0.022613 0.031096 0.059567 0.076867 0.051428 0.052743 0.048452 0.042087 0.051428 0.045786 0.036292 0.032489 0.038348 0.038348 0.026528 0.018651 0.038348 0.038348 0.010951 0.032489 0.041749 0.024042 0.018651 0.012801 0.016834 0.056982 0.036292 0.032489 0.040732 0.040732 0.024042 0.031096 0.040732 0.045786 0.040732
0.007593 0.012801 0.012801 0.010951 0.006466 0.006089 0.009463 0.015007 0.015007 0.009835 0.015007 0.007593 0.006466 0.009835 0.006466 0.006466 0.003440 0.007593 0.006466 0.004956 0.009463 0.012801 0.016834 0.015007 0.019736 0.019736 0.012801 0.016834 0.025110 0.031096 0.036635 0.036635 0.059245 0.067845 0.043437 0.043773 0.043773 0.043773 0.051428 0.051428 0.052414 0.060532 0.059567 0.059567 0.059567 0.060532 0.060532 0.069102 0.088976 0.087482 0.088976 0.064365 0.046455 0.067845 0.098693 0.059245 0.079625 0.062134 0.059567 0.051428 0.159338 0.109886 0.101014 0.114392 0.084479 0.106474 0.079625 0.003440 0.019736 0.165874 0.191399 0.026528 0.015373 0.015373 0.018651 0.015373 0.009463 0.004956 0.026882 0.088976 0.041749 0.035259 0.032489 0.016834 0.038348 0.115231 0.103322 0.048452 0.003820 0.029697 0.116348 0.044781 0.016834 0.009463 0.010951 0.042087 0.088976 0.095773 0.076867 0.051757 0.048784 0.070668 0.051428 0.054052 0.060532 0.060532 0.101014 0.103034 0.069102 0.125724 0.134100 0.165124 0.158831 0.124085 0.109886 0.130067 0.169356 0.196818 0.218160 0.191399 0.082968 0.082059 0.063092 0.075636 0.052743 0.031096 0.022613 0.021537 0.018651 0.022613 0.045786 0.026528 0.009463 0.013906 0.041749 0.039372 0.031096 0.035259 0.026882 0.019736 0.026882 0.038348 0.026882 0.030047 0.043773 0.043773 0.036635 0.051428 0.059245 0.037664 0.035259 0.039372 0.035259 0.064365 0.116348 0.110734 0.106474 0.097236 0.097236 0.110169 0.110734 0.110734 0.121062 0.176978 0.167369 0.021537 0.010951 0.012801 0.019375 0.110734 0.095773 0.069102 0.149617 0.162114 0.110169 0.079014 0.036292 0.031096 0.019375 0.022613 0.027235 0.025110 0.023685 0.043437 0.069102 0.081756 0.070668 0.041749 0.027235 0.004956 0.001534 0.001534 0.001916 0.000384 0.000384 0.000768 0.001916 0.000384 0.000000 0.000000 0.000768 0.001916 0.000384 0.000384 0.000768 0.000768 0.000384 0.000768 0.000768 0.000768 0.001916 0.000384 0.003820 0.010951 0.006466 0.013906 0.024042 0.013906 0.006089 0.003820 0.003440 0.001916 0.000768 0.000768 0.000768 0.000384 0.000384 0.006842 0.046455 0.057630 0.046455 0.046455 0.057630 0.064365 0.082666 0.075636 0.063092 0.046455 0.031096 0.035604 0.051428 0.069102 0.057630 0.052743 0.059567 0.042087 0.046455 0.056982 0.063092 0.051428 0.040732 0.051428 0.045786 0.027235 0.027235 0.064365 0.036292 0.012801 0.040732 0.031096 0.029346 0.029346 0.021537 0.026528 0.036292 0.036292 0.046455 0.044781 0.036292 0.019375 0.031096 0.042087 0.032489
0.012062 0.009463 0.004956 0.004956 0.003820 0.006089 0.009835 0.009835 0.016834 0.006089 0.010951 0.015373 0.006466 0.006466 0.006466 0.003440 0.001534 0.003820 0.004956 0.004956 0.006842 0.012801 0.021537 0.012801 0.016834 0.021537 0.015007 0.023685 0.029697 0.029697 0.036292 0.043773 0.060532 0.059567 0.051428 0.052414 0.039372 0.037664 0.052414 0.051428 0.052414 0.059567 0.059567 0.059567 0.076867 0.069102 0.060532 0.078095 0.077175 0.086584 0.097236 0.054052 0.032837 0.078095 0.077175 0.029346 0.052414 0.069102 0.041749 0.084479 0.079319 0.121062 0.098693 0.087482 0.087781 0.144417 0.124085 0.042087 0.032489 0.019375 0.096359 0.208173 0.018651 0.012062 0.015373 0.018651 0.012062 0.006842 0.026882 0.071604 0.096066 0.024042 0.027235 0.032489 0.024042 0.066899 0.134100 0.127358 0.044781 0.010951 0.067215 0.064365 0.021537 0.021537 0.015007 0.016834 0.051428 0.103034 0.103034 0.076867 0.032489 0.030047 0.036635 0.025110 0.056333 0.031096 0.035259 0.095773 0.090166 0.082666 0.110169 0.149875 0.239317 0.212736 0.125724 0.104184 0.185442 0.208173 0.218160 0.236717 0.103034 0.133832 0.088976 0.051757 0.063092 0.042087 0.038348 0.041749 0.026528 0.019375 0.018651 0.027235 0.036292 0.022613 0.032489 0.048784 0.032837 0.038348 0.032837 0.021537 0.013906 0.029346 0.043773 0.052414 0.062134 0.059245 0.048452 0.066899 0.070668 0.059567 0.057630 0.064365 0.069729 0.096359 0.101014 0.079014 0.088976 0.097236 0.142582 0.181107 0.134100 0.110169 0.096359 0.081756 0.076867 0.084479 0.048784 0.067215 0.038348 0.069729 0.148841 0.088976 0.069102 0.044781 0.042087 0.038348 0.018651 0.018651 0.024042 0.013906 0.036635 0.043773 0.029697 0.030047 0.043773 0.056333 0.076867 0.055358 0.036292 0.019375 0.006089 0.001534 0.001916 0.001916 0.001534 0.001916 0.000768 0.000768 0.000000 0.000384 0.003059 0.000768 0.000768 0.000384 0.000384 0.000768 0.000000 0.000384 0.001916 0.001916 0.001916 0.001916 0.001916 0.009835 0.009835 0.010951 0.018651 0.018289 0.013906 0.006466 0.000768 0.000768 0.000768 0.001534 0.000384 0.000000 0.000000 0.000384 0.004956 0.036292 0.063092 0.069102 0.069102 0.075636 0.082059 0.088976 0.069729 0.051428 0.040732 0.036292 0.051428 0.057630 0.051428 0.036292 0.052743 0.051428 0.045786 0.045786 0.056982 0.057630 0.040732 0.045786 0.057630 0.040732 0.022613 0.036292 0.063092 0.031096 0.031096 0.042087 0.035259 0.029346 0.022613 0.041749 0.032489 0.015373 0.046455 0.046455 0.042087 0.040732 0.036292 0.042087 0.039372
0.007593 0.004956 0.004956 0.004956 0.003059 0.004956 0.003820 0.003820 0.009463 0.004956 0.001916 0.006842 0.004956 0.001916 0.004956 0.003820 0.001534 0.001916 0.003059 0.004956 0.006842 0.010951 0.016834 0.016834 0.021537 0.025110 0.024042 0.023685 0.023685 0.029697 0.043773 0.051428 0.060532 0.059567 0.052414 0.062134 0.046455 0.041749 0.048784 0.056333 0.056333 0.056333 0.060532 0.056333 0.072849 0.077175 0.060532 0.060532 0.076867 0.098693 0.110734 0.069102 0.037664 0.036635 0.046455 0.059245 0.038348 0.051757 0.019736 0.022613 0.064365 0.119127 0.110734 0.070668 0.067215 0.084479 0.114392 0.079319 0.027235 0.019375 0.027235 0.117740 0.079014 0.015373 0.012062 0.018651 0.103322 0.030047 0.012801 0.059245 0.082968 0.095773 0.021537 0.027235 0.024042 0.027235 0.076867 0.145461 0.142845 0.046455 0.025110 0.051428 0.024042 0.029346 0.021537 0.016834 0.022613 0.057630 0.098111 0.106474 0.140477 0.072849 0.037664 0.043773 0.138626 0.043773 0.031096 0.040732 0.082666 0.084479 0.096359 0.090166 0.179896 0.234977 0.173797 0.158831 0.191399 0.225305 0.142845 0.243408 0.141268 0.149100 0.204493 0.082666 0.055358 0.052743 0.038348 0.026528 0.031096 0.031096 0.027235 0.010951 0.009463 0.031096 0.048784 0.059245 0.036292 0.038348 0.041749 0.035259 0.018651 0.030047 0.072849 0.067215 0.075636 0.079014 0.066899 0.071604 0.074709 0.062773 0.057630 0.069729 0.071604 0.084479 0.079319 0.076867 0.098111 0.139420 0.201715 0.208173 0.139420 0.088976 0.021537 0.016834 0.056333 0.075636 0.091057 0.075636 0.079014 0.062134 0.110169 0.087482 0.055358 0.044781 0.056333 0.055358 0.019375 0.006466 0.029346 0.043773 0.018651 0.029697 0.037664 0.037664 0.035259 0.031096 0.064365 0.074709 0.046455 0.042087 0.016834 0.000384 0.000384 0.000384 0.000384 0.000384 0.000768 0.000000 0.000768 0.001534 0.001916 0.000000 0.000000 0.000384 0.000768 0.000384 0.000384 0.000768 0.000768 0.006089 0.010951 0.009835 0.006089 0.009835 0.021537 0.026528 0.026528 0.019375 0.010951 0.003440 0.000384 0.000000 0.000384 0.000768 0.000384 0.000000 0.000000 0.000000 0.000000 0.001916 0.022613 0.069729 0.084479 0.098111 0.104184 0.088976 0.076867 0.052743 0.040732 0.036292 0.046455 0.048452 0.040732 0.026528 0.022613 0.036292 0.040732 0.040732 0.052743 0.046455 0.026882 0.021537 0.042087 0.052743 0.036292 0.027235 0.040732 0.035604 0.022613 0.029346 0.032489 0.031096 0.021537 0.027235 0.040732 0.026528 0.031096 0.057630 0.046455 0.040732 0.046455 0.059245 0.070668
0.004956 0.004956 0.004956 0.003820 0.001916 0.001916 0.000768 0.000384 0.003820 0.001916 0.001534 0.003440 0.003059 0.000768 0.001534 0.003820 0.001916 0.001916 0.003820 0.003059 0.007593 0.010951 0.016834 0.015373 0.024042 0.032837 0.025110 0.031096 0.030047 0.036292 0.043773 0.051099 0.059567 0.059567 0.068160 0.060532 0.044781 0.044781 0.052414 0.059245 0.056333 0.048784 0.070668 0.084479 0.066899 0.062773 0.072849 0.079319 0.100725 0.128444 0.088976 0.044781 0.026882 0.037664 0.046455 0.042087 0.055358 0.051428 0.051428 0.023685 0.043773 0.087482 0.103322 0.064365 0.067215 0.098693 0.087781 0.071604 0.048452 0.029346 0.006466 0.036635 0.079014 0.019375 0.012062 0.029346 0.029697 0.087781 0.019736 0.039372 0.040732 0.055358 0.075636 0.024042 0.031096 0.027235 0.042087 0.082666 0.112426 0.134100 0.059567 0.036292 0.024042 0.016834 0.019375 0.012062 0.015373 0.024042 0.046455 0.046455 0.062773 0.096359 0.078095 0.092536 0.131685 0.109886 0.032489 0.031096 0.029346 0.051428 0.071604 0.100725 0.091649 0.149100 0.159085 0.173305 0.217260 0.326582 0.272867 0.216358 0.208173 0.082059 0.171088 0.148841 0.076867 0.057630 0.056982 0.040732 0.032489 0.040732 0.048452 0.051428 0.006466 0.009835 0.030047 0.038348 0.042087 0.044781 0.037664 0.036635 0.043773 0.070668 0.087781 0.070668 0.082968 0.075636 0.059245 0.056333 0.048784 0.052414 0.064365 0.055358 0.059567 0.074709 0.091649 0.115231 0.158831 0.181832 0.136236 0.163371 0.148841 0.075636 0.091057 0.096066 0.100725 0.086584 0.100725 0.082968 0.070668 0.042087 0.026882 0.038348 0.051757 0.052414 0.026882 0.042087 0.046455 0.018651 0.018289 0.048784 0.051757 0.036292 0.024042 0.027235 0.035604 0.045786 0.064365 0.076867 0.046455 0.048452 0.046455 0.006466 0.001534 0.000384 0.000768 0.000768 0.000384 0.000384 0.000384 0.003440 0.001916 0.000000 0.000384 0.000768 0.000768 0.000384 0.001534 0.000384 0.001916 0.010951 0.021537 0.016834 0.019736 0.019375 0.048452 0.040732 0.018651 0.006842 0.001916 0.001534 0.000384 0.000384 0.000384 0.000768 0.000384 0.000000 0.000000 0.000000 0.000000 0.000000 0.000384 0.016834 0.052743 0.084479 0.103034 0.100725 0.075636 0.042087 0.031096 0.035604 0.041749 0.039372 0.029346 0.029346 0.021537 0.016834 0.024042 0.032489 0.064365 0.072849 0.032489 0.015373 0.022613 0.040732 0.045786 0.035604 0.040732 0.036292 0.022613 0.015373 0.031096 0.042087 0.026528 0.022613 0.031096 0.026528 0.022613 0.026528 0.051428 0.056982 0.064365 0.074709 0.082968
0.004956 0.003059 0.003059 0.001916 0.001916 0.000768 0.000384 0.000384 0.003820 0.003440 0.001916 0.000768 0.001916 0.001916 0.001534 0.000768 0.001916 0.001534 0.003059 0.003820 0.004956 0.009463 0.012062 0.018651 0.029346 0.041749 0.032837 0.031096 0.037664 0.043773 0.043773 0.051099 0.051428 0.059245 0.077175 0.068160 0.043773 0.036292 0.068160 0.069102 0.046455 0.069102 0.079014 0.067215 0.079625 0.062773 0.081756 0.086584 0.030047 0.027235 0.069729 0.098111 0.074709 0.036292 0.056333 0.057630 0.051428 0.036292 0.048784 0.069102 0.044781 0.059567 0.087482 0.070668 0.068160 0.072849 0.071604 0.070668 0.059567 0.042087 0.032489 0.030047 0.059567 0.031096 0.012062 0.006089 0.021537 0.036292 0.013906 0.003820 0.059567 0.068160 0.046455 0.022613 0.031096 0.031096 0.027235 0.079319 0.104184 0.084479 0.090166 0.045786 0.036292 0.044781 0.022613 0.015373 0.010951 0.015373 0.026528 0.035604 0.009835 0.018651 0.036635 0.019375 0.019375 0.088976 0.030047 0.031096 0.025110 0.031096 0.051428 0.072849 0.116348 0.110734 0.095773 0.104184 0.125724 0.190688 0.271235 0.232137 0.243408 0.159338 0.103322 0.084479 0.088976 0.069102 0.052743 0.066899 0.040732 0.051428 0.027235 0.052743 0.051757 0.019736 0.021537 0.024042 0.046455 0.059245 0.043773 0.056333 0.075636 0.087482 0.079014 0.075636 0.067215 0.054052 0.044781 0.043773 0.043437 0.052414 0.072849 0.104184 0.125724 0.134100 0.134100 0.130067 0.139420 0.115231 0.048784 0.103322 0.257179 0.290715 0.200554 0.117740 0.144939 0.075636 0.048452 0.042087 0.051757 0.060532 0.043773 0.015007 0.029697 0.052414 0.032489 0.024042 0.027235 0.032489 0.032837 0.019375 0.032489 0.090166 0.082059 0.052743 0.042087 0.026528 0.069102 0.098111 0.062773 0.062134 0.064365 0.018651 0.000768 0.000000 0.000768 0.000000 0.000384 0.000384 0.000384 0.001534 0.001916 0.000768 0.000768 0.001916 0.000768 0.000768 0.001916 0.000000 0.004956 0.015007 0.038348 0.027235 0.023685 0.048784 0.040732 0.010951 0.001916 0.003059 0.003059 0.001916 0.001534 0.000384 0.000384 0.000384 0.000000 0.000000 0.000000 0.000000 0.000000 0.000000 0.000384 0.000000 0.007593 0.040732 0.106474 0.119957 0.084479 0.051428 0.031096 0.042087 0.064365 0.037664 0.021537 0.024042 0.027235 0.021537 0.015007 0.029346 0.046455 0.057630 0.045786 0.040732 0.026528 0.035604 0.040732 0.040732 0.038348 0.032489 0.016834 0.009463 0.019375 0.040732 0.046455 0.031096 0.031096 0.022613 0.031096 0.022613 0.029346 0.045786 0.059567 0.074709 0.082968
0.003440 0.001916 0.003059 0.000768 0.001534 0.000384 0.000000 0.000000 0.003820 0.006466 0.000384 0.000000 0.000384 0.000768 0.000384 0.000768 0.001534 0.001916 0.003059 0.003059 0.004956 0.009463 0.012062 0.015373 0.026882 0.041749 0.039372 0.037664 0.039372 0.044781 0.054052 0.052414 0.062134 0.060532 0.062134 0.081756 0.056333 0.046455 0.068160 0.068160 0.051099 0.068160 0.087482 0.052414 0.064365 0.067215 0.042087 0.064365 0.069102 0.066899 0.051757 0.062773 0.063092 0.051757 0.035604 0.044781 0.044781 0.062773 0.059245 0.069102 0.051428 0.051099 0.077175 0.069102 0.051428 0.041749 0.070668 0.067215 0.052743 0.044781 0.042087 0.029346 0.046455 0.069729 0.022613 0.009463 0.006089 0.019736 0.019375 0.009463 0.041749 0.051757 0.040732 0.031096 0.022613 0.038348 0.024042 0.022613 0.104184 0.124358 0.110734 0.051428 0.019736 0.044781 0.046455 0.022613 0.015373 0.016834 0.032489 0.036292 0.026528 0.004956 0.003820 0.009463 0.046455 0.046455 0.030047 0.013906 0.025110 0.036635 0.036292 0.043437 0.079625 0.074709 0.069102 0.082968 0.096944 0.116905 0.165124 0.147804 0.164123 0.234977 0.148841 0.056982 0.064365 0.076867 0.059567 0.056982 0.051428 0.048452 0.071604 0.031096 0.038348 0.027235 0.027235 0.032837 0.059567 0.077175 0.068160 0.072849 0.081756 0.072849 0.059245 0.056333 0.051428 0.043773 0.036635 0.039372 0.059245 0.127358 0.211599 0.219058 0.148841 0.064365 0.013538 0.036635 0.116905 0.239317 0.255502 0.165124 0.176734 0.148841 0.153735 0.059245 0.056982 0.062773 0.054052 0.054052 0.036635 0.054052 0.062773 0.025110 0.018651 0.027235 0.026528 0.035259 0.029346 0.027235 0.045786 0.036292 0.015007 0.027235 0.075636 0.063092 0.075636 0.052743 0.052743 0.109886 0.121062 0.088976 0.084479 0.084479 0.032489 0.000384 0.000768 0.000768 0.000768 0.001534 0.001916 0.001916 0.000384 0.000384 0.000768 0.000768 0.000384 0.001916 0.003820 0.001916 0.006089 0.025110 0.059245 0.019375 0.015007 0.016834 0.001916 0.003440 0.006466 0.010951 0.009463 0.009463 0.001916 0.000384 0.000384 0.000000 0.000000 0.000000 0.000384 0.000000 0.000384 0.000000 0.000000 0.000768 0.000384 0.019736 0.079319 0.096359 0.103034 0.088976 0.063092 0.057630 0.082968 0.055358 0.016834 0.019375 0.032489 0.051428 0.026528 0.027235 0.042087 0.042087 0.040732 0.031096 0.031096 0.031096 0.036292 0.042087 0.044781 0.048452 0.016834 0.009835 0.006842 0.022613 0.024042 0.036292 0.032489 0.019375 0.015373 0.035259 0.026528 0.041749 0.052414 0.062134 0.072849
0.001534 0.001916 0.001916 0.000768 0.000768 0.000768 0.000768 0.000000 0.001916 0.006466 0.003440 0.000768 0.000000 0.000384 0.000384 0.000768 0.000384 0.000384 0.003059 0.003059 0.001916 0.006842 0.012062 0.016834 0.026882 0.041749 0.048784 0.035259 0.041749 0.051757 0.051757 0.062773 0.062773 0.070668 0.067215 0.067215 0.066899 0.062134 0.096944 0.084479 0.067215 0.056333 0.064365 0.069729 0.076867 0.090166 0.076867 0.082666 0.074709 0.062773 0.062773 0.052743 0.040732 0.036292 0.041749 0.037664 0.026882 0.062134 0.081756 0.062134 0.059567 0.076867 0.068160 0.054052 0.054052 0.032837 0.046455 0.059245 0.051757 0.044781 0.038348 0.032489 0.015373 0.042087 0.069729 0.044781 0.012801 0.015007 0.015373 0.009463 0.038348 0.059567 0.032489 0.079319 0.040732 0.051428 0.066899 0.022613 0.035259 0.082666 0.125179 0.125724 0.038348 0.015373 0.051428 0.048452 0.044781 0.009835 0.019375 0.042087 0.032489 0.016834 0.007593 0.019375 0.042087 0.032489 0.019736 0.037664 0.024042 0.031096 0.048784 0.043437 0.043773 0.048784 0.052414 0.078095 0.117740 0.116905 0.121062 0.128715 0.112426 0.191399 0.209317 0.096359 0.063092 0.082666 0.063092 0.046455 0.052743 0.038348 0.059567 0.067215 0.026882 0.019736 0.030047 0.043773 0.059245 0.077175 0.086284 0.076867 0.068160 0.077175 0.069102 0.057630 0.057630 0.076867 0.103034 0.148841 0.216358 0.236717 0.138626 0.096359 0.056333 0.107330 0.128444 0.127358 0.088976 0.096944 0.128715 0.098111 0.063092 0.042087 0.062773 0.064365 0.043773 0.044781 0.077175 0.059245 0.009835 0.019375 0.056333 0.055358 0.026528 0.031096 0.035259 0.032837 0.026528 0.029346 0.048452 0.057630 0.036292 0.018651 0.036292 0.040732 0.036292 0.048452 0.055358 0.090166 0.143631 0.179896 0.159085 0.115231 0.127358 0.052743 0.001534 0.000384 0.000768 0.001916 0.003440 0.001534 0.000000 0.000000 0.000384 0.000768 0.000384 0.006466 0.003059 0.003820 0.013906 0.048784 0.048784 0.013538 0.001916 0.000384 0.003820 0.009835 0.009463 0.010951 0.012062 0.012801 0.010951 0.001916 0.000000 0.000000 0.000000 0.000384 0.000384 0.001534 0.000000 0.000384 0.000000 0.000384 0.000768 0.000768 0.040732 0.110169 0.095773 0.082059 0.069102 0.071604 0.091649 0.087482 0.038348 0.027235 0.026882 0.042087 0.056982 0.036292 0.048452 0.032837 0.040732 0.036292 0.022613 0.027235 0.036292 0.042087 0.046455 0.052743 0.035604 0.009463 0.006466 0.019736 0.019375 0.022613 0.038348 0.026528 0.019736 0.019375 0.042087 0.051099 0.052414 0.044781 0.059245
0.001534 0.001916 0.000768 0.001534 0.000384 0.000000 0.000768 0.001534 0.001916 0.003820 0.003440 0.000000 0.000384 0.001534 0.000384 0.000384 0.000000 0.000000 0.000384 0.003059 0.000768 0.000768 0.007593 0.016834 0.024042 0.038348 0.048452 0.048452 0.042087 0.057630 0.064365 0.064365 0.079319 0.087482 0.087482 0.070668 0.079014 0.059245 0.071604 0.101014 0.090166 0.069729 0.069729 0.064365 0.063092 0.075636 0.076867 0.079319 0.087482 0.079319 0.063092 0.064365 0.069729 0.045786 0.059567 0.055358 0.038348 0.046455 0.074709 0.097236 0.076867 0.051428 0.059245 0.052414 0.054052 0.039372 0.044781 0.048784 0.041749 0.044781 0.035259 0.032489 0.029346 0.009835 0.069102 0.076867 0.059245 0.019375 0.012062 0.009463 0.021537 0.075636 0.010951 0.035259 0.057630 0.038348 0.104184 0.075636 0.024042 0.035604 0.069729 0.125724 0.104184 0.031096 0.032837 0.044781 0.042087 0.039372 0.006466 0.024042 0.035259 0.032837 0.036635 0.056982 0.024042 0.024042 0.015007 0.022613 0.096944 0.074709 0.015373 0.016834 0.044781 0.051099 0.051428 0.068160 0.098693 0.106474 0.091649 0.104184 0.130067 0.159085 0.177709 0.141268 0.076867 0.075636 0.071604 0.059567 0.039372 0.036635 0.054052 0.060532 0.051428 0.031096 0.023685 0.036635 0.060532 0.079625 0.078095 0.077175 0.068160 0.078095 0.151165 0.139420 0.103034 0.118850 0.136236 0.130067 0.079014 0.026528 0.130067 0.197052 0.215455 0.175023 0.142582 0.084479 0.059245 0.046455 0.062773 0.067215 0.054052 0.051099 0.052414 0.051428 0.043437 0.039372 0.070668 0.059245 0.022613 0.035259 0.036292 0.019375 0.027235 0.046455 0.051428 0.046455 0.046455 0.039372 0.042087 0.057630 0.052743 0.046455 0.045786 0.052743 0.057630 0.046455 0.027235 0.062134 0.110734 0.149100 0.184722 0.151938 0.121062 0.151938 0.082666 0.007593 0.001534 0.001534 0.000768 0.001916 0.000768 0.000384 0.000384 0.001916 0.000768 0.006466 0.000384 0.009835 0.035259 0.055358 0.026882 0.003440 0.001916 0.006466 0.016834 0.015007 0.009835 0.006842 0.010951 0.013906 0.013906 0.003820 0.000000 0.000000 0.000000 0.000384 0.000384 0.000384 0.001534 0.000000 0.000000 0.000000 0.000384 0.000384 0.000768 0.045786 0.110734 0.090166 0.071604 0.070668 0.079014 0.070668 0.052743 0.032837 0.031096 0.029346 0.038348 0.048452 0.062773 0.032489 0.018651 0.056982 0.045786 0.026528 0.031096 0.040732 0.046455 0.044781 0.042087 0.032837 0.012801 0.001916 0.009463 0.021537 0.031096 0.029346 0.029346 0.018651 0.056333 0.069102 0.041749 0.041749 0.032489
0.001534 0.001534 0.000768 0.000768 0.000768 0.000768 0.000384 0.001534 0.003440 0.003820 0.001916 0.001916 0.001534 0.000384 0.000384 0.000000 0.000000 0.000000 0.000000 0.000768 0.001916 0.001916 0.003059 0.009463 0.019375 0.032489 0.052743 0.051428 0.051428 0.051428 0.069729 0.076867 0.071604 0.079319 0.101014 0.101014 0.090166 0.088976 0.062773 0.096359 0.090166 0.090166 0.076867 0.063092 0.051428 0.059567 0.062773 0.074709 0.084479 0.075636 0.076867 0.069102 0.064365 0.069102 0.071604 0.071604 0.064365 0.059567 0.096944 0.131685 0.075636 0.039372 0.064365 0.072849 0.046455 0.037664 0.037664 0.039372 0.041749 0.041749 0.035259 0.029346 0.029346 0.006466 0.009463 0.075636 0.070668 0.027235 0.018651 0.015373 0.006842 0.051428 0.051428 0.009835 0.024042 0.004956 0.046455 0.093716 0.035604 0.022613 0.036292 0.082666 0.171088 0.098111 0.044781 0.046455 0.041749 0.022613 0.015373 0.016834 0.031096 0.043437 0.001916 0.015007 0.185442 0.060532 0.038348 0.063092 0.046455 0.013906 0.021537 0.036292 0.036292 0.039372 0.043773 0.044781 0.067845 0.078095 0.075636 0.079014 0.087781 0.126542 0.133832 0.117740 0.095773 0.082968 0.072849 0.069102 0.088976 0.084479 0.075636 0.046455 0.024042 0.013538 0.024042 0.067215 0.091649 0.096066 0.087482 0.082968 0.087781 0.155014 0.181107 0.077175 0.044781 0.056333 0.076867 0.084479 0.151938 0.173797 0.138626 0.055358 0.106474 0.098693 0.100725 0.084479 0.069729 0.071604 0.064365 0.064365 0.078095 0.067845 0.043773 0.043773 0.032837 0.032489 0.067215 0.064365 0.031096 0.059567 0.071604 0.031096 0.016834 0.035259 0.052743 0.062773 0.044781 0.031096 0.031096 0.046455 0.046455 0.046455 0.046455 0.055358 0.056982 0.069729 0.059245 0.086284 0.081756 0.092536 0.127358 0.158831 0.136236 0.121062 0.141268 0.110734 0.016834 0.001916 0.001534 0.000000 0.000768 0.001534 0.000384 0.000768 0.000000 0.004956 0.001534 0.021537 0.048784 0.041749 0.009463 0.001916 0.004956 0.019375 0.016834 0.006089 0.004956 0.009463 0.013538 0.013538 0.009463 0.003820 0.000384 0.000000 0.000384 0.000384 0.000384 0.000768 0.000000 0.000384 0.000384 0.000768 0.000768 0.000000 0.000000 0.003059 0.063092 0.112426 0.092536 0.082968 0.087781 0.048452 0.042087 0.026882 0.025110 0.029346 0.024042 0.024042 0.059567 0.063092 0.012062 0.027235 0.063092 0.056982 0.031096 0.040732 0.055358 0.048784 0.035259 0.019375 0.027235 0.024042 0.012801 0.009463 0.019375 0.029346 0.018651 0.040732 0.054052 0.066899 0.048452 0.052743 0.048452
0.001534 0.001534 0.001534 0.000384 0.000384 0.000768 0.001534 0.001534 0.003440 0.006089 0.003820 0.000768 0.000384 0.000384 0.000000 0.000000 0.000000 0.000000 0.000000 0.000384 0.000384 0.001534 0.003059 0.007593 0.015373 0.026528 0.040732 0.051428 0.056982 0.063092 0.063092 0.076867 0.087482 0.079319 0.084479 0.088976 0.082059 0.121062 0.084479 0.069729 0.092536 0.076867 0.076867 0.076867 0.059567 0.062773 0.062773 0.052743 0.069729 0.096359 0.082666 0.084479 0.069729 0.059567 0.067215 0.055358 0.044781 0.070668 0.088976 0.116348 0.096944 0.070668 0.048784 0.070668 0.079014 0.044781 0.037664 0.031096 0.032837 0.041749 0.042087 0.026882 0.029346 0.012062 0.006466 0.023685 0.071604 0.024042 0.015373 0.018651 0.015373 0.019375 0.069729 0.026882 0.015007 0.015007 0.030047 0.057630 0.031096 0.036292 0.018651 0.018651 0.069729 0.148841 0.082666 0.040732 0.075636 0.057630 0.042087 0.038348 0.051099 0.051428 0.023685 0.072849 0.054052 0.172813 0.031096 0.018651 0.025110 0.029697 0.030047 0.035259 0.029346 0.021537 0.046455 0.062134 0.059567 0.052414 0.043437 0.059245 0.097236 0.091057 0.076867 0.117740 0.100725 0.107330 0.140741 0.119957 0.064365 0.051428 0.036292 0.031096 0.030047 0.030047 0.074709 0.121062 0.134100 0.121062 0.092536 0.084479 0.101014 0.113270 0.082968 0.100725 0.114392 0.124085 0.155014 0.153735 0.140741 0.100725 0.055358 0.044781 0.062134 0.048784 0.057630 0.069102 0.063092 0.092536 0.093716 0.079625 0.088976 0.081756 0.048784 0.032489 0.035604 0.036292 0.055358 0.069102 0.040732 0.045786 0.082666 0.087482 0.051757 0.027235 0.026528 0.040732 0.036292 0.026528 0.019375 0.031096 0.040732 0.035604 0.031096 0.035604 0.044781 0.048452 0.086284 0.086284 0.070668 0.090166 0.096359 0.110734 0.134100 0.149875 0.118850 0.127358 0.096359 0.019375 0.001534 0.000000 0.000384 0.001534 0.001916 0.001534 0.001916 0.007593 0.009463 0.027235 0.044781 0.019736 0.003059 0.003440 0.009463 0.015373 0.003820 0.001534 0.009835 0.010951 0.010951 0.013906 0.009835 0.003440 0.000768 0.000384 0.000768 0.000768 0.000384 0.000384 0.001916 0.000768 0.000768 0.000384 0.000000 0.000384 0.000768 0.000768 0.012801 0.090166 0.115231 0.109886 0.087781 0.052743 0.044781 0.039372 0.012801 0.031096 0.042087 0.021537 0.024042 0.064365 0.027235 0.009463 0.031096 0.052743 0.035259 0.032489 0.059245 0.059245 0.042087 0.026528 0.018651 0.022613 0.029346 0.024042 0.016834 0.032489 0.022613 0.035604 0.062773 0.069729 0.069102 0.063092 0.063092
0.001534 0.001534 0.001534 0.000384 0.000768 0.001916 0.001916 0.001916 0.003820 0.006466 0.003820 0.000768 0.001916 0.000384 0.000000 0.001534 0.000384 0.000384 0.000384 0.000384 0.000384 0.000384 0.001534 0.003059 0.007593 0.024042 0.035604 0.045786 0.045786 0.056982 0.069729 0.079319 0.084479 0.082666 0.082666 0.096359 0.084479 0.079319 0.104184 0.070668 0.090166 0.084479 0.071604 0.071604 0.066899 0.062773 0.069729 0.057630 0.056982 0.064365 0.106474 0.090166 0.092536 0.079014 0.070668 0.062773 0.048784 0.067215 0.088976 0.110169 0.082968 0.062773 0.067215 0.056333 0.096066 0.069102 0.039372 0.031096 0.025110 0.019736 0.039372 0.039372 0.021537 0.021537 0.006089 0.001916 0.038348 0.048452 0.012062 0.012062 0.015373 0.012801 0.048452 0.076867 0.032489 0.015373 0.010951 0.040732 0.035604 0.035604 0.040732 0.012062 0.009463 0.051428 0.090166 0.055358 0.042087 0.052743 0.036292 0.079625 0.081756 0.051757 0.044781 0.006842 0.071604 0.107330 0.036292 0.013906 0.024042 0.030047 0.044781 0.043773 0.018651 0.031096 0.051757 0.032837 0.059567 0.067845 0.052414 0.054052 0.043437 0.056333 0.035259 0.081756 0.162114 0.175023 0.167369 0.077175 0.036292 0.043437 0.043437 0.051099 0.030047 0.051428 0.144417 0.130067 0.079625 0.043437 0.051428 0.068160 0.046455 0.044781 0.139420 0.144939 0.138626 0.124085 0.105044 0.109886 0.069729 0.071604 0.059245 0.072849 0.067215 0.042087 0.040732 0.044781 0.039372 0.087482 0.121062 0.079625 0.070668 0.067215 0.057630 0.051428 0.045786 0.038348 0.038348 0.051428 0.045786 0.035604 0.031096 0.046455 0.075636 0.046455 0.026528 0.031096 0.035604 0.026528 0.022613 0.027235 0.031096 0.032489 0.035604 0.032489 0.031096 0.059245 0.077175 0.054052 0.040732 0.056982 0.082059 0.082059 0.084479 0.155014 0.175268 0.141268 0.151938 0.109886 0.048784 0.007593 0.000384 0.001534 0.003059 0.006466 0.006089 0.003820 0.018651 0.031096 0.026882 0.003820 0.003440 0.003820 0.012062 0.004956 0.001916 0.006466 0.009835 0.015007 0.012801 0.012801 0.006466 0.000768 0.000768 0.001534 0.000384 0.000000 0.000384 0.000000 0.000384 0.000384 0.000000 0.000000 0.000768 0.000768 0.000384 0.000000 0.000384 0.032489 0.112426 0.133832 0.119127 0.064365 0.041749 0.044781 0.015373 0.018651 0.051757 0.042087 0.019375 0.042087 0.057630 0.026882 0.031096 0.062773 0.042087 0.027235 0.051757 0.052743 0.045786 0.040732 0.027235 0.029346 0.024042 0.027235 0.021537 0.024042 0.048452 0.040732 0.069102 0.064365 0.082666 0.088976 0.075636
0.001534 0.001534 0.000768 0.000768 0.000384 0.000768 0.003059 0.003059 0.004956 0.007593 0.006842 0.001534 0.001534 0.000768 0.001916 0.000768 0.000768 0.001916 0.000768 0.000384 0.000384 0.000384 0.000768 0.001534 0.003440 0.009463 0.026528 0.040732 0.045786 0.051428 0.059567 0.076867 0.082666 0.088976 0.082666 0.090166 0.098111 0.092536 0.101014 0.071604 0.055358 0.087482 0.074709 0.074709 0.070668 0.052743 0.052743 0.052743 0.045786 0.046455 0.064365 0.091649 0.096066 0.098111 0.090166 0.084479 0.069729 0.082968 0.082968 0.098111 0.119127 0.087781 0.067215 0.044781 0.096944 0.096944 0.037664 0.037664 0.030047 0.030047 0.023685 0.026882 0.025110 0.021537 0.010951 0.003820 0.009463 0.036292 0.079014 0.009463 0.012801 0.010951 0.012801 0.051428 0.082059 0.069729 0.048452 0.015373 0.026528 0.018651 0.045786 0.046455 0.015373 0.015007 0.062773 0.088976 0.059567 0.057630 0.060532 0.046455 0.057630 0.079014 0.091057 0.036635 0.059567 0.051099 0.013906 0.013906 0.024042 0.051099 0.043437 0.015007 0.029697 0.062134 0.052414 0.035259 0.044781 0.059567 0.068160 0.043773 0.036292 0.051428 0.051428 0.093716 0.162114 0.190688 0.117740 0.059245 0.051099 0.059245 0.036635 0.024042 0.039372 0.128715 0.116627 0.075636 0.109886 0.118850 0.096359 0.082059 0.079014 0.106188 0.119127 0.092536 0.104184 0.075636 0.063092 0.069729 0.066899 0.087781 0.072849 0.064365 0.051428 0.044781 0.052414 0.067845 0.060532 0.062134 0.078095 0.086584 0.067845 0.039372 0.035604 0.045786 0.048784 0.046455 0.032489 0.040732 0.051428 0.056982 0.045786 0.019375 0.040732 0.063092 0.042087 0.036292 0.051428 0.035604 0.032837 0.042087 0.042087 0.026528 0.031096 0.035604 0.044781 0.069102 0.077175 0.066899 0.051428 0.046455 0.069729 0.090166 0.067215 0.105044 0.184722 0.161359 0.179896 0.201715 0.175023 0.088976 0.012801 0.003059 0.003440 0.006466 0.013906 0.010951 0.009463 0.009463 0.003440 0.003820 0.003440 0.006466 0.004956 0.000384 0.001916 0.006089 0.013538 0.018651 0.015007 0.007593 0.000768 0.001916 0.001534 0.001534 0.000384 0.000000 0.000000 0.000000 0.000000 0.000000 0.000000 0.000384 0.000384 0.000384 0.000000 0.000000 0.000384 0.001916 0.064365 0.145461 0.136236 0.101014 0.070668 0.046455 0.027235 0.016834 0.032489 0.040732 0.031096 0.027235 0.051757 0.042087 0.040732 0.059567 0.063092 0.046455 0.057630 0.056982 0.045786 0.040732 0.032489 0.027235 0.022613 0.019375 0.021537 0.019736 0.051757 0.052743 0.071604 0.076867 0.076867 0.096359 0.103034
0.001534 0.001916 0.000768 0.001534 0.001916 0.000768 0.000768 0.003059 0.004956 0.004956 0.006842 0.004956 0.000384 0.001534 0.001534 0.000384 0.003440 0.000384 0.000384 0.000768 0.000384 0.000384 0.001534 0.001534 0.001534 0.001916 0.012801 0.036292 0.051428 0.057630 0.052743 0.063092 0.075636 0.088976 0.110169 0.103034 0.104184 0.092536 0.101014 0.105044 0.067215 0.071604 0.074709 0.070668 0.062773 0.051757 0.046455 0.046455 0.031096 0.040732 0.056333 0.064365 0.059567 0.082666 0.104184 0.103034 0.103034 0.106474 0.096359 0.096066 0.124085 0.100725 0.079014 0.055358 0.072849 0.133832 0.072849 0.039372 0.030047 0.025110 0.025110 0.025110 0.021537 0.021537 0.016834 0.007593 0.006466 0.009463 0.035604 0.081756 0.010951 0.010951 0.007593 0.009463 0.022613 0.042087 0.088976 0.082666 0.031096 0.022613 0.015373 0.040732 0.052743 0.031096 0.009463 0.048452 0.062773 0.088976 0.070668 0.046455 0.062773 0.081756 0.091057 0.070668 0.030047 0.039372 0.032837 0.029346 0.031096 0.025110 0.060532 0.051757 0.029346 0.043773 0.052414 0.054052 0.044781 0.048452 0.054052 0.043437 0.043773 0.062134 0.059245 0.091057 0.161106 0.181591 0.107330 0.060532 0.078095 0.059245 0.019736 0.068160 0.098693 0.030047 0.043773 0.070668 0.106474 0.148841 0.141268 0.082059 0.081756 0.096066 0.079014 0.069102 0.079319 0.084479 0.074709 0.079014 0.084479 0.062773 0.052743 0.038348 0.059567 0.059245 0.060532 0.069102 0.059567 0.051428 0.079625 0.098693 0.051428 0.022613 0.032489 0.051757 0.060532 0.029346 0.035259 0.051757 0.066899 0.079319 0.084479 0.066899 0.046455 0.057630 0.059567 0.052743 0.064365 0.059245 0.039372 0.045786 0.063092 0.046455 0.036292 0.041749 0.059567 0.081756 0.077175 0.098111 0.090166 0.070668 0.074709 0.109886 0.106474 0.084479 0.164874 0.196115 0.199855 0.208173 0.211599 0.207943 0.117740 0.016834 0.009835 0.015007 0.012801 0.006466 0.003440 0.003440 0.000768 0.001534 0.003820 0.003820 0.000000 0.001916 0.004956 0.006842 0.019375 0.026882 0.015007 0.001916 0.000384 0.001916 0.003820 0.001916 0.000384 0.000000 0.000384 0.000384 0.000384 0.000000 0.000000 0.000000 0.000384 0.000384 0.000384 0.000384 0.000000 0.000384 0.007593 0.098111 0.159085 0.114392 0.076867 0.069729 0.057630 0.040732 0.040732 0.051428 0.048452 0.029346 0.036292 0.035604 0.032489 0.048452 0.046455 0.040732 0.051428 0.063092 0.056982 0.046455 0.036292 0.031096 0.027235 0.024042 0.025110 0.013538 0.039372 0.059567 0.064365 0.087482 0.084479 0.075636 0.075636
0.001534 0.000768 0.001916 0.001534 0.000768 0.003059 0.000768 0.000768 0.004956 0.006842 0.004956 0.007593 0.003820 0.003440 0.001916 0.006089 0.003820 0.001916 0.000768 0.001534 0.001534 0.000384 0.000384 0.000384 0.000384 0.000384 0.001534 0.004956 0.032489 0.059567 0.063092 0.046455 0.069102 0.063092 0.088976 0.118850 0.130067 0.109886 0.105044 0.105044 0.069729 0.059245 0.091649 0.079014 0.075636 0.062134 0.032489 0.031096 0.036292 0.035259 0.070668 0.056333 0.035259 0.044781 0.075636 0.071604 0.084479 0.101014 0.121062 0.119127 0.133832 0.103322 0.079014 0.059245 0.056333 0.105044 0.114392 0.067215 0.044781 0.025110 0.025110 0.021537 0.021537 0.021537 0.016834 0.012801 0.009463 0.037664 0.018651 0.084479 0.021537 0.012801 0.009463 0.010951 0.009835 0.007593 0.010951 0.051428 0.052743 0.036292 0.024042 0.019375 0.026528 0.063092 0.045786 0.031096 0.070668 0.048452 0.046455 0.064365 0.064365 0.096944 0.098693 0.081756 0.046455 0.024042 0.015373 0.024042 0.075636 0.054052 0.072849 0.052414 0.015373 0.046455 0.069102 0.051428 0.064365 0.044781 0.026882 0.029697 0.062134 0.048784 0.059567 0.086584 0.193291 0.212736 0.077175 0.059245 0.077175 0.056333 0.015007 0.031096 0.057630 0.081756 0.055358 0.040732 0.040732 0.079319 0.119127 0.063092 0.086284 0.059567 0.057630 0.101014 0.071604 0.087781 0.103322 0.100725 0.084479 0.059567 0.048784 0.059245 0.059567 0.059245 0.067845 0.059567 0.051099 0.078095 0.100725 0.051428 0.036292 0.032837 0.035604 0.079014 0.066899 0.035259 0.043773 0.041749 0.062773 0.079319 0.084479 0.079319 0.076867 0.057630 0.048452 0.042087 0.059567 0.071604 0.052743 0.035604 0.064365 0.052743 0.051757 0.069102 0.070668 0.081756 0.060532 0.084479 0.115231 0.091649 0.079014 0.096944 0.116348 0.113270 0.110169 0.155014 0.170099 0.197755 0.190688 0.216358 0.216358 0.165124 0.042087 0.001534 0.003820 0.001916 0.001534 0.001916 0.001916 0.001916 0.000768 0.001534 0.004956 0.007593 0.016834 0.027235 0.036292 0.018651 0.001916 0.000768 0.000384 0.000384 0.003059 0.004956 0.001534 0.000384 0.000768 0.000384 0.000768 0.000768 0.000000 0.000000 0.000384 0.000768 0.000000 0.000000 0.000384 0.000000 0.000384 0.035259 0.149100 0.124358 0.075636 0.071604 0.071604 0.071604 0.059567 0.062773 0.071604 0.059567 0.026528 0.046455 0.038348 0.038348 0.042087 0.036292 0.040732 0.051428 0.057630 0.057630 0.046455 0.042087 0.027235 0.026882 0.041749 0.043437 0.043437 0.062773 0.059245 0.074709 0.103034 0.090166 0.076867
0.003059 0.000768 0.001534 0.000768 0.000768 0.000768 0.003059 0.000768 0.001916 0.004956 0.004956 0.004956 0.006466 0.006466 0.003820 0.001916 0.007593 0.004956 0.003820 0.001534 0.001916 0.000768 0.000384 0.000000 0.000384 0.000384 0.003059 0.004956 0.003440 0.019375 0.052743 0.046455 0.040732 0.052743 0.051757 0.075636 0.106474 0.110169 0.096944 0.091649 0.100725 0.069102 0.059245 0.084479 0.081756 0.055358 0.040732 0.029346 0.038348 0.043773 0.052414 0.062773 0.039372 0.016834 0.055358 0.075636 0.054052 0.070668 0.084479 0.121062 0.174778 0.137034 0.079014 0.064365 0.048784 0.075636 0.119127 0.070668 0.071604 0.051757 0.027235 0.024042 0.021537 0.021537 0.016834 0.009463 0.009463 0.009463 0.009463 0.046455 0.079625 0.012801 0.012801 0.016834 0.012801 0.010951 0.013906 0.018289 0.026882 0.029346 0.031096 0.026528 0.015373 0.015373 0.069729 0.096359 0.025110 0.022613 0.051757 0.059245 0.070668 0.088976 0.110734 0.072849 0.056333 0.031096 0.015007 0.019736 0.087482 0.096066 0.056333 0.044781 0.035259 0.038348 0.036292 0.067845 0.043773 0.029697 0.037664 0.043773 0.091649 0.048784 0.069102 0.151165 0.215455 0.117740 0.070668 0.048784 0.059567 0.051757 0.038348 0.036292 0.056333 0.051428 0.026882 0.035604 0.052743 0.075636 0.087781 0.081756 0.076867 0.045786 0.041749 0.069102 0.091649 0.100725 0.070668 0.069102 0.075636 0.081756 0.068160 0.068160 0.059567 0.051428 0.070668 0.068160 0.067845 0.087482 0.056333 0.044781 0.064365 0.052743 0.036292 0.064365 0.075636 0.048784 0.046455 0.048784 0.048784 0.059567 0.069729 0.064365 0.069102 0.069102 0.051428 0.042087 0.044781 0.048452 0.057630 0.052743 0.052743 0.052743 0.060532 0.096359 0.087482 0.070668 0.054052 0.066899 0.096066 0.087482 0.079014 0.084479 0.081756 0.106474 0.092536 0.082968 0.074709 0.125724 0.181832 0.181832 0.181832 0.207485 0.165124 0.069729 0.015007 0.000768 0.000768 0.000384 0.000384 0.000384 0.001916 0.003059 0.006466 0.010951 0.012801 0.015373 0.012062 0.000768 0.000384 0.000768 0.001916 0.001534 0.003820 0.007593 0.003820 0.000768 0.000384 0.000000 0.000000 0.000768 0.000768 0.000384 0.000768 0.000768 0.000384 0.000384 0.000384 0.000000 0.000000 0.003820 0.092536 0.149875 0.082666 0.071604 0.064365 0.057630 0.066899 0.066899 0.031096 0.052743 0.048452 0.032489 0.048452 0.038348 0.036292 0.035604 0.042087 0.052743 0.057630 0.057630 0.052743 0.051428 0.042087 0.030047 0.051428 0.068160 0.037664 0.062773 0.046455 0.052743 0.088976 0.104184 0.088976
0.003059 0.001916 0.001916 0.000768 0.001916 0.000768 0.001916 0.001916 0.000768 0.003059 0.003059 0.003820 0.003440 0.003820 0.003820 0.000768 0.003440 0.007593 0.007593 0.003820 0.001916 0.001916 0.000768 0.001916 0.001916 0.006466 0.003820 0.000768 0.001916 0.006089 0.018651 0.035259 0.039372 0.044781 0.059567 0.068160 0.077175 0.087482 0.087482 0.079625 0.088976 0.072849 0.056333 0.079625 0.067215 0.048452 0.041749 0.032837 0.046455 0.052414 0.032837 0.051757 0.059245 0.021537 0.031096 0.087781 0.054052 0.035259 0.055358 0.096944 0.173305 0.151165 0.091057 0.068160 0.046455 0.048784 0.105044 0.098111 0.055358 0.059567 0.035259 0.032837 0.029346 0.021537 0.019375 0.009463 0.009463 0.004956 0.009835 0.038348 0.060532 0.010951 0.007593 0.012801 0.015007 0.013906 0.018651 0.018651 0.015007 0.012801 0.018651 0.029346 0.026882 0.010951 0.060532 0.086584 0.029346 0.018289 0.035259 0.059567 0.077175 0.077175 0.091057 0.079625 0.060532 0.036635 0.032837 0.046455 0.059245 0.068160 0.052414 0.051099 0.054052 0.019736 0.030047 0.043773 0.062134 0.067845 0.030047 0.082968 0.100725 0.070668 0.093716 0.101014 0.087482 0.078095 0.060532 0.032837 0.068160 0.082968 0.026882 0.044781 0.035604 0.079319 0.036292 0.012801 0.063092 0.087482 0.082968 0.127630 0.066899 0.076867 0.051428 0.041749 0.075636 0.064365 0.059245 0.076867 0.076867 0.077175 0.068160 0.059245 0.060532 0.046455 0.069102 0.087482 0.078095 0.055358 0.051757 0.062134 0.055358 0.063092 0.038348 0.046455 0.069729 0.064365 0.059567 0.056333 0.055358 0.064365 0.069729 0.069729 0.069102 0.076867 0.074709 0.075636 0.062773 0.064365 0.052743 0.074709 0.051428 0.041749 0.060532 0.059567 0.076867 0.059245 0.056333 0.070668 0.079319 0.079319 0.075636 0.051757 0.056333 0.055358 0.098111 0.069729 0.051428 0.048452 0.101014 0.139420 0.133832 0.134100 0.143631 0.100725 0.051757 0.009835 0.000768 0.000000 0.001916 0.004956 0.001916 0.001916 0.003820 0.006089 0.010951 0.013538 0.003820 0.000384 0.000384 0.000384 0.003440 0.003440 0.004956 0.010951 0.010951 0.001534 0.000000 0.000000 0.000000 0.000384 0.000384 0.000384 0.000384 0.000768 0.000384 0.000384 0.000768 0.000768 0.000000 0.000384 0.019375 0.117740 0.103034 0.069729 0.069102 0.052743 0.067215 0.082666 0.059567 0.018651 0.029346 0.038348 0.042087 0.046455 0.035604 0.027235 0.032489 0.046455 0.051428 0.051428 0.051428 0.040732 0.051757 0.043437 0.059567 0.052414 0.037664 0.046455 0.059567 0.038348 0.069729 0.103034 0.095773
9999 0.001916 0.000768 0.001916 0.000768 0.001916 0.000768 0.003059 0.000768 0.001916 0.001916 0.003820 0.001916 0.001916 0.006466 0.001916 0.000768 0.001916 0.007593 0.001916 0.001916 0.001916 0.003440 0.004956 0.004956 0.003820 0.003820 0.001916 0.007593 0.012062 0.016834 0.018651 0.036635 0.051428 0.051099 0.067845 0.086584 0.086284 0.077175 0.069102 0.078095 0.064365 0.062134 0.069102 0.059245 0.056333 0.046455 0.031096 0.037664 0.048784 0.035259 0.037664 0.059245 0.038348 0.026882 0.067215 0.082968 0.041749 0.044781 0.078095 0.140741 0.173305 0.137034 0.075636 0.026882 0.035259 0.048784 0.096066 0.087781 0.070668 0.044781 0.019736 0.021537 0.024042 0.019375 0.012801 0.003059 0.004956 0.018651 0.044781 0.025110 0.022613 0.007593 0.015007 0.018651 0.013538 0.013538 0.015007 0.013906 0.010951 0.013906 0.024042 0.019736 0.013906 0.069102 0.077175 0.021537 0.015007 0.037664 0.077175 0.067845 0.059245 0.086584 0.088976 0.068160 0.067845 0.041749 0.030047 0.072849 0.070668 0.044781 0.054052 0.043773 0.018289 0.019736 0.036292 0.051099 0.060532 0.097236 0.103322 0.044781 0.030047 0.093716 0.107330 0.076867 0.079625 0.060532 0.051428 0.019736 0.081756 0.051757 0.035604 0.024042 0.042087 0.088976 0.035259 0.059567 0.092536 0.098693 0.079014 0.075636 0.088976 0.092536 0.067215 0.036292 0.062134 0.096359 0.077175 0.059245 0.067845 0.078095 0.059245 0.036635 0.052414 0.077175 0.072849 0.057630 0.066899 0.051757 0.044781 0.045786 0.084479 0.075636 0.044781 0.056333 0.060532 0.048784 0.048452 0.051757 0.052743 0.069729 0.076867 0.084479 0.082968 0.087781 0.082968 0.079319 0.079319 0.079014 0.071604 0.075636 0.088976 0.086584 0.059567 0.069102 0.051099 0.054052 0.055358 0.051428 0.066899 0.071604 0.046455 0.035259 0.035259 0.063092 0.071604 0.059245 0.059567 0.060532 0.096066 0.127358 0.116905 0.106474 0.087482 0.051428 0.018651 0.003059 0.001916 0.003820 0.003820 0.003440 0.006466 0.015007 0.003059 0.010951 0.013538 0.003820 0.000768 0.000384 0.000384 0.000768 0.000384 0.001916 0.009835 0.009835 0.003440 0.000384 0.000000 0.000384 0.000384 0.000768 0.000384 0.000384 0.000000 0.000000 0.000000 0.000000 0.000768 0.001534 0.000768 0.001916 0.040732 0.118850 0.088976 0.076867 0.067215 0.066899 0.126542 0.116348 0.021537 0.007593 0.022613 0.040732 0.045786 0.040732 0.026528 0.019375 0.036292 0.045786 0.045786 0.045786 0.036292 0.032837 0.051428 0.052414 0.060532 0.051757 0.032489 0.066899 0.046455 0.063092 0.082059 0.088976
9999 9999 9999 0.001916 0.000768 0.000768 0.000768 0.000768 0.001916 0.000768 0.001916 0.000768 0.001916 0.001916 0.001916 0.003059 0.000000 0.000768 0.004956 0.012062 0.000384 0.003059 0.006466 0.006466 0.003059 0.004956 0.003440 0.001916 0.024042 0.021537 0.015373 0.012801 0.024042 0.052414 0.068160 0.077175 0.076867 0.068160 0.069102 0.069102 0.069102 0.064365 0.068160 0.064365 0.046455 0.054052 0.054052 0.039372 0.031096 0.037664 0.046455 0.037664 0.032837 0.035259 0.035259 0.051757 0.070668 0.075636 0.059567 0.078095 0.107330 0.116348 0.119957 0.124358 0.059245 0.041749 0.056333 0.054052 0.067215 0.084479 0.064365 0.026882 0.016834 0.016834 0.021537 0.016834 0.007593 0.006466 0.018651 0.023685 0.001916 0.018651 0.024042 0.015007 0.040732 0.018651 0.009835 0.013906 0.013906 0.009835 0.013538 0.018651 0.024042 0.030047 0.059567 0.048784 0.018651 0.024042 0.051428 0.077175 0.068160 0.068160 0.059245 0.077175 0.086284 0.078095 0.036635 0.043773 0.072849 0.056333 0.054052 0.032837 0.030047 0.036635 0.035259 0.030047 0.043773 0.086584 0.086284 0.067845 0.051428 0.019736 0.064365 0.129797 0.087781 0.060532 0.079625 0.069729 0.051099 0.027235 0.051757 0.032837 0.032489 0.015373 0.032489 0.048784 0.051757 0.096066 0.066899 0.051428 0.063092 0.071604 0.059567 0.075636 0.078095 0.096066 0.086584 0.069102 0.068160 0.059567 0.067845 0.069102 0.044781 0.060532 0.056333 0.035604 0.052743 0.064365 0.052743 0.031096 0.035604 0.046455 0.096066 0.096066 0.087781 0.051757 0.035259 0.048784 0.055358 0.064365 0.066899 0.074709 0.087482 0.082968 0.074709 0.082968 0.091649 0.082968 0.079319 0.063092 0.048784 0.096359 0.106474 0.096359 0.059567 0.044781 0.051757 0.063092 0.059567 0.051757 0.057630 0.064365 0.024042 0.022613 0.043437 0.067845 0.097236 0.100725 0.082968 0.100725 0.123537 0.110734 0.088976 0.087482 0.052414 0.006466 0.001916 0.003820 0.009835 0.006089 0.003059 0.012062 0.006466 0.006089 0.009463 0.003820 0.001916 0.000384 0.000768 0.000000 0.000768 0.000384 0.001916 0.009835 0.013906 0.003820 0.000384 0.000000 0.000384 0.000768 0.000384 0.000384 0.000768 0.000768 0.000384 0.000000 0.000384 0.000768 0.001916 0.000384 0.000000 0.001534 0.046455 0.095773 0.092536 0.074709 0.062773 0.113270 0.121062 0.075636 0.031096 0.024042 0.036292 0.046455 0.042087 0.031096 0.021537 0.022613 0.036292 0.040732 0.051428 0.048452 0.036635 0.046455 0.044781 0.039372 0.046455 0.031096 0.032489 0.040732 0.035604 0.095773 0.095773
9999 9999 9999 9999 0.003059 0.000768 0.000768 0.000768 0.000768 0.000768 0.000768 0.000768 0.000384 0.000768 0.000768 0.000384 0.001916 0.001916 0.022613 0.015373 0.018289 0.021537 0.013538 0.009463 0.019736 0.015007 0.021537 0.038348 0.036292 0.015007 0.015007 0.012801 0.012801 0.036292 0.064365 0.096066 0.100725 0.079014 0.072849 0.070668 0.062134 0.070668 0.059245 0.056333 0.060532 0.052414 0.046455 0.039372 0.043773 0.036635 0.030047 0.037664 0.037664 0.025110 0.021537 0.051757 0.070668 0.079625 0.075636 0.070668 0.098693 0.110734 0.091057 0.093716 0.087482 0.048452 0.059245 0.070668 0.060532 0.070668 0.062134 0.026882 0.021537 0.019736 0.015007 0.016834 0.015007 0.010951 0.015007 0.071604 0.016834 0.009835 0.019736 0.000384 0.036292 0.051428 0.015007 0.013906 0.015007 0.013906 0.013906 0.018651 0.018651 0.013906 0.048784 0.081756 0.036635 0.013906 0.052414 0.097236 0.068160 0.051428 0.067845 0.088976 0.096359 0.059567 0.031096 0.068160 0.096359 0.067215 0.041749 0.041749 0.038348 0.039372 0.018651 0.009835 0.036635 0.068160 0.107330 0.106474 0.060532 0.059245 0.059567 0.026882 0.091057 0.128715 0.035259 0.046455 0.069729 0.046455 0.035259 0.024042 0.026528 0.031096 0.041749 0.043773 0.039372 0.064365 0.069729 0.051428 0.057630 0.057630 0.041749 0.068160 0.096359 0.086284 0.076867 0.059245 0.068160 0.078095 0.068160 0.048784 0.052743 0.052743 0.075636 0.057630 0.036292 0.040732 0.056982 0.057630 0.048452 0.051757 0.056333 0.067215 0.071604 0.071604 0.056333 0.056333 0.051757 0.062773 0.059567 0.066899 0.087482 0.071604 0.055358 0.075636 0.087482 0.075636 0.069729 0.063092 0.052414 0.064365 0.086584 0.081756 0.048784 0.037664 0.041749 0.055358 0.066899 0.051428 0.040732 0.048452 0.031096 0.046455 0.091649 0.082968 0.100725 0.113270 0.100725 0.091649 0.103322 0.100725 0.093716 0.081756 0.030047 0.003820 0.001534 0.003440 0.006089 0.007593 0.007593 0.003440 0.001534 0.003059 0.001916 0.000384 0.000768 0.000384 0.000768 0.000384 0.001534 0.001534 0.004956 0.010951 0.009463 0.006466 0.001534 0.000768 0.000384 0.000384 0.000384 0.000000 0.000384 0.000384 0.000768 0.000384 0.000768 0.001916 0.000768 0.000384 0.000000 0.000384 0.001534 0.031096 0.071604 0.070668 0.081756 0.082968 0.090166 0.082059 0.052743 0.032489 0.040732 0.048452 0.036292 0.027235 0.027235 0.027235 0.031096 0.032489 0.044781 0.059245 0.060532 0.044781 0.030047 0.035259 0.051428 0.046455 0.031096 0.040732 0.022613 0.055358 0.103034
9999 9999 9999 9999 9999 0.003059 0.000768 0.000768 0.000768 0.000768 0.000384 0.000768 0.000384 0.000384 0.001534 0.001916 0.001916 0.007593 0.031096 0.012801 0.026882 0.013906 0.023685 0.029697 0.027235 0.027235 0.026882 0.051428 0.013906 0.016834 0.012801 0.010951 0.009463 0.009835 0.022613 0.071604 0.142845 0.124358 0.110169 0.084479 0.072849 0.087482 0.060532 0.044781 0.060532 0.044781 0.046455 0.052414 0.044781 0.037664 0.036635 0.030047 0.030047 0.024042 0.013538 0.044781 0.084479 0.054052 0.067215 0.098693 0.096359 0.097236 0.098693 0.064365 0.069729 0.074709 0.091649 0.081756 0.062134 0.069102 0.064365 0.032489 0.024042 0.024042 0.019375 0.015007 0.010951 0.007593 0.006842 0.009463 0.084479 0.029697 0.016834 0.001916 0.024042 0.044781 0.010951 0.015007 0.015007 0.013906 0.015007 0.018651 0.024042 0.013906 0.036635 0.086584 0.036635 0.030047 0.087781 0.069102 0.059567 0.059567 0.079625 0.086584 0.068160 0.051428 0.036635 0.051428 0.107330 0.096066 0.043437 0.036635 0.025110 0.013538 0.018651 0.027235 0.032837 0.081756 0.108752 0.107330 0.087482 0.052414 0.051757 0.042087 0.016834 0.064365 0.096359 0.035259 0.026882 0.041749 0.048452 0.027235 0.059245 0.068160 0.068160 0.056333 0.038348 0.046455 0.063092 0.056982 0.052743 0.070668 0.086284 0.084479 0.067845 0.086284 0.086584 0.059245 0.051428 0.062134 0.071604 0.071604 0.079319 0.076867 0.069729 0.082666 0.069729 0.040732 0.032489 0.051757 0.070668 0.067215 0.062773 0.057630 0.052743 0.067215 0.072849 0.067215 0.070668 0.057630 0.046455 0.035259 0.071604 0.063092 0.038348 0.048784 0.075636 0.071604 0.057630 0.066899 0.076867 0.075636 0.068160 0.062773 0.055358 0.032837 0.029346 0.035604 0.035259 0.037664 0.043437 0.062134 0.062134 0.087482 0.096066 0.092536 0.101014 0.110169 0.096944 0.082968 0.093716 0.110734 0.093716 0.056333 0.018289 0.003820 0.001916 0.003820 0.004956 0.010951 0.029346 0.031096 0.012801 0.003820 0.001916 0.001916 0.001916 0.001534 0.000768 0.000768 0.000768 0.001916 0.003059 0.001916 0.000384 0.003820 0.003440 0.000768 0.000768 0.000384 0.000000 0.000384 0.000000 0.000384 0.000384 0.000384 0.000384 0.000768 0.000384 0.000000 0.000384 0.000000 0.000384 0.003440 0.044781 0.091649 0.064365 0.076867 0.082666 0.082059 0.063092 0.040732 0.036292 0.052743 0.045786 0.032489 0.027235 0.036292 0.038348 0.041749 0.048784 0.054052 0.060532 0.051428 0.043437 0.046455 0.056982 0.064365 0.066899 0.051428 0.029346 0.022613 0.051428
9999 9999 9999 9999 9999 9999 0.001916 0.000768 0.000768 0.001534 0.000768 0.000384 0.000384 0.000384 0.001534 0.001534 0.003440 0.009835 0.013538 0.009463 0.003440 0.003820 0.009463 0.012801 0.021537 0.009463 0.015373 0.012801 0.015007 0.013906 0.009835 0.007593 0.006466 0.000768 0.006466 0.019736 0.082968 0.148841 0.130067 0.106474 0.091057 0.088976 0.067215 0.054052 0.062134 0.044781 0.043773 0.043773 0.044781 0.044781 0.036635 0.036635 0.036635 0.029697 0.013906 0.013906 0.064365 0.078095 0.069102 0.107330 0.106188 0.086284 0.068160 0.044781 0.046455 0.052414 0.079625 0.110734 0.084479 0.064365 0.052743 0.040732 0.032489 0.031096 0.032489 0.036292 0.016834 0.007593 0.010951 0.036292 0.015007 0.021537 0.013906 0.007593 0.018289 0.042087 0.015007 0.015007 0.019736 0.013906 0.013906 0.025110 0.018651 0.013906 0.059567 0.078095 0.025110 0.060532 0.081756 0.051428 0.059567 0.067845 0.069102 0.068160 0.077175 0.059245 0.043773 0.043773 0.086584 0.078095 0.048784 0.054052 0.023685 0.021537 0.056333 0.038348 0.035259 0.075636 0.091057 0.067215 0.056982 0.063092 0.059567 0.066899 0.082059 0.064365 0.048784 0.048784 0.059567 0.026882 0.051428 0.059567 0.079625 0.081756 0.042087 0.031096 0.026528 0.027235 0.032837 0.044781 0.068160 0.096359 0.106474 0.068160 0.051428 0.076867 0.081756 0.074709 0.064365 0.057630 0.059245 0.096944 0.098111 0.118850 0.082666 0.064365 0.069102 0.069102 0.036292 0.032837 0.048784 0.062773 0.059567 0.052743 0.051757 0.064365 0.064365 0.075636 0.087482 0.082666 0.087482 0.048784 0.051428 0.069729 0.029346 0.021537 0.055358 0.079319 0.052743 0.062134 0.067845 0.062134 0.036635 0.040732 0.046455 0.032489 0.022613 0.037664 0.051099 0.051428 0.062134 0.064365 0.075636 0.096944 0.093716 0.091649 0.092536 0.096066 0.100725 0.082968 0.082968 0.103322 0.091057 0.041749 0.006089 0.001916 0.001916 0.003059 0.013538 0.052414 0.087482 0.106474 0.087781 0.044781 0.016834 0.003059 0.003820 0.003440 0.001534 0.000768 0.000384 0.000768 0.000768 0.001534 0.000384 0.003059 0.001916 0.000000 0.000384 0.000384 0.000000 0.000000 0.000384 0.000768 0.000384 0.000384 0.000384 0.000384 0.000000 0.000384 0.000000 0.000000 0.000384 0.000384 0.006466 0.069102 0.096359 0.088976 0.075636 0.082059 0.069102 0.056982 0.051428 0.045786 0.046455 0.036292 0.022613 0.038348 0.044781 0.046455 0.046455 0.054052 0.044781 0.051099 0.051099 0.036292 0.045786 0.048452 0.057630 0.069729 0.051428 0.018651 0.022613
9999 9999 9999 9999 9999 9999 9999 0.000768 0.001534 0.000384 0.000768 0.001534 0.000384 0.000768 0.001534 0.001534 0.003820 0.006089 0.009835 0.010951 0.007593 0.009835 0.006089 0.003820 0.006466 0.010951 0.009463 0.004956 0.004956 0.007593 0.009835 0.009835 0.013538 0.009463 0.012801 0.016834 0.037664 0.100725 0.134100 0.110734 0.100725 0.081756 0.067215 0.060532 0.070668 0.060532 0.051428 0.043437 0.037664 0.043773 0.043437 0.043437 0.036292 0.023685 0.018289 0.015007 0.052414 0.106474 0.096359 0.081756 0.079625 0.086584 0.052414 0.046455 0.068160 0.059245 0.059567 0.067215 0.090166 0.082666 0.063092 0.044781 0.032489 0.024042 0.019375 0.036292 0.038348 0.012801 0.019736 0.029346 0.006466 0.013906 0.018651 0.004956 0.007593 0.046455 0.032837 0.015007 0.019736 0.021537 0.010951 0.021537 0.038348 0.013538 0.059567 0.077175 0.037664 0.081756 0.068160 0.043773 0.051099 0.068160 0.067845 0.059567 0.078095 0.068160 0.043773 0.051428 0.077175 0.051428 0.052743 0.079014 0.068160 0.036635 0.029697 0.024042 0.031096 0.096066 0.051428 0.051757 0.075636 0.069102 0.056982 0.038348 0.044781 0.081756 0.079319 0.031096 0.051428 0.071604 0.096066 0.086584 0.039372 0.031096 0.032837 0.019736 0.019736 0.036635 0.051428 0.044781 0.059567 0.086584 0.087482 0.081756 0.064365 0.059567 0.076867 0.092536 0.109886 0.092536 0.070668 0.062773 0.069729 0.104184 0.110169 0.088976 0.069102 0.069729 0.062773 0.052414 0.046455 0.051757 0.064365 0.064365 0.048784 0.054052 0.046455 0.048784 0.071604 0.079319 0.087482 0.084479 0.069102 0.082059 0.035604 0.016834 0.031096 0.051428 0.067215 0.062134 0.059245 0.051428 0.024042 0.031096 0.031096 0.027235 0.037664 0.051428 0.051428 0.059567 0.069102 0.078095 0.081756 0.070668 0.086584 0.106474 0.096944 0.091649 0.091649 0.079014 0.079014 0.084479 0.081756 0.025110 0.001534 0.001534 0.000384 0.004956 0.059567 0.124085 0.138626 0.151165 0.133832 0.106474 0.076867 0.042087 0.012062 0.003820 0.001534 0.000384 0.000384 0.001534 0.000768 0.000384 0.001534 0.001534 0.000768 0.000000 0.000384 0.000384 0.000000 0.000000 0.000768 0.000384 0.000384 0.000768 0.000384 0.000384 0.000000 0.000000 0.000000 0.000000 0.000384 0.000384 0.000768 0.015373 0.063092 0.103034 0.095773 0.082059 0.075636 0.056982 0.056982 0.051428 0.045786 0.036292 0.019375 0.019736 0.039372 0.039372 0.039372 0.046455 0.052414 0.029697 0.024042 0.031096 0.046455 0.031096 0.040732 0.042087 0.057630 0.056982 0.040732
9999 9999 9999 9999 9999 9999 9999 0.001534 0.001916 0.000768 0.000384 0.001534 0.001534 0.000768 0.000768 0.003820 0.003820 0.003440 0.006466 0.012062 0.029346 0.010951 0.010951 0.006466 0.006466 0.009463 0.010951 0.003820 0.004956 0.004956 0.004956 0.012801 0.009835 0.023685 0.031096 0.029346 0.031096 0.060532 0.121062 0.113270 0.096944 0.081756 0.081756 0.067845 0.062134 0.064365 0.064365 0.072849 0.054052 0.031096 0.031096 0.036635 0.037664 0.030047 0.023685 0.025110 0.039372 0.070668 0.121062 0.127630 0.078095 0.043437 0.039372 0.043437 0.069102 0.054052 0.052743 0.076867 0.057630 0.110734 0.101014 0.066899 0.038348 0.026882 0.019375 0.021537 0.042087 0.021537 0.009463 0.042087 0.035259 0.009835 0.022613 0.004956 0.003059 0.029346 0.051757 0.021537 0.015007 0.015007 0.015007 0.010951 0.044781 0.037664 0.052414 0.067845 0.060532 0.069102 0.054052 0.059567 0.059245 0.067845 0.051099 0.051099 0.077175 0.070668 0.060532 0.064365 0.082968 0.138361 0.108752 0.012062 0.026882 0.057630 0.059567 0.074709 0.044781 0.074709 0.103034 0.071604 0.057630 0.063092 0.076867 0.087482 0.071604 0.040732 0.071604 0.082059 0.048452 0.127630 0.072849 0.040732 0.021537 0.043437 0.036635 0.019736 0.032837 0.037664 0.036292 0.043437 0.060532 0.069102 0.067215 0.076867 0.084479 0.100725 0.144417 0.119127 0.121062 0.088976 0.082968 0.079319 0.064365 0.069102 0.110169 0.112426 0.115231 0.096066 0.093716 0.064365 0.051757 0.055358 0.066899 0.074709 0.072849 0.064365 0.059245 0.035259 0.042087 0.064365 0.057630 0.057630 0.063092 0.098111 0.071604 0.032489 0.027235 0.052414 0.079625 0.079625 0.068160 0.039372 0.035604 0.031096 0.029346 0.036635 0.051428 0.060532 0.054052 0.064365 0.072849 0.081756 0.078095 0.060532 0.068160 0.127630 0.131685 0.096944 0.084479 0.070668 0.070668 0.087781 0.064365 0.013538 0.001534 0.001916 0.003820 0.063092 0.157308 0.196115 0.138626 0.138626 0.155014 0.139420 0.119127 0.124358 0.096359 0.035604 0.006842 0.001916 0.000384 0.001534 0.000384 0.000768 0.000384 0.000768 0.001916 0.000384 0.000384 0.000384 0.000000 0.000768 0.000384 0.003059 0.000768 0.000768 0.001534 0.000384 0.000000 0.000000 0.000384 0.000384 0.000384 0.000384 0.000000 0.001916 0.018651 0.056982 0.095773 0.096359 0.088976 0.069102 0.063092 0.056982 0.056982 0.051428 0.041749 0.018651 0.019736 0.021537 0.031096 0.018651 0.024042 0.018651 0.009463 0.035259 0.040732 0.051428 0.046455 0.051428 0.038348 0.057630 0.069102
9999 9999 9999 9999 9999 9999 9999 9999 0.000768 0.001916 0.001534 0.001534 0.001534 0.001534 0.001916 0.001916 0.001534 0.001534 0.000384 0.003059 0.015007 0.048784 0.010951 0.013906 0.009463 0.001916 0.010951 0.016834 0.003440 0.003440 0.006089 0.003820 0.003820 0.012062 0.012801 0.016834 0.015373 0.031096 0.060532 0.093716 0.116348 0.106474 0.106474 0.082968 0.048452 0.071604 0.071604 0.071604 0.071604 0.062773 0.054052 0.046455 0.037664 0.037664 0.036292 0.030047 0.019736 0.043437 0.116905 0.140741 0.087482 0.043773 0.051099 0.051099 0.043437 0.029346 0.015373 0.071604 0.060532 0.055358 0.106474 0.110734 0.059245 0.032489 0.016834 0.016834 0.035259 0.032489 0.012062 0.021537 0.051428 0.019375 0.019375 0.021537 0.003059 0.013906 0.048452 0.042087 0.036292 0.021537 0.012801 0.007593 0.031096 0.064365 0.078095 0.043773 0.024042 0.070668 0.096359 0.069102 0.044781 0.067845 0.069102 0.051428 0.051099 0.064365 0.113270 0.147804 0.043437 0.015007 0.096944 0.128715 0.071604 0.066899 0.062773 0.057630 0.076867 0.070668 0.064365 0.042087 0.057630 0.069729 0.075636 0.124358 0.139420 0.121062 0.098111 0.071604 0.067845 0.041749 0.060532 0.052414 0.039372 0.046455 0.046455 0.042087 0.031096 0.021537 0.036635 0.060532 0.043773 0.038348 0.051428 0.066899 0.079014 0.091057 0.124085 0.142845 0.125179 0.130067 0.123537 0.138626 0.127358 0.084479 0.105044 0.138626 0.133832 0.119127 0.096066 0.066899 0.044781 0.048784 0.062773 0.087781 0.081756 0.067215 0.074709 0.059567 0.048452 0.059567 0.063092 0.063092 0.052743 0.071604 0.082666 0.046455 0.052414 0.051099 0.052414 0.056333 0.059245 0.036292 0.032489 0.041749 0.043773 0.051099 0.059567 0.069102 0.070668 0.075636 0.079014 0.070668 0.064365 0.062134 0.081756 0.142582 0.142582 0.096944 0.084479 0.087781 0.087482 0.079319 0.032837 0.006089 0.000768 0.001916 0.064365 0.192109 0.243408 0.196115 0.098693 0.101014 0.139420 0.164874 0.153735 0.153735 0.177709 0.134100 0.052743 0.015373 0.004956 0.001916 0.001916 0.000384 0.000000 0.000384 0.001916 0.000768 0.000768 0.000768 0.000384 0.000768 0.000000 0.000768 0.003059 0.000384 0.001916 0.000768 0.000000 0.000768 0.000768 0.000768 0.000384 0.000384 0.000000 0.000000 0.003059 0.019375 0.069102 0.088976 0.095773 0.075636 0.069102 0.056982 0.057630 0.059567 0.055358 0.038348 0.016834 0.013906 0.006842 0.015373 0.007593 0.004956 0.001534 0.003820 0.021537 0.035604 0.032489 0.052743 0.040732 0.032489 0.045786
9999 9999 9999 9999 9999 9999 9999 9999 0.001534 0.001534 0.001534 0.001534 0.001534 0.001534 0.001534 0.001534 0.001916 0.003820 0.003059 0.007593 0.015007 0.012801 0.032489 0.013906 0.007593 0.009463 0.003440 0.010951 0.016834 0.006842 0.006842 0.009463 0.007593 0.006466 0.006089 0.006466 0.021537 0.041749 0.026882 0.036635 0.087781 0.106474 0.104184 0.117740 0.082666 0.069729 0.084479 0.087482 0.079014 0.072849 0.056333 0.048784 0.046455 0.046455 0.043773 0.037664 0.031096 0.046455 0.086284 0.119127 0.097236 0.059245 0.043773 0.043773 0.036635 0.021537 0.015007 0.051428 0.095773 0.015007 0.042087 0.130067 0.165124 0.044781 0.026882 0.016834 0.021537 0.031096 0.019375 0.012801 0.022613 0.046455 0.029346 0.022613 0.007593 0.006466 0.019375 0.031096 0.046455 0.035259 0.019736 0.013906 0.024042 0.075636 0.077175 0.046455 0.043773 0.086584 0.097236 0.036292 0.043773 0.067845 0.060532 0.068160 0.041749 0.123537 0.167369 0.040732 0.069102 0.067215 0.042087 0.057630 0.063092 0.064365 0.051428 0.027235 0.038348 0.084479 0.067215 0.029346 0.022613 0.046455 0.079014 0.130067 0.171088 0.121062 0.095773 0.069729 0.032489 0.046455 0.052414 0.059567 0.054052 0.043773 0.060532 0.039372 0.016834 0.010951 0.009463 0.035259 0.057630 0.052743 0.062773 0.070668 0.067215 0.079625 0.074709 0.117740 0.088976 0.106474 0.113270 0.139420 0.158831 0.143631 0.140477 0.119127 0.127358 0.121062 0.106474 0.084479 0.062773 0.056333 0.046455 0.072849 0.087781 0.079014 0.066899 0.066899 0.055358 0.064365 0.069102 0.075636 0.064365 0.064365 0.082059 0.070668 0.069102 0.069102 0.062134 0.054052 0.038348 0.048452 0.043773 0.043773 0.051428 0.051099 0.067845 0.077175 0.076867 0.088976 0.084479 0.074709 0.071604 0.070668 0.087781 0.134100 0.153735 0.103322 0.091649 0.100725 0.096066 0.044781 0.009835 0.003059 0.003440 0.040732 0.190688 0.216358 0.190214 0.074709 0.074709 0.096066 0.100725 0.138626 0.159338 0.164123 0.204493 0.209317 0.149875 0.069729 0.022613 0.006842 0.003059 0.003059 0.000768 0.000000 0.000768 0.000768 0.000768 0.003059 0.001916 0.000768 0.000000 0.000000 0.000768 0.001534 0.001916 0.000000 0.000384 0.000768 0.000000 0.000000 0.000384 0.000000 0.000000 0.000000 0.000384 0.001916 0.018651 0.075636 0.110169 0.088976 0.075636 0.056982 0.046455 0.052743 0.042087 0.036292 0.032489 0.031096 0.012062 0.007593 0.019375 0.032837 0.009463 0.006466 0.000768 0.019375 0.019375 0.022613 0.063092 0.036292 0.019375
9999 9999 9999 9999 9999 9999 9999 9999 0.001534 0.001534 0.001534 0.001534 0.001534 0.001534 0.001916 0.003820 0.003820 0.004956 0.009463 0.015007 0.024042 0.009463 0.035259 0.030047 0.000384 0.012062 0.018651 0.003820 0.003059 0.006842 0.009463 0.012062 0.018651 0.022613 0.018651 0.019375 0.019736 0.019736 0.029346 0.019736 0.035259 0.076867 0.110734 0.118850 0.125179 0.110169 0.090166 0.133028 0.109886 0.082968 0.071604 0.062773 0.055358 0.056333 0.046455 0.051428 0.051428 0.031096 0.060532 0.123537 0.123537 0.072849 0.043773 0.037664 0.032837 0.019736 0.015007 0.003059 0.062773 0.097236 0.013906 0.006842 0.190214 0.162114 0.032489 0.022613 0.019375 0.024042 0.024042 0.019375 0.015373 0.018651 0.035604 0.051428 0.140477 0.009463 0.012801 0.019375 0.041749 0.059245 0.024042 0.015373 0.009463 0.062134 0.097236 0.051757 0.051099 0.096066 0.086284 0.060532 0.046455 0.043437 0.059245 0.041749 0.040732 0.149875 0.115231 0.087482 0.067215 0.052743 0.076867 0.051428 0.052743 0.069729 0.082666 0.059567 0.031096 0.064365 0.092536 0.057630 0.044781 0.043773 0.076867 0.048784 0.117740 0.168115 0.124358 0.101014 0.059245 0.043773 0.046455 0.064365 0.048452 0.041749 0.070668 0.063092 0.031096 0.015373 0.009463 0.015373 0.032489 0.051757 0.070668 0.070668 0.081756 0.081756 0.076867 0.125179 0.130067 0.103322 0.091057 0.076867 0.096359 0.091649 0.115231 0.110169 0.104184 0.106474 0.112426 0.115231 0.087781 0.075636 0.064365 0.060532 0.072849 0.087482 0.076867 0.071604 0.052743 0.045786 0.069102 0.082666 0.082666 0.063092 0.074709 0.100725 0.077175 0.059567 0.035259 0.040732 0.044781 0.069102 0.079625 0.056333 0.041749 0.048784 0.052414 0.068160 0.107330 0.116905 0.108752 0.096944 0.071604 0.075636 0.087482 0.130067 0.144939 0.123537 0.110169 0.105044 0.066899 0.015007 0.001916 0.001534 0.019375 0.140741 0.184722 0.130067 0.098111 0.040732 0.051428 0.096944 0.119957 0.130067 0.144417 0.148841 0.177709 0.236717 0.219058 0.184722 0.096359 0.036292 0.012801 0.004956 0.003059 0.000768 0.000384 0.000768 0.000384 0.000768 0.003059 0.003059 0.000384 0.000000 0.000000 0.000384 0.000000 0.000384 0.000768 0.000000 0.000000 0.000000 0.000000 0.000000 0.000000 0.000000 0.000000 0.000768 0.001916 0.015373 0.075636 0.117740 0.088976 0.069102 0.040732 0.046455 0.045786 0.036292 0.035259 0.032489 0.042087 0.015373 0.022613 0.024042 0.024042 0.018289 0.018289 0.004956 0.031096 0.007593 0.027235 0.064365 0.036292
9999 9999 9999 9999 9999 9999 9999 9999 9999 0.001534 0.001534 0.001534 0.001534 0.003820 0.003820 0.001916 0.003820 0.010951 0.016834 0.024042 0.018651 0.052743 0.009463 0.030047 0.000768 0.022613 0.026882 0.001916 0.001534 0.001534 0.003059 0.007593 0.009463 0.024042 0.038348 0.040732 0.056982 0.040732 0.036292 0.041749 0.025110 0.021537 0.051757 0.082666 0.088976 0.157308 0.118850 0.125724 0.181107 0.106474 0.084479 0.079319 0.074709 0.079014 0.072849 0.068160 0.052414 0.023685 0.031096 0.096944 0.128715 0.110169 0.067215 0.035259 0.041749 0.025110 0.013906 0.024042 0.056333 0.044781 0.025110 0.000000 0.052414 0.190688 0.044781 0.035604 0.026882 0.021537 0.019375 0.015373 0.018651 0.022613 0.018651 0.057630 0.063092 0.144939 0.015373 0.016834 0.026882 0.076867 0.040732 0.027235 0.030047 0.051428 0.060532 0.067215 0.086584 0.086584 0.079625 0.074709 0.067215 0.043773 0.031096 0.018289 0.077175 0.091057 0.096944 0.044781 0.057630 0.055358 0.066899 0.075636 0.052743 0.045786 0.084479 0.091649 0.082666 0.087482 0.140477 0.140477 0.142582 0.117740 0.055358 0.042087 0.041749 0.082968 0.130067 0.141268 0.121062 0.084479 0.046455 0.075636 0.103034 0.082059 0.079319 0.101014 0.098111 0.076867 0.048452 0.029346 0.026882 0.031096 0.041749 0.048784 0.070668 0.070668 0.071604 0.087482 0.114392 0.100725 0.098111 0.098111 0.075636 0.052743 0.046455 0.069729 0.075636 0.082666 0.092536 0.128715 0.114392 0.079014 0.064365 0.054052 0.044781 0.051428 0.063092 0.063092 0.057630 0.040732 0.045786 0.069729 0.082059 0.071604 0.056333 0.056333 0.048452 0.032489 0.030047 0.041749 0.079014 0.096066 0.070668 0.062773 0.071604 0.063092 0.046455 0.051757 0.096359 0.138361 0.127630 0.107330 0.096944 0.090166 0.088976 0.124358 0.137034 0.130067 0.124085 0.105044 0.032837 0.001534 0.001916 0.009463 0.103034 0.165124 0.118850 0.118850 0.112426 0.076867 0.068160 0.078095 0.100725 0.140477 0.155014 0.153735 0.164874 0.214776 0.239317 0.236717 0.209317 0.130067 0.074709 0.044781 0.016834 0.007593 0.001916 0.000384 0.000768 0.000768 0.000768 0.003820 0.001916 0.000000 0.000000 0.000000 0.000384 0.000768 0.000000 0.000000 0.000000 0.000000 0.000000 0.000000 0.000000 0.000000 0.000000 0.000000 0.000768 0.001916 0.015373 0.096359 0.158831 0.145461 0.096066 0.066899 0.046455 0.044781 0.044781 0.048452 0.045786 0.015373 0.006842 0.018651 0.046455 0.021537 0.001534 0.009835 0.012801 0.018651 0.013906 0.027235 0.029346
9999 9999 9999 9999 9999 9999 9999 9999 9999 0.001534 0.001534 0.001534 0.003440 0.003820 0.001534 0.003820 0.007593 0.010951 0.013906 0.013906 0.009463 0.015373 0.043437 0.018651 0.012801 0.042087 0.004956 0.003440 0.000768 0.000384 0.000000 0.001916 0.003059 0.006466 0.015373 0.026528 0.045786 0.057630 0.051757 0.046455 0.039372 0.030047 0.018651 0.029346 0.027235 0.063092 0.149875 0.106474 0.168115 0.151938 0.092536 0.087482 0.074709 0.087781 0.100725 0.079014 0.070668 0.035259 0.019736 0.054052 0.119957 0.128715 0.098111 0.055358 0.046455 0.037664 0.018289 0.018289 0.046455 0.043773 0.025110 0.021537 0.031096 0.091649 0.056333 0.032489 0.052743 0.016834 0.019375 0.015373 0.009463 0.027235 0.025110 0.024042 0.076867 0.052743 0.021537 0.021537 0.012062 0.045786 0.059245 0.043773 0.043773 0.051099 0.044781 0.068160 0.093716 0.062134 0.048452 0.051757 0.103322 0.106188 0.068160 0.032837 0.012062 0.059245 0.075636 0.045786 0.035259 0.044781 0.051428 0.075636 0.063092 0.075636 0.084479 0.090166 0.107330 0.163371 0.155014 0.140477 0.106474 0.104184 0.070668 0.051757 0.064365 0.054052 0.039372 0.091649 0.114392 0.112426 0.046455 0.046455 0.063092 0.063092 0.056982 0.063092 0.063092 0.071604 0.079319 0.052743 0.035259 0.016834 0.015373 0.015007 0.019736 0.036292 0.045786 0.051428 0.046455 0.036292 0.039372 0.070668 0.064365 0.057630 0.055358 0.056982 0.051428 0.046455 0.038348 0.059567 0.090166 0.076867 0.048452 0.032489 0.031096 0.032489 0.036292 0.048452 0.048452 0.040732 0.036292 0.046455 0.051428 0.045786 0.035604 0.016834 0.023685 0.054052 0.064365 0.070668 0.087781 0.079014 0.074709 0.087482 0.084479 0.063092 0.057630 0.051428 0.070668 0.116627 0.127630 0.139420 0.137034 0.105044 0.104184 0.104184 0.124085 0.159338 0.128715 0.051757 0.006089 0.000768 0.004956 0.052743 0.127358 0.133028 0.141268 0.141268 0.117740 0.090166 0.087482 0.108752 0.078095 0.098693 0.124085 0.143631 0.159085 0.187595 0.239317 0.236717 0.249806 0.240827 0.185681 0.148841 0.096066 0.032489 0.019375 0.004956 0.000384 0.000768 0.001916 0.001916 0.003059 0.000768 0.000000 0.000384 0.000768 0.000384 0.000000 0.000000 0.000000 0.000384 0.000384 0.000384 0.000000 0.000000 0.000000 0.000000 0.000384 0.000384 0.000768 0.013538 0.082968 0.181107 0.234977 0.281758 0.318139 0.277733 0.081756 0.059567 0.062773 0.036635 0.024042 0.006089 0.009463 0.082666 0.000768 0.003820 0.041749 0.015373 0.012801 0.032489 0.044781
9999 9999 9999 9999 9999 9999 9999 9999 9999 0.001534 0.001534 0.001534 0.003440 0.003440 0.003440 0.006466 0.006466 0.006466 0.009463 0.013538 0.009463 0.006089 0.031096 0.006466 0.035259 0.012801 0.003059 0.003440 0.006466 0.003820 0.003820 0.001534 0.000384 0.000768 0.003820 0.007593 0.021537 0.048784 0.062134 0.054052 0.037664 0.030047 0.024042 0.024042 0.013906 0.013538 0.087781 0.118850 0.098111 0.199855 0.139420 0.101014 0.091649 0.075636 0.082968 0.091649 0.079014 0.059245 0.037664 0.044781 0.059245 0.098111 0.121062 0.121062 0.082968 0.048784 0.025110 0.009463 0.044781 0.052414 0.019375 0.032489 0.024042 0.059567 0.136236 0.009463 0.052743 0.048452 0.015373 0.016834 0.001916 0.003820 0.018651 0.031096 0.030047 0.035259 0.032837 0.012801 0.012801 0.048784 0.078095 0.044781 0.036635 0.043773 0.054052 0.037664 0.070668 0.084479 0.062134 0.072849 0.107330 0.096066 0.137034 0.048784 0.096944 0.063092 0.057630 0.059567 0.070668 0.059567 0.048452 0.069729 0.091649 0.114392 0.104184 0.126542 0.139420 0.103322 0.098111 0.082059 0.057630 0.067215 0.087781 0.051757 0.054052 0.084479 0.059567 0.043773 0.062773 0.082968 0.059567 0.029346 0.054052 0.043773 0.018651 0.024042 0.023685 0.013906 0.024042 0.024042 0.018289 0.016834 0.009463 0.003059 0.001916 0.010951 0.025110 0.030047 0.036635 0.043773 0.041749 0.031096 0.031096 0.031096 0.032489 0.036292 0.044781 0.048452 0.024042 0.009835 0.021537 0.042087 0.040732 0.031096 0.032489 0.032489 0.026882 0.032837 0.042087 0.032489 0.029346 0.035259 0.044781 0.035259 0.029697 0.048784 0.071604 0.076867 0.071604 0.062773 0.075636 0.091057 0.084479 0.079014 0.067215 0.059567 0.056982 0.052743 0.057630 0.091057 0.151938 0.165124 0.156035 0.119957 0.106474 0.104184 0.139420 0.148841 0.082968 0.019736 0.003820 0.001916 0.015373 0.071604 0.153735 0.161359 0.133028 0.117740 0.110734 0.095773 0.087781 0.108752 0.113270 0.091057 0.087781 0.105044 0.124358 0.130067 0.184722 0.219058 0.240827 0.269804 0.223750 0.181107 0.175268 0.121062 0.048452 0.022613 0.006842 0.000768 0.000768 0.001916 0.003059 0.003059 0.001916 0.000384 0.000000 0.000000 0.000000 0.000000 0.000384 0.000384 0.000384 0.000768 0.000384 0.000000 0.000000 0.000000 0.000384 0.000768 0.000768 0.001916 0.003820 0.029697 0.096359 0.161359 0.252134 0.391136 0.386384 0.148841 0.119957 0.066899 0.019375 0.019736 0.001916 0.041749 0.074709 0.006466 0.012801 0.031096 0.031096 0.024042 0.032489
9999 9999 9999 9999 9999 9999 9999 9999 9999 0.003820 0.001534 0.001534 0.003440 0.003440 0.003440 0.006089 0.006089 0.006089 0.009463 0.013538 0.009835 0.009835 0.006466 0.010951 0.006466 0.007593 0.001916 0.010951 0.013906 0.009463 0.003820 0.006089 0.006466 0.006466 0.001916 0.006466 0.013906 0.036292 0.051428 0.052414 0.052414 0.036292 0.018651 0.025110 0.023685 0.009835 0.009835 0.084479 0.098111 0.130067 0.185442 0.133832 0.106474 0.087781 0.072849 0.087781 0.087781 0.074709 0.041749 0.038348 0.039372 0.059245 0.079319 0.106474 0.133832 0.084479 0.048784 0.019736 0.029697 0.042087 0.012801 0.039372 0.044781 0.000768 0.048452 0.108752 0.019736 0.051428 0.032837 0.026882 0.006089 0.006466 0.024042 0.032489 0.013906 0.023685 0.023685 0.009463 0.003820 0.043437 0.072849 0.054052 0.051428 0.036635 0.069102 0.068160 0.035259 0.060532 0.116905 0.086584 0.018651 0.131685 0.224417 0.096359 0.044781 0.084479 0.063092 0.062134 0.081756 0.096066 0.101014 0.113270 0.142582 0.139420 0.169356 0.129797 0.081756 0.069102 0.092536 0.096359 0.118850 0.096359 0.110169 0.117740 0.079319 0.087482 0.082968 0.037664 0.046455 0.079014 0.059245 0.046455 0.059567 0.051428 0.030047 0.041749 0.038348 0.040732 0.057630 0.051428 0.057630 0.042087 0.032837 0.030047 0.044781 0.055358 0.046455 0.045786 0.046455 0.064365 0.069729 0.046455 0.031096 0.027235 0.019736 0.035259 0.029346 0.025110 0.037664 0.029346 0.015373 0.010951 0.015007 0.019736 0.025110 0.037664 0.037664 0.021537 0.029346 0.037664 0.032837 0.025110 0.031096 0.059245 0.081756 0.087482 0.090166 0.088976 0.075636 0.069102 0.084479 0.082968 0.081756 0.070668 0.070668 0.075636 0.064365 0.063092 0.066899 0.095773 0.148841 0.167369 0.165124 0.147804 0.124085 0.101014 0.121062 0.114392 0.048784 0.003440 0.001534 0.010951 0.040732 0.121062 0.175023 0.138626 0.115231 0.117740 0.117740 0.103034 0.071604 0.059245 0.100725 0.126542 0.134100 0.105044 0.115231 0.112426 0.118850 0.155014 0.164123 0.204493 0.226856 0.175268 0.151938 0.187595 0.133028 0.069729 0.027235 0.009463 0.001916 0.000768 0.001916 0.003059 0.003059 0.000768 0.000768 0.000384 0.000000 0.000000 0.000000 0.000768 0.000768 0.000384 0.000768 0.000000 0.000384 0.000384 0.000000 0.000384 0.000768 0.001916 0.000768 0.000768 0.001916 0.000384 0.000384 0.019375 0.281156 0.413938 0.291307 0.179896 0.096066 0.079319 0.026528 0.009835 0.044781 0.051428 0.009463 0.004956 0.019375 0.041749 0.029346
9999 9999 9999 9999 9999 9999 9999 9999 9999 9999 9999 9999 9999 9999 9999 0.006466 0.006466 0.006466 0.009835 0.009835 0.007593 0.007593 0.009463 0.004956 0.004956 0.018651 0.031096 0.012801 0.009835 0.010951 0.009463 0.009835 0.006089 0.006466 0.013538 0.012801 0.022613 0.035259 0.046455 0.043773 0.051099 0.036292 0.013538 0.030047 0.030047 0.009835 0.009463 0.013538 0.066899 0.106474 0.134100 0.151165 0.130067 0.100725 0.079014 0.070668 0.079319 0.082968 0.066899 0.056333 0.052414 0.030047 0.048784 0.075636 0.134100 0.106474 0.055358 0.032837 0.018651 0.042087 0.030047 0.029697 0.039372 0.031096 0.052743 0.029346 0.010951 0.032837 0.037664 0.030047 0.030047 0.012801 0.019375 0.013906 0.006466 0.023685 0.030047 0.006089 0.006842 0.036292 0.051428 0.072849 0.052414 0.036635 0.067845 0.088976 0.079625 0.059245 0.051099 0.064365 0.070668 0.062773 0.091649 0.177709 0.040732 0.063092 0.062773 0.044781 0.035259 0.082968 0.119127 0.151938 0.130067 0.124085 0.138626 0.118850 0.066899 0.055358 0.056982 0.093716 0.174778 0.194469 0.181107 0.211599 0.209317 0.141268 0.143631 0.096066 0.029346 0.056333 0.079014 0.059245 0.070668 0.064365 0.051428 0.052414 0.054052 0.055358 0.046455 0.057630 0.066899 0.051757 0.041749 0.048784 0.070668 0.070668 0.051757 0.059567 0.063092 0.103034 0.088976 0.062773 0.051757 0.032489 0.040732 0.063092 0.045786 0.057630 0.063092 0.040732 0.027235 0.021537 0.024042 0.031096 0.036292 0.032489 0.019736 0.018651 0.037664 0.030047 0.024042 0.039372 0.056333 0.087781 0.103322 0.110169 0.101014 0.096359 0.088976 0.098111 0.096359 0.082059 0.055358 0.060532 0.081756 0.093716 0.087482 0.075636 0.090166 0.125724 0.140741 0.128715 0.163371 0.158831 0.119957 0.106474 0.124358 0.070668 0.015007 0.003820 0.010951 0.042087 0.104184 0.136236 0.151938 0.114392 0.138626 0.145461 0.103034 0.075636 0.046455 0.031096 0.077175 0.117740 0.148841 0.139420 0.130067 0.136236 0.104184 0.112426 0.104184 0.110734 0.192109 0.199855 0.142845 0.141268 0.182798 0.161359 0.106474 0.046455 0.015373 0.003820 0.001916 0.001916 0.003820 0.001916 0.000384 0.000768 0.000000 0.000384 0.000384 0.000000 0.000384 0.000384 0.000768 0.000384 0.000768 0.000768 0.000768 0.000384 0.000768 0.001916 0.000384 0.000384 0.000768 0.000384 0.000000 0.000000 0.012801 0.197755 0.433175 0.477933 0.306123 0.236065 0.169356 0.075636 0.052414 0.009463 0.016834 0.012801 0.010951 0.027235 0.032489
9999 9999 9999 9999 9999 9999 9999 9999 9999 9999 9999 9999 9999 9999 9999 9999 0.007593 0.007593 0.010951 0.010951 0.007593 0.007593 0.007593 0.003059 0.001916 0.010951 0.039372 0.031096 0.004956 0.009463 0.013906 0.006466 0.009463 0.009835 0.025110 0.026882 0.032489 0.040732 0.038348 0.031096 0.044781 0.036635 0.015007 0.018651 0.024042 0.013906 0.013538 0.013906 0.059245 0.088976 0.091057 0.126542 0.119127 0.105044 0.106474 0.070668 0.082968 0.079014 0.074709 0.070668 0.067215 0.037664 0.029697 0.046455 0.100725 0.114392 0.092536 0.054052 0.015007 0.030047 0.043773 0.024042 0.032837 0.031096 0.026882 0.038348 0.026882 0.030047 0.060532 0.051757 0.015007 0.009463 0.015373 0.018651 0.012801 0.026882 0.040732 0.021537 0.029697 0.018289 0.007593 0.055358 0.091649 0.052414 0.056333 0.055358 0.106474 0.100725 0.032837 0.060532 0.048784 0.009463 0.029697 0.103034 0.056982 0.057630 0.064365 0.048452 0.018651 0.069102 0.096359 0.113270 0.114392 0.104184 0.098111 0.096066 0.079319 0.064365 0.064365 0.086284 0.100725 0.158831 0.164874 0.177709 0.225527 0.249806 0.159085 0.156799 0.101014 0.052414 0.051757 0.072849 0.072849 0.072849 0.078095 0.068160 0.059245 0.043437 0.051428 0.064365 0.042087 0.029346 0.054052 0.059245 0.059245 0.062134 0.064365 0.048452 0.075636 0.098111 0.075636 0.070668 0.062134 0.041749 0.057630 0.063092 0.069729 0.075636 0.064365 0.044781 0.035259 0.044781 0.051757 0.048452 0.046455 0.048452 0.042087 0.052743 0.040732 0.035259 0.051757 0.059567 0.076867 0.087482 0.100725 0.116348 0.100725 0.087781 0.079319 0.082059 0.090166 0.059567 0.042087 0.059245 0.100725 0.110734 0.096944 0.087482 0.082666 0.117740 0.133028 0.190688 0.164874 0.208173 0.128715 0.128715 0.105044 0.032837 0.001916 0.029346 0.062773 0.130067 0.149100 0.157308 0.157308 0.133028 0.159085 0.110169 0.066899 0.057630 0.031096 0.031096 0.055358 0.051428 0.084479 0.121062 0.112426 0.133028 0.117740 0.095773 0.088976 0.069729 0.110734 0.190214 0.173305 0.110734 0.139420 0.171088 0.184722 0.125724 0.064365 0.024042 0.006842 0.003820 0.001916 0.001916 0.003440 0.000384 0.000000 0.000768 0.000768 0.000384 0.000768 0.000000 0.000000 0.000384 0.000000 0.000000 0.000384 0.000384 0.001916 0.000768 0.000000 0.000000 0.000384 0.000768 0.000384 0.000384 0.000768 0.006089 0.078095 0.281156 0.434291 0.389782 0.377643 0.275305 0.142845 0.048452 0.015373 0.012801 0.015373 0.024042 0.032489
9999 9999 9999 9999 9999 9999 9999 9999 9999 9999 9999 9999 9999 9999 9999 9999 0.007593 0.007593 0.010951 0.010951 0.007593 0.007593 0.007593 0.004956 0.001534 0.006466 0.032837 0.039372 0.015007 0.001916 0.003820 0.006089 0.006466 0.010951 0.016834 0.016834 0.022613 0.026528 0.019375 0.026882 0.048784 0.039372 0.016834 0.015007 0.018289 0.016834 0.031096 0.013906 0.024042 0.087482 0.093716 0.109886 0.124358 0.101014 0.109886 0.105044 0.070668 0.082968 0.084479 0.072849 0.064365 0.072849 0.036635 0.037664 0.067845 0.056333 0.091057 0.087482 0.031096 0.036292 0.038348 0.018651 0.030047 0.032837 0.021537 0.026882 0.051757 0.075636 0.069102 0.018651 0.036635 0.026882 0.029346 0.040732 0.026528 0.019375 0.056982 0.059567 0.022613 0.026528 0.019375 0.032837 0.105044 0.064365 0.052743 0.079014 0.070668 0.051428 0.042087 0.022613 0.026528 0.022613 0.035604 0.064365 0.075636 0.035604 0.048452 0.055358 0.051099 0.032837 0.024042 0.026882 0.082059 0.112426 0.106474 0.104184 0.092536 0.087781 0.110734 0.107330 0.071604 0.104184 0.112426 0.157308 0.171088 0.232137 0.192109 0.157308 0.191399 0.109886 0.051428 0.062134 0.075636 0.078095 0.081756 0.072849 0.062134 0.054052 0.059567 0.062134 0.044781 0.044781 0.036292 0.048784 0.048784 0.064365 0.069102 0.059245 0.075636 0.082666 0.098111 0.084479 0.069102 0.078095 0.074709 0.088976 0.092536 0.079319 0.064365 0.051757 0.059245 0.067215 0.056333 0.051757 0.057630 0.079319 0.074709 0.075636 0.041749 0.035604 0.055358 0.082968 0.096359 0.096359 0.106474 0.072849 0.077175 0.096066 0.088976 0.084479 0.069729 0.052743 0.067215 0.064365 0.082968 0.113270 0.110734 0.091649 0.096066 0.128715 0.236065 0.269599 0.267753 0.207485 0.142845 0.141268 0.055358 0.006089 0.038348 0.124358 0.190688 0.201947 0.159085 0.191399 0.166124 0.142845 0.103034 0.079014 0.075636 0.041749 0.026528 0.036292 0.026528 0.009463 0.027235 0.084479 0.110734 0.104184 0.110734 0.103034 0.095773 0.069102 0.063092 0.117740 0.165124 0.142845 0.124358 0.139420 0.166124 0.173797 0.118850 0.076867 0.040732 0.019375 0.006842 0.003820 0.001534 0.000768 0.000384 0.000384 0.000000 0.000384 0.000000 0.000000 0.000000 0.000000 0.000000 0.000000 0.000000 0.000768 0.000768 0.000000 0.000000 0.000000 0.000000 0.000384 0.000384 0.000768 0.000384 0.000000 0.000000 0.001534 0.087781 0.218834 0.323593 0.406032 0.336384 0.201715 0.082968 0.038348 0.022613 0.027235 0.031096
9999 9999 9999 9999 9999 9999 9999 9999 9999 9999 9999 9999 9999 9999 9999 9999 9999 0.007593 0.010951 0.012801 0.007593 0.007593 0.007593 0.007593 0.001916 0.001916 0.026882 0.044781 0.024042 0.010951 0.001916 0.006089 0.003820 0.009463 0.009463 0.009463 0.015373 0.016834 0.016834 0.032837 0.051757 0.038348 0.015373 0.009463 0.003820 0.003440 0.039372 0.062134 0.006466 0.036635 0.081756 0.082968 0.119127 0.114392 0.096944 0.105044 0.087781 0.081756 0.088976 0.081756 0.060532 0.062134 0.048784 0.052414 0.081756 0.059567 0.086584 0.070668 0.025110 0.013906 0.044781 0.052414 0.018651 0.021537 0.026882 0.021537 0.088976 0.091057 0.026882 0.077175 0.039372 0.042087 0.027235 0.035604 0.040732 0.022613 0.027235 0.055358 0.041749 0.025110 0.019736 0.018289 0.070668 0.074709 0.048452 0.084479 0.084479 0.041749 0.015007 0.015373 0.009463 0.015007 0.035604 0.063092 0.063092 0.063092 0.048784 0.064365 0.062134 0.019736 0.010951 0.003059 0.015373 0.062773 0.082968 0.088976 0.138626 0.081756 0.116905 0.096944 0.104184 0.104184 0.104184 0.127358 0.164874 0.179896 0.194469 0.134100 0.181107 0.201715 0.106474 0.037664 0.084479 0.084479 0.070668 0.084479 0.079014 0.081756 0.054052 0.039372 0.070668 0.051428 0.051428 0.037664 0.035604 0.062773 0.070668 0.088976 0.071604 0.096359 0.104184 0.075636 0.075636 0.088976 0.103322 0.098111 0.082666 0.074709 0.055358 0.055358 0.079014 0.075636 0.079625 0.072849 0.076867 0.084479 0.091649 0.072849 0.059567 0.051757 0.069729 0.109886 0.109886 0.090166 0.069729 0.051428 0.064365 0.043773 0.106188 0.162114 0.084479 0.069729 0.074709 0.070668 0.082059 0.106474 0.124085 0.133832 0.104184 0.194469 0.391136 0.299734 0.259893 0.176978 0.142845 0.075636 0.001916 0.036292 0.157308 0.226856 0.207026 0.155014 0.143631 0.161359 0.136236 0.124358 0.109886 0.084479 0.063092 0.059567 0.063092 0.055358 0.021537 0.003440 0.003820 0.024042 0.110169 0.148841 0.095773 0.088976 0.104184 0.075636 0.056982 0.088976 0.125724 0.139420 0.143631 0.127358 0.140741 0.165124 0.158831 0.130067 0.092536 0.057630 0.031096 0.012801 0.004956 0.000768 0.000384 0.000768 0.000384 0.000000 0.000000 0.000000 0.000000 0.000000 0.000000 0.000000 0.000384 0.000768 0.000000 0.000000 0.000384 0.000384 0.000384 0.000768 0.001916 0.000768 0.000000 0.000384 0.000384 0.000000 0.000384 0.016834 0.096066 0.246829 0.395353 0.350005 0.232137 0.127358 0.045786 0.032489 0.041749
9999 9999 9999 9999 9999 9999 9999 9999 9999 9999 9999 9999 9999 9999 9999 9999 9999 0.012801 0.007593 0.012801 0.010951 0.007593 0.007593 0.007593 0.004956 0.001916 0.010951 0.035259 0.035259 0.021537 0.009835 0.003059 0.003820 0.009463 0.006842 0.009463 0.012062 0.012801 0.015007 0.036635 0.060532 0.035259 0.012062 0.021537 0.013906 0.015007 0.059567 0.041749 0.041749 0.042087 0.036635 0.043773 0.088976 0.116348 0.100725 0.105044 0.106474 0.098693 0.079625 0.079625 0.070668 0.052414 0.046455 0.036292 0.084479 0.081756 0.070668 0.084479 0.043773 0.018289 0.023685 0.048784 0.029346 0.019736 0.018289 0.072849 0.113270 0.021537 0.059245 0.032837 0.035604 0.031096 0.026528 0.026528 0.031096 0.027235 0.035259 0.056333 0.039372 0.026882 0.026882 0.024042 0.031096 0.063092 0.076867 0.106474 0.096066 0.076867 0.026528 0.015373 0.019375 0.007593 0.009463 0.051428 0.048452 0.044781 0.039372 0.048784 0.055358 0.027235 0.012062 0.009463 0.019736 0.059245 0.063092 0.060532 0.087781 0.079014 0.088976 0.074709 0.082666 0.096359 0.103034 0.134100 0.147804 0.144939 0.170099 0.119127 0.123537 0.176978 0.155014 0.070668 0.044781 0.079014 0.081756 0.072849 0.075636 0.081756 0.092536 0.059245 0.059567 0.059567 0.043773 0.051428 0.070668 0.051757 0.036292 0.079625 0.084479 0.082059 0.092536 0.076867 0.066899 0.093716 0.093716 0.070668 0.057630 0.052743 0.048452 0.064365 0.087482 0.087781 0.072849 0.078095 0.066899 0.082059 0.087482 0.070668 0.068160 0.062134 0.063092 0.087482 0.079014 0.091649 0.084479 0.082968 0.057630 0.079319 0.130067 0.134100 0.110734 0.091649 0.063092 0.087781 0.088976 0.118850 0.166124 0.158831 0.192109 0.395353 0.371927 0.216358 0.104184 0.052743 0.012062 0.006089 0.074709 0.187595 0.234977 0.209317 0.153735 0.144417 0.138626 0.130067 0.142845 0.155014 0.124085 0.119957 0.096066 0.098111 0.075636 0.041749 0.019736 0.015373 0.009835 0.009835 0.029346 0.118850 0.145461 0.084479 0.090166 0.088976 0.064365 0.071604 0.106474 0.119127 0.136236 0.148841 0.133028 0.125724 0.145461 0.161359 0.141268 0.103034 0.075636 0.040732 0.012062 0.006842 0.000768 0.000384 0.000768 0.000768 0.000000 0.000000 0.000000 0.000000 0.000000 0.000000 0.000384 0.000768 0.000384 0.000384 0.000768 0.000384 0.001534 0.001916 0.000768 0.000000 0.000768 0.000768 0.000768 0.001916 0.000384 0.001916 0.009463 0.052743 0.234977 0.371927 0.312255 0.252134 0.133028 0.051757 0.037664
9999 9999 9999 9999 9999 9999 9999 9999 9999 9999 9999 9999 9999 9999 9999 9999 9999 9999 0.012801 0.010951 0.010951 0.007593 0.006466 0.006466 0.003820 0.001916 0.009835 0.026882 0.029346 0.029346 0.019736 0.006466 0.003820 0.009463 0.009463 0.012062 0.012062 0.009463 0.007593 0.030047 0.067845 0.046455 0.032489 0.036292 0.025110 0.059245 0.079319 0.055358 0.031096 0.031096 0.032489 0.037664 0.051428 0.074709 0.104184 0.130067 0.144417 0.116348 0.093716 0.079625 0.070668 0.062134 0.060532 0.036635 0.043773 0.081756 0.078095 0.086284 0.062134 0.018289 0.019375 0.025110 0.030047 0.048784 0.075636 0.066899 0.022613 0.086584 0.059567 0.012062 0.018651 0.027235 0.022613 0.027235 0.032489 0.021537 0.026882 0.066899 0.055358 0.029346 0.032837 0.026882 0.019375 0.031096 0.069729 0.134100 0.134100 0.082666 0.063092 0.032489 0.029346 0.019375 0.016834 0.040732 0.071604 0.044781 0.039372 0.016834 0.035604 0.035259 0.016834 0.009463 0.006842 0.019375 0.062773 0.070668 0.051428 0.062134 0.060532 0.098111 0.088976 0.075636 0.096944 0.153735 0.165124 0.151938 0.163371 0.131685 0.086584 0.144939 0.162114 0.100725 0.052414 0.059567 0.078095 0.069102 0.067845 0.046455 0.087482 0.106474 0.059567 0.067845 0.051428 0.051099 0.059567 0.043773 0.060532 0.052743 0.064365 0.091649 0.076867 0.084479 0.082666 0.074709 0.069102 0.072849 0.059567 0.066899 0.066899 0.075636 0.075636 0.075636 0.070668 0.069102 0.075636 0.069729 0.069102 0.072849 0.067845 0.059567 0.055358 0.066899 0.091649 0.109886 0.115231 0.098111 0.110169 0.110734 0.118850 0.105044 0.106474 0.106474 0.096066 0.096066 0.096066 0.151938 0.177709 0.175268 0.309963 0.337484 0.257179 0.130067 0.025110 0.097236 0.077175 0.126542 0.184722 0.269599 0.247042 0.221745 0.179896 0.151165 0.140477 0.149100 0.177709 0.149100 0.134100 0.116348 0.096944 0.074709 0.036292 0.010951 0.025110 0.037664 0.043773 0.024042 0.026528 0.059245 0.106474 0.104184 0.095773 0.098111 0.087482 0.087482 0.096066 0.109886 0.121062 0.149875 0.165124 0.134100 0.124358 0.134100 0.140741 0.142845 0.127358 0.110734 0.051428 0.015373 0.006842 0.000768 0.000000 0.000384 0.000384 0.000000 0.000000 0.000000 0.000000 0.000384 0.000384 0.001534 0.000768 0.001916 0.000768 0.000384 0.000768 0.001534 0.000384 0.000768 0.000768 0.000000 0.000384 0.001534 0.003440 0.001916 0.000768 0.001916 0.032489 0.199855 0.299734 0.281156 0.216358 0.124358 0.036292
9999 9999 9999 9999 9999 9999 9999 9999 9999 9999 9999 9999 9999 9999 9999 9999 9999 9999 9999 0.015007 0.010951 0.010951 0.009835 0.006089 0.003440 0.001916 0.004956 0.013906 0.024042 0.031096 0.026882 0.010951 0.013538 0.016834 0.012801 0.009463 0.009463 0.006842 0.009463 0.025110 0.077175 0.072849 0.038348 0.019375 0.018651 0.046455 0.031096 0.019375 0.018651 0.031096 0.022613 0.010951 0.019736 0.032489 0.082666 0.155014 0.185442 0.148841 0.116348 0.103322 0.072849 0.064365 0.079625 0.043773 0.048452 0.110734 0.116348 0.088976 0.046455 0.026882 0.041749 0.022613 0.048452 0.070668 0.036635 0.039372 0.067215 0.056333 0.046455 0.059567 0.019375 0.022613 0.019375 0.016834 0.035259 0.035259 0.012801 0.038348 0.064365 0.046455 0.031096 0.024042 0.018651 0.016834 0.042087 0.090166 0.151938 0.115231 0.051428 0.038348 0.031096 0.029346 0.013906 0.026882 0.064365 0.074709 0.059567 0.035604 0.040732 0.032837 0.015373 0.012062 0.009463 0.006842 0.004956 0.027235 0.042087 0.044781 0.052414 0.064365 0.104184 0.106474 0.119127 0.138626 0.151938 0.151938 0.170099 0.159338 0.119957 0.103322 0.134100 0.130067 0.103322 0.068160 0.067845 0.086584 0.059567 0.059567 0.091057 0.069102 0.069102 0.060532 0.046455 0.051428 0.077175 0.068160 0.051428 0.069102 0.074709 0.110169 0.096066 0.103034 0.096359 0.063092 0.079014 0.088976 0.087781 0.087482 0.075636 0.059567 0.075636 0.069729 0.081756 0.069102 0.060532 0.046455 0.084479 0.074709 0.059245 0.076867 0.054052 0.063092 0.109886 0.128715 0.139420 0.104184 0.124085 0.105044 0.096359 0.104184 0.115231 0.114392 0.124085 0.090166 0.138626 0.141268 0.184722 0.260518 0.315299 0.278541 0.155014 0.116348 0.209317 0.161106 0.107330 0.156035 0.201715 0.225083 0.197755 0.171088 0.124085 0.126542 0.140477 0.169356 0.151938 0.121062 0.110169 0.091057 0.088976 0.052414 0.031096 0.029346 0.039372 0.059567 0.062134 0.056333 0.040732 0.075636 0.095773 0.104184 0.115231 0.124358 0.105044 0.119957 0.114392 0.096066 0.112426 0.133028 0.148841 0.151938 0.136236 0.133028 0.125724 0.130067 0.142845 0.168115 0.161359 0.084479 0.032489 0.012801 0.003059 0.000384 0.000000 0.000000 0.000384 0.000384 0.000384 0.000768 0.000384 0.000768 0.000768 0.001916 0.003059 0.001916 0.001916 0.000384 0.000000 0.000384 0.000000 0.000384 0.000768 0.000384 0.000384 0.001534 0.000384 0.000000 0.001916 0.038348 0.184722 0.252978 0.226856 0.190688 0.159085
9999 9999 9999 9999 9999 9999 9999 9999 9999 9999 9999 9999 9999 9999 9999 9999 9999 9999 9999 0.013906 0.010951 0.009835 0.013906 0.009463 0.006089 0.009463 0.018651 0.018651 0.010951 0.013906 0.018651 0.018651 0.023685 0.023685 0.007593 0.012801 0.012801 0.012801 0.009463 0.024042 0.091057 0.081756 0.025110 0.013906 0.021537 0.024042 0.010951 0.009463 0.016834 0.024042 0.007593 0.004956 0.009835 0.009835 0.019736 0.087781 0.181107 0.192346 0.134100 0.106474 0.091649 0.079014 0.091057 0.117740 0.088976 0.096066 0.068160 0.060532 0.084479 0.029346 0.032489 0.048452 0.037664 0.041749 0.060532 0.067845 0.039372 0.009463 0.013906 0.051428 0.027235 0.027235 0.029346 0.024042 0.019736 0.026882 0.021537 0.046455 0.060532 0.037664 0.045786 0.022613 0.024042 0.015007 0.015373 0.062773 0.091057 0.109886 0.069729 0.031096 0.015373 0.018651 0.012801 0.007593 0.021537 0.044781 0.063092 0.066899 0.051757 0.062773 0.027235 0.032489 0.012062 0.012062 0.003059 0.001534 0.019375 0.006089 0.019736 0.055358 0.093716 0.123537 0.144939 0.151938 0.140741 0.115231 0.149875 0.185442 0.148841 0.137034 0.153735 0.138626 0.144417 0.108752 0.077175 0.078095 0.068160 0.069102 0.059567 0.051099 0.059567 0.062134 0.059245 0.069102 0.076867 0.060532 0.068160 0.086584 0.117740 0.079625 0.066899 0.075636 0.048452 0.071604 0.057630 0.067215 0.093716 0.087781 0.081756 0.087781 0.090166 0.082666 0.079014 0.067845 0.051099 0.066899 0.110734 0.057630 0.060532 0.076867 0.059245 0.063092 0.096066 0.119957 0.119957 0.106474 0.088976 0.110169 0.098111 0.125724 0.125179 0.118850 0.124358 0.143631 0.133028 0.218834 0.271235 0.271235 0.269599 0.148841 0.088976 0.287347 0.070668 0.051428 0.106188 0.101014 0.171088 0.121062 0.125724 0.103034 0.115231 0.138626 0.148841 0.138626 0.101014 0.090166 0.079319 0.093716 0.097236 0.096066 0.087482 0.079625 0.054052 0.059567 0.069102 0.087781 0.079319 0.096066 0.139420 0.143631 0.138626 0.143631 0.130067 0.130067 0.139420 0.096359 0.075636 0.096359 0.110169 0.145461 0.158831 0.157308 0.155014 0.139420 0.143631 0.174778 0.208173 0.204493 0.130067 0.074709 0.038348 0.012801 0.001916 0.000768 0.000384 0.000384 0.000000 0.000768 0.000000 0.000384 0.001534 0.000768 0.004956 0.004956 0.003059 0.003820 0.006466 0.003820 0.001534 0.000384 0.000768 0.000000 0.000384 0.000768 0.000768 0.000384 0.000384 0.007593 0.069729 0.198923 0.225083 0.201715 0.191399
9999 9999 9999 9999 9999 9999 9999 9999 9999 9999 9999 9999 9999 9999 9999 9999 9999 9999 9999 0.009835 0.009835 0.013538 0.013906 0.009835 0.013538 0.019736 0.012801 0.006842 0.009463 0.015007 0.015007 0.013906 0.018651 0.023685 0.024042 0.016834 0.016834 0.019736 0.016834 0.045786 0.091649 0.052414 0.013906 0.018289 0.024042 0.013538 0.009835 0.010951 0.013906 0.013906 0.006466 0.007593 0.007593 0.009835 0.019736 0.051428 0.116905 0.181591 0.147804 0.084479 0.072849 0.086584 0.119127 0.108752 0.148841 0.092536 0.057630 0.051428 0.069729 0.088976 0.045786 0.056982 0.048452 0.052414 0.036292 0.019375 0.010951 0.010951 0.003440 0.024042 0.032837 0.021537 0.024042 0.029346 0.039372 0.025110 0.010951 0.037664 0.079014 0.027235 0.044781 0.079319 0.015373 0.019375 0.015007 0.067215 0.081756 0.051757 0.082059 0.069102 0.035604 0.016834 0.025110 0.013906 0.019736 0.024042 0.044781 0.082666 0.072849 0.035604 0.046455 0.059567 0.051428 0.027235 0.019375 0.001916 0.012062 0.001916 0.006089 0.036635 0.079625 0.103322 0.142582 0.167369 0.096066 0.096359 0.148841 0.215455 0.181591 0.105044 0.134100 0.187595 0.208173 0.175023 0.079625 0.093716 0.103322 0.078095 0.069102 0.067845 0.043437 0.054052 0.087482 0.051099 0.044781 0.060532 0.077175 0.096359 0.077175 0.098693 0.077175 0.018651 0.059567 0.070668 0.040732 0.051428 0.079319 0.074709 0.075636 0.084479 0.079319 0.098111 0.079014 0.086284 0.086284 0.091649 0.096359 0.071604 0.084479 0.067845 0.069102 0.059245 0.090166 0.119127 0.119127 0.128715 0.130067 0.096359 0.119127 0.149875 0.134100 0.134100 0.141268 0.166124 0.244693 0.318516 0.249806 0.149875 0.149875 0.036292 0.225527 0.045786 0.096066 0.064365 0.138626 0.173305 0.127358 0.103034 0.121062 0.141268 0.141268 0.133832 0.110169 0.079014 0.066899 0.084479 0.090166 0.096066 0.091057 0.096359 0.106188 0.086284 0.077175 0.059567 0.059567 0.059245 0.091649 0.087781 0.114392 0.143631 0.143631 0.153735 0.134100 0.079319 0.117740 0.134100 0.096359 0.082059 0.087482 0.124085 0.161359 0.187595 0.229503 0.224417 0.159338 0.124358 0.151938 0.194469 0.197755 0.149100 0.124358 0.079319 0.035259 0.007593 0.000768 0.000384 0.000000 0.000384 0.001534 0.000768 0.000768 0.000000 0.000384 0.004956 0.001916 0.003820 0.003440 0.007593 0.006842 0.003059 0.001916 0.000384 0.000768 0.000384 0.000000 0.000384 0.000384 0.001916 0.009463 0.088976 0.209317 0.225305 0.229503
9999 9999 9999 9999 9999 9999 9999 9999 9999 9999 9999 9999 9999 9999 9999 9999 9999 9999 9999 9999 0.013906 0.009835 0.009835 0.013906 0.018289 0.018289 0.013538 0.010951 0.009463 0.012801 0.015007 0.015007 0.021537 0.025110 0.018651 0.023685 0.024042 0.012801 0.024042 0.040732 0.048452 0.018289 0.013538 0.023685 0.018651 0.018651 0.018651 0.006466 0.009835 0.018651 0.009835 0.006466 0.007593 0.010951 0.019736 0.054052 0.091057 0.116905 0.140741 0.119127 0.117740 0.138361 0.069102 0.035604 0.082666 0.168115 0.104184 0.071604 0.048784 0.059567 0.044781 0.040732 0.031096 0.015007 0.013538 0.015007 0.009835 0.009835 0.006466 0.013538 0.025110 0.015007 0.019736 0.025110 0.032837 0.035259 0.021537 0.019736 0.036292 0.042087 0.001916 0.048784 0.062134 0.009463 0.009463 0.044781 0.115231 0.046455 0.036292 0.082059 0.084479 0.048784 0.046455 0.021537 0.015007 0.019736 0.031096 0.079319 0.104184 0.067215 0.036635 0.046455 0.087482 0.066899 0.059567 0.019736 0.019375 0.032489 0.012801 0.015373 0.036635 0.107330 0.142582 0.124085 0.084479 0.079625 0.138626 0.196349 0.181107 0.142845 0.110734 0.151938 0.185442 0.300707 0.179896 0.070668 0.114392 0.100725 0.084479 0.072849 0.039372 0.081756 0.087482 0.041749 0.059567 0.069102 0.078095 0.088976 0.096359 0.096359 0.046455 0.043773 0.081756 0.079625 0.039372 0.041749 0.041749 0.059567 0.079014 0.067215 0.076867 0.088976 0.096066 0.060532 0.096359 0.110734 0.104184 0.098111 0.091057 0.059567 0.060532 0.093716 0.145461 0.173305 0.173797 0.133028 0.121062 0.124358 0.141268 0.145461 0.151938 0.151938 0.173797 0.271235 0.291307 0.199855 0.071604 0.062134 0.007593 0.258224 0.192346 0.082666 0.114392 0.129797 0.164123 0.131685 0.097236 0.104184 0.136236 0.130067 0.098111 0.082666 0.059245 0.064365 0.079319 0.096359 0.082666 0.064365 0.056333 0.060532 0.068160 0.059245 0.067845 0.051428 0.046455 0.048784 0.067215 0.079014 0.074709 0.096066 0.105044 0.115231 0.141268 0.096359 0.069729 0.103034 0.117740 0.106474 0.087781 0.100725 0.121062 0.144417 0.184722 0.221745 0.216358 0.125724 0.098111 0.112426 0.151938 0.145461 0.130067 0.159085 0.153735 0.092536 0.015373 0.000000 0.000384 0.000768 0.000768 0.000768 0.000768 0.000768 0.000384 0.001916 0.000384 0.000384 0.000384 0.000768 0.001534 0.003059 0.003820 0.003440 0.000384 0.000000 0.000000 0.000384 0.000768 0.000768 0.003059 0.015373 0.127358 0.224417 0.239317
9999 9999 9999 9999 9999 9999 9999 9999 9999 9999 9999 9999 9999 9999 9999 9999 9999 9999 9999 9999 0.015007 0.015007 0.013906 0.013906 0.018289 0.018651 0.018289 0.013538 0.010951 0.012801 0.010951 0.019736 0.021537 0.015007 0.013538 0.030047 0.023685 0.009835 0.010951 0.019736 0.024042 0.013906 0.013538 0.015007 0.031096 0.024042 0.018651 0.009835 0.015007 0.015007 0.006466 0.009463 0.009835 0.010951 0.025110 0.068160 0.097236 0.096359 0.100725 0.096944 0.110169 0.109886 0.095773 0.051428 0.051428 0.157308 0.134100 0.096066 0.048452 0.059567 0.036292 0.032489 0.064365 0.026882 0.016834 0.009463 0.015007 0.009463 0.006466 0.013538 0.018651 0.018651 0.018289 0.018651 0.024042 0.025110 0.024042 0.024042 0.021537 0.039372 0.036292 0.022613 0.016834 0.016834 0.007593 0.015007 0.084479 0.090166 0.031096 0.032489 0.074709 0.067215 0.062773 0.042087 0.025110 0.016834 0.015373 0.051428 0.092536 0.114392 0.082968 0.062134 0.084479 0.087482 0.109886 0.055358 0.022613 0.052743 0.041749 0.024042 0.026882 0.054052 0.077175 0.124085 0.134100 0.117740 0.096944 0.104184 0.141268 0.157308 0.148841 0.147804 0.119957 0.179896 0.258224 0.134100 0.123537 0.110734 0.069102 0.093716 0.048784 0.059567 0.093716 0.060532 0.060532 0.087482 0.068160 0.067845 0.100725 0.081756 0.087781 0.075636 0.043773 0.051099 0.068160 0.037664 0.081756 0.110169 0.066899 0.054052 0.066899 0.074709 0.066899 0.087482 0.103322 0.100725 0.100725 0.098111 0.072849 0.032837 0.059567 0.133832 0.168115 0.184722 0.158831 0.125724 0.140741 0.134100 0.136236 0.148841 0.142845 0.142845 0.234977 0.242978 0.161359 0.082968 0.009463 0.070668 0.223750 0.252134 0.097236 0.149875 0.106474 0.071604 0.059567 0.016834 0.070668 0.057630 0.084479 0.075636 0.084479 0.062773 0.057630 0.074709 0.110169 0.079319 0.051428 0.051428 0.055358 0.062134 0.059245 0.051099 0.059245 0.037664 0.037664 0.039372 0.024042 0.055358 0.066899 0.082968 0.101014 0.090166 0.110169 0.133028 0.103034 0.088976 0.098111 0.106474 0.091649 0.074709 0.092536 0.096944 0.101014 0.133028 0.165124 0.165124 0.117740 0.096359 0.104184 0.127358 0.096066 0.113270 0.174778 0.199855 0.106474 0.009835 0.000768 0.000384 0.001534 0.004956 0.000384 0.001916 0.001916 0.003059 0.000384 0.000384 0.001916 0.003820 0.001534 0.000384 0.003820 0.001534 0.000384 0.000384 0.000384 0.000768 0.000768 0.000000 0.000384 0.003059 0.082968 0.223528 0.254452
9999 9999 9999 9999 9999 9999 9999 9999 9999 9999 9999 9999 9999 9999 9999 9999 9999 9999 9999 9999 0.009835 0.013906 0.013906 0.018651 0.018651 0.019736 0.019736 0.019736 0.018289 0.009463 0.009835 0.018651 0.018289 0.009463 0.013538 0.023685 0.019736 0.009835 0.009835 0.018651 0.024042 0.019375 0.015373 0.004956 0.032489 0.052414 0.019736 0.019736 0.024042 0.013906 0.003820 0.006089 0.013538 0.013906 0.013906 0.024042 0.082968 0.124358 0.115231 0.109886 0.109886 0.115231 0.098111 0.069102 0.037664 0.118850 0.229063 0.104184 0.071604 0.059567 0.071604 0.016834 0.042087 0.064365 0.042087 0.018651 0.009463 0.013538 0.006089 0.013538 0.018289 0.018651 0.018289 0.018289 0.024042 0.013906 0.009835 0.024042 0.030047 0.030047 0.048452 0.025110 0.010951 0.010951 0.012801 0.004956 0.032489 0.095773 0.087482 0.035259 0.029346 0.044781 0.059567 0.059567 0.044781 0.027235 0.016834 0.019375 0.055358 0.051757 0.093716 0.096944 0.066899 0.087781 0.098111 0.110169 0.045786 0.046455 0.060532 0.043773 0.054052 0.075636 0.052743 0.075636 0.116627 0.072849 0.062773 0.079625 0.096359 0.129797 0.161359 0.127630 0.096066 0.142582 0.186878 0.163371 0.139420 0.129797 0.069102 0.054052 0.068160 0.069102 0.078095 0.059245 0.059567 0.096359 0.100725 0.043773 0.070668 0.087781 0.052743 0.116348 0.134100 0.064365 0.052414 0.087781 0.087781 0.079625 0.043773 0.044781 0.064365 0.082059 0.110169 0.100725 0.096066 0.098693 0.105044 0.096066 0.077175 0.060532 0.091649 0.139420 0.149875 0.173797 0.134100 0.127358 0.133028 0.125179 0.121062 0.124358 0.118850 0.158831 0.134100 0.106474 0.103034 0.026882 0.090166 0.155014 0.223528 0.074709 0.082666 0.133832 0.052414 0.009835 0.024042 0.019375 0.022613 0.052743 0.076867 0.067215 0.091649 0.087781 0.071604 0.082059 0.079319 0.046455 0.036292 0.063092 0.071604 0.072849 0.086284 0.096066 0.069102 0.056333 0.046455 0.046455 0.029346 0.036635 0.056333 0.067215 0.092536 0.103034 0.110169 0.125179 0.117740 0.096359 0.090166 0.084479 0.096066 0.079319 0.087482 0.082968 0.063092 0.118850 0.121062 0.148841 0.125179 0.088976 0.082666 0.112426 0.119127 0.056333 0.064365 0.181107 0.190688 0.051757 0.000384 0.001534 0.000384 0.004956 0.007593 0.001534 0.004956 0.003820 0.000000 0.000384 0.001534 0.000384 0.000768 0.001916 0.004956 0.001534 0.000768 0.000384 0.000384 0.000768 0.003059 0.000768 0.000000 0.000768 0.037664 0.220179 0.277733
9999 9999 9999 9999 9999 9999 9999 9999 9999 9999 9999 9999 9999 9999 9999 9999 9999 9999 9999 9999 0.013906 0.013906 0.013906 0.013906 0.015007 0.015007 0.021537 0.026882 0.021537 0.016834 0.013906 0.013538 0.015007 0.015007 0.013906 0.019736 0.019736 0.015007 0.009835 0.007593 0.012801 0.019375 0.024042 0.010951 0.025110 0.044781 0.018651 0.025110 0.029697 0.013906 0.003820 0.006466 0.013538 0.013538 0.013906 0.013906 0.025110 0.087482 0.133832 0.119127 0.105044 0.106474 0.095773 0.087482 0.070668 0.029346 0.177709 0.207026 0.098111 0.075636 0.082666 0.052743 0.016834 0.045786 0.064365 0.046455 0.021537 0.009835 0.006466 0.013538 0.023685 0.018289 0.013906 0.013538 0.018651 0.024042 0.018289 0.018651 0.018651 0.010951 0.038348 0.044781 0.016834 0.012801 0.012062 0.012062 0.009463 0.035259 0.090166 0.069729 0.036292 0.019736 0.032489 0.046455 0.036292 0.052743 0.027235 0.026882 0.041749 0.039372 0.037664 0.059567 0.070668 0.070668 0.069729 0.076867 0.071604 0.091057 0.086584 0.064365 0.082968 0.100725 0.106474 0.096359 0.069729 0.070668 0.110169 0.151165 0.159085 0.130067 0.109886 0.140477 0.181107 0.155014 0.140477 0.176734 0.116627 0.075636 0.075636 0.097236 0.088976 0.054052 0.067845 0.086584 0.051428 0.046455 0.079014 0.071604 0.062773 0.092536 0.084479 0.086584 0.142582 0.116627 0.088976 0.072849 0.054052 0.056333 0.068160 0.091649 0.040732 0.100725 0.088976 0.082666 0.062773 0.119127 0.113270 0.109886 0.087482 0.098693 0.096944 0.127358 0.158831 0.133028 0.095773 0.103034 0.151938 0.145461 0.117740 0.124358 0.119127 0.022613 0.096066 0.264664 0.000768 0.138626 0.185681 0.133028 0.123537 0.096944 0.074709 0.013906 0.012801 0.062134 0.010951 0.086584 0.048452 0.095773 0.064365 0.076867 0.109886 0.084479 0.084479 0.088976 0.046455 0.032837 0.048452 0.082666 0.088976 0.074709 0.079625 0.097236 0.075636 0.075636 0.075636 0.070668 0.070668 0.052414 0.048784 0.038348 0.056982 0.088976 0.103034 0.125179 0.117740 0.103034 0.082666 0.071604 0.066899 0.071604 0.064365 0.075636 0.064365 0.087482 0.096359 0.103034 0.130067 0.079319 0.040732 0.059567 0.130067 0.096359 0.035259 0.100725 0.190688 0.115231 0.022613 0.000384 0.000384 0.001534 0.009463 0.006089 0.010951 0.003440 0.003059 0.000384 0.000384 0.001534 0.001916 0.003059 0.000768 0.000384 0.000384 0.000000 0.000768 0.000768 0.000384 0.001916 0.001534 0.000000 0.023685 0.181591 0.314539
9999 9999 9999 9999 9999 9999 9999 9999 9999 9999 9999 9999 9999 9999 9999 9999 9999 9999 9999 9999 0.015007 0.015007 0.015007 0.015007 0.015007 0.015007 0.015007 0.024042 0.024042 0.024042 0.025110 0.013538 0.010951 0.015007 0.015007 0.019736 0.019736 0.015007 0.010951 0.010951 0.009463 0.010951 0.019736 0.025110 0.029346 0.031096 0.018289 0.025110 0.043437 0.019736 0.004956 0.004956 0.009463 0.018289 0.019736 0.010951 0.009463 0.035259 0.106474 0.133832 0.096066 0.095773 0.098111 0.109886 0.095773 0.072849 0.076867 0.158831 0.110734 0.104184 0.118850 0.079319 0.036292 0.041749 0.069102 0.025110 0.040732 0.025110 0.010951 0.018289 0.018289 0.015007 0.019736 0.018289 0.018289 0.018289 0.019736 0.018289 0.015007 0.010951 0.019736 0.048452 0.019736 0.012062 0.012062 0.009463 0.016834 0.009463 0.045786 0.051428 0.062773 0.032489 0.022613 0.040732 0.019375 0.062773 0.032489 0.051428 0.056333 0.059245 0.029346 0.026882 0.093716 0.069102 0.087482 0.072849 0.064365 0.107330 0.138361 0.114392 0.096066 0.124358 0.115231 0.103034 0.110734 0.110734 0.103034 0.126542 0.155014 0.124085 0.143631 0.177709 0.174778 0.155014 0.124358 0.096944 0.062773 0.096066 0.100725 0.069102 0.090166 0.114392 0.096066 0.052414 0.064365 0.056333 0.062773 0.064365 0.071604 0.105044 0.110734 0.117740 0.139420 0.128444 0.091057 0.078095 0.087781 0.064365 0.087482 0.048784 0.059245 0.133028 0.121062 0.071604 0.051428 0.128715 0.134100 0.116348 0.067845 0.069102 0.096944 0.117740 0.151938 0.082666 0.075636 0.133832 0.234977 0.174778 0.124085 0.095773 0.057630 0.097236 0.385020 0.165874 0.155014 0.217260 0.337484 0.072849 0.075636 0.068160 0.006089 0.001534 0.022613 0.086584 0.019736 0.202643 0.037664 0.082666 0.063092 0.088976 0.096066 0.106474 0.110734 0.088976 0.048452 0.041749 0.066899 0.095773 0.088976 0.066899 0.056333 0.068160 0.075636 0.072849 0.091057 0.100725 0.075636 0.056333 0.052743 0.031096 0.026528 0.071604 0.088976 0.125179 0.110734 0.110734 0.088976 0.076867 0.057630 0.063092 0.051428 0.057630 0.071604 0.062773 0.095773 0.096066 0.124085 0.087781 0.024042 0.024042 0.100725 0.165124 0.100725 0.067845 0.124358 0.136236 0.064365 0.015007 0.003059 0.001534 0.001534 0.023685 0.003059 0.001916 0.007593 0.001916 0.001916 0.003059 0.001916 0.000384 0.000384 0.000384 0.000384 0.000000 0.000000 0.001534 0.001534 0.000384 0.000384 0.001916 0.007593 0.116348 0.240827
